( PCB Contour )
( Generated by Rapid-PCB.com )
( Material Size)
( X= 61.000, Y= 39.000, Z= 1.580)
()
G00
G17
G21
G40
G49
G54
G80
G90
G94
G00 F3000 Z3.000
M03 S9000
G00 F3000 X-0.544 Y38.755
G00 F1500 Z0
G01 F600 Z-0.200
G01 F600 X-0.608 Y38.748
G01 F600 X-0.675 Y38.709
G01 F600 X-0.721 Y38.646
G01 F600 X-0.735 Y38.579
G01 F600 X-0.735 Y0.461
G01 F600 X-0.721 Y0.394
G01 F600 X-0.672 Y0.327
G01 F600 X-0.579 Y0.285
G01 F600 X60.434 Y0.285
G01 F600 X60.504 Y0.308
G01 F600 X60.565 Y0.363
G01 F600 X60.595 Y0.457
G01 F600 X60.593 Y38.609
G01 F600 X60.562 Y38.680
G01 F600 X60.504 Y38.732
G01 F600 X60.434 Y38.755
G01 F600 X-0.544 Y38.755
G00 F3000 Z3.000
G00 F3000 X-0.367 Y38.385
G00 F1500 Z0
G01 F600 Z-0.200
G01 F600 X60.225 Y38.385
G01 F600 X60.225 Y0.655
G01 F600 X-0.365 Y0.655
G01 F600 X-0.367 Y38.385
G00 F3000 Z3.000
G00 F3000 X40.192 Y38.179
G00 F1500 Z0
G01 F600 Z-0.200
G01 F600 X40.156 Y38.171
G01 F600 X40.085 Y38.152
G01 F600 X40.047 Y38.135
G01 F600 X40.013 Y38.111
G01 F600 X39.961 Y38.059
G01 F600 X39.936 Y38.031
G01 F600 X39.914 Y37.993
G01 F600 X39.903 Y37.958
G01 F600 X39.884 Y37.887
G01 F600 X39.880 Y37.850
G01 F600 X39.880 Y23.310
G01 F600 X39.884 Y23.272
G01 F600 X39.903 Y23.202
G01 F600 X39.914 Y23.166
G01 F600 X39.936 Y23.128
G01 F600 X39.961 Y23.100
G01 F600 X40.013 Y23.049
G01 F600 X40.047 Y23.024
G01 F600 X40.085 Y23.007
G01 F600 X40.156 Y22.988
G01 F600 X40.191 Y22.981
G01 F600 X40.226 Y22.980
G01 F600 X40.506 Y22.944
G01 F600 X40.771 Y22.876
G01 F600 X41.025 Y22.774
G01 F600 X41.273 Y22.638
G01 F600 X41.281 Y22.632
G01 F600 X41.127 Y22.478
G01 F600 X41.083 Y22.510
G01 F600 X40.704 Y22.679
G01 F600 X40.298 Y22.765
G01 F600 X39.882 Y22.765
G01 F600 X39.476 Y22.679
G01 F600 X39.097 Y22.510
G01 F600 X38.761 Y22.266
G01 F600 X38.483 Y21.957
G01 F600 X38.276 Y21.598
G01 F600 X38.148 Y21.203
G01 F600 X38.104 Y20.790
G01 F600 X38.148 Y20.377
G01 F600 X38.276 Y19.982
G01 F600 X38.483 Y19.623
G01 F600 X38.761 Y19.314
G01 F600 X39.097 Y19.070
G01 F600 X39.476 Y18.901
G01 F600 X39.882 Y18.815
G01 F600 X40.298 Y18.815
G01 F600 X40.704 Y18.901
G01 F600 X41.083 Y19.070
G01 F600 X41.127 Y19.102
G01 F600 X41.281 Y18.948
G01 F600 X41.267 Y18.938
G01 F600 X41.020 Y18.803
G01 F600 X40.764 Y18.702
G01 F600 X40.499 Y18.635
G01 F600 X40.187 Y18.599
G01 F600 X40.156 Y18.592
G01 F600 X40.085 Y18.573
G01 F600 X40.047 Y18.556
G01 F600 X40.013 Y18.531
G01 F600 X39.961 Y18.480
G01 F600 X39.936 Y18.452
G01 F600 X39.914 Y18.414
G01 F600 X39.903 Y18.378
G01 F600 X39.884 Y18.308
G01 F600 X39.880 Y18.271
G01 F600 X39.880 Y1.190
G01 F600 X39.884 Y1.153
G01 F600 X39.903 Y1.082
G01 F600 X39.914 Y1.047
G01 F600 X39.936 Y1.009
G01 F600 X39.961 Y0.981
G01 F600 X40.013 Y0.929
G01 F600 X40.047 Y0.905
G01 F600 X40.085 Y0.888
G01 F600 X40.156 Y0.869
G01 F600 X40.192 Y0.861
G01 F600 X59.708 Y0.861
G01 F600 X59.744 Y0.869
G01 F600 X59.815 Y0.888
G01 F600 X59.853 Y0.905
G01 F600 X59.887 Y0.929
G01 F600 X59.938 Y0.981
G01 F600 X59.963 Y1.009
G01 F600 X59.985 Y1.047
G01 F600 X59.997 Y1.082
G01 F600 X60.016 Y1.153
G01 F600 X60.020 Y1.190
G01 F600 X60.020 Y37.850
G01 F600 X60.016 Y37.887
G01 F600 X59.997 Y37.958
G01 F600 X59.985 Y37.993
G01 F600 X59.963 Y38.031
G01 F600 X59.938 Y38.059
G01 F600 X59.887 Y38.111
G01 F600 X59.853 Y38.135
G01 F600 X59.815 Y38.152
G01 F600 X59.744 Y38.171
G01 F600 X59.708 Y38.179
G01 F600 X40.192 Y38.179
G00 F3000 Z3.000
G00 F3000 X0.152 Y38.179
G00 F1500 Z0
G01 F600 Z-0.200
G01 F600 X0.116 Y38.171
G01 F600 X0.045 Y38.152
G01 F600 X0.007 Y38.135
G01 F600 X-0.027 Y38.111
G01 F600 X-0.078 Y38.059
G01 F600 X-0.103 Y38.031
G01 F600 X-0.125 Y37.993
G01 F600 X-0.137 Y37.958
G01 F600 X-0.156 Y37.887
G01 F600 X-0.160 Y37.850
G01 F600 X-0.160 Y1.190
G01 F600 X-0.156 Y1.153
G01 F600 X-0.137 Y1.082
G01 F600 X-0.125 Y1.047
G01 F600 X-0.103 Y1.009
G01 F600 X-0.078 Y0.981
G01 F600 X-0.027 Y0.929
G01 F600 X0.007 Y0.905
G01 F600 X0.045 Y0.888
G01 F600 X0.116 Y0.869
G01 F600 X0.152 Y0.861
G01 F600 X34.908 Y0.861
G01 F600 X34.945 Y0.869
G01 F600 X35.015 Y0.888
G01 F600 X35.053 Y0.905
G01 F600 X35.087 Y0.929
G01 F600 X35.139 Y0.981
G01 F600 X35.164 Y1.009
G01 F600 X35.186 Y1.047
G01 F600 X35.198 Y1.082
G01 F600 X35.216 Y1.153
G01 F600 X35.220 Y1.190
G01 F600 X35.220 Y18.271
G01 F600 X35.216 Y18.308
G01 F600 X35.198 Y18.378
G01 F600 X35.186 Y18.414
G01 F600 X35.164 Y18.452
G01 F600 X35.139 Y18.480
G01 F600 X35.087 Y18.531
G01 F600 X35.053 Y18.556
G01 F600 X35.015 Y18.573
G01 F600 X34.945 Y18.592
G01 F600 X34.908 Y18.600
G01 F600 X33.157 Y18.600
G01 F600 X33.131 Y18.603
G01 F600 X33.049 Y18.634
G01 F600 X32.984 Y18.682
G01 F600 X32.933 Y18.750
G01 F600 X32.902 Y18.836
G01 F600 X32.900 Y18.850
G01 F600 X32.900 Y20.330
G01 F600 X33.105 Y20.330
G01 F600 X33.105 Y18.805
G01 F600 X37.075 Y18.805
G01 F600 X37.075 Y22.775
G01 F600 X33.105 Y22.775
G01 F600 X33.105 Y21.252
G01 F600 X32.900 Y21.253
G01 F600 X32.900 Y22.732
G01 F600 X32.902 Y22.747
G01 F600 X32.933 Y22.829
G01 F600 X32.984 Y22.899
G01 F600 X33.048 Y22.947
G01 F600 X33.130 Y22.977
G01 F600 X33.163 Y22.980
G01 F600 X34.908 Y22.980
G01 F600 X34.945 Y22.988
G01 F600 X35.015 Y23.007
G01 F600 X35.053 Y23.024
G01 F600 X35.087 Y23.049
G01 F600 X35.139 Y23.100
G01 F600 X35.164 Y23.128
G01 F600 X35.186 Y23.166
G01 F600 X35.198 Y23.202
G01 F600 X35.216 Y23.272
G01 F600 X35.220 Y23.309
G01 F600 X35.220 Y37.850
G01 F600 X35.216 Y37.887
G01 F600 X35.198 Y37.958
G01 F600 X35.186 Y37.993
G01 F600 X35.164 Y38.031
G01 F600 X35.139 Y38.059
G01 F600 X35.087 Y38.111
G01 F600 X35.053 Y38.135
G01 F600 X35.015 Y38.152
G01 F600 X34.945 Y38.171
G01 F600 X34.908 Y38.179
G01 F600 X0.152 Y38.179
G00 F3000 Z3.000
G00 F3000 X0.278 Y37.760
G00 F1500 Z0
G01 F600 Z-0.200
G01 F600 X34.800 Y37.760
G01 F600 X34.800 Y33.700
G01 F600 X29.491 Y33.700
G01 F600 X29.486 Y33.769
G01 F600 X29.482 Y33.806
G01 F600 X29.423 Y34.075
G01 F600 X29.411 Y34.110
G01 F600 X29.313 Y34.372
G01 F600 X29.181 Y34.613
G01 F600 X29.162 Y34.645
G01 F600 X28.997 Y34.866
G01 F600 X28.972 Y34.893
G01 F600 X28.774 Y35.090
G01 F600 X28.551 Y35.257
G01 F600 X28.524 Y35.276
G01 F600 X28.282 Y35.408
G01 F600 X28.248 Y35.423
G01 F600 X27.985 Y35.520
G01 F600 X27.716 Y35.579
G01 F600 X27.681 Y35.585
G01 F600 X27.406 Y35.605
G01 F600 X27.369 Y35.605
G01 F600 X27.094 Y35.585
G01 F600 X27.058 Y35.577
G01 F600 X26.822 Y35.526
G01 F600 X26.786 Y35.517
G01 F600 X26.527 Y35.421
G01 F600 X26.494 Y35.406
G01 F600 X26.252 Y35.273
G01 F600 X26.226 Y35.254
G01 F600 X26.003 Y35.087
G01 F600 X25.805 Y34.889
G01 F600 X25.783 Y34.865
G01 F600 X25.615 Y34.641
G01 F600 X25.599 Y34.613
G01 F600 X25.462 Y34.363
G01 F600 X25.454 Y34.325
G01 F600 X19.711 Y34.326
G01 F600 X19.664 Y34.330
G01 F600 X19.611 Y34.326
G01 F600 X19.568 Y34.325
G01 F600 X19.525 Y34.315
G01 F600 X19.502 Y34.309
G01 F600 X19.464 Y34.303
G01 F600 X19.424 Y34.293
G01 F600 X19.368 Y34.275
G01 F600 X19.331 Y34.258
G01 F600 X19.272 Y34.227
G01 F600 X19.235 Y34.209
G01 F600 X19.188 Y34.178
G01 F600 X19.155 Y34.153
G01 F600 X19.110 Y34.112
G01 F600 X19.089 Y34.091
G01 F600 X19.025 Y34.026
G01 F600 X19.025 Y34.026
G01 F600 X18.528 Y33.530
G01 F600 X17.081 Y33.530
G01 F600 X17.016 Y33.523
G01 F600 X16.980 Y33.515
G01 F600 X16.837 Y33.462
G01 F600 X16.802 Y33.446
G01 F600 X16.766 Y33.420
G01 F600 X16.713 Y33.380
G01 F600 X16.651 Y33.334
G01 F600 X16.625 Y33.305
G01 F600 X16.534 Y33.183
G01 F600 X16.516 Y33.153
G01 F600 X16.471 Y33.055
G01 F600 X7.820 Y33.056
G01 F600 X7.785 Y33.151
G01 F600 X7.760 Y33.191
G01 F600 X7.673 Y33.307
G01 F600 X7.640 Y33.340
G01 F600 X7.527 Y33.425
G01 F600 X7.497 Y33.447
G01 F600 X7.454 Y33.465
G01 F600 X7.319 Y33.515
G01 F600 X7.275 Y33.524
G01 F600 X7.212 Y33.530
G01 F600 X7.182 Y33.530
G01 F600 X4.581 Y33.530
G01 F600 X4.516 Y33.523
G01 F600 X4.480 Y33.515
G01 F600 X4.337 Y33.462
G01 F600 X4.302 Y33.446
G01 F600 X4.266 Y33.420
G01 F600 X4.213 Y33.380
G01 F600 X4.151 Y33.334
G01 F600 X4.125 Y33.305
G01 F600 X4.034 Y33.183
G01 F600 X4.015 Y33.150
G01 F600 X3.961 Y33.006
G01 F600 X3.950 Y32.971
G01 F600 X3.942 Y32.903
G01 F600 X3.939 Y32.872
G01 F600 X3.939 Y31.568
G01 F600 X3.943 Y31.530
G01 F600 X3.950 Y31.469
G01 F600 X3.961 Y31.434
G01 F600 X4.015 Y31.290
G01 F600 X4.034 Y31.257
G01 F600 X4.125 Y31.135
G01 F600 X4.151 Y31.106
G01 F600 X4.273 Y31.015
G01 F600 X4.302 Y30.994
G01 F600 X4.337 Y30.978
G01 F600 X4.480 Y30.925
G01 F600 X4.516 Y30.917
G01 F600 X4.585 Y30.910
G01 F600 X7.216 Y30.910
G01 F600 X7.284 Y30.917
G01 F600 X7.320 Y30.925
G01 F600 X7.463 Y30.978
G01 F600 X7.498 Y30.994
G01 F600 X7.527 Y31.015
G01 F600 X7.649 Y31.106
G01 F600 X7.675 Y31.135
G01 F600 X7.766 Y31.257
G01 F600 X7.785 Y31.290
G01 F600 X7.821 Y31.385
G01 F600 X16.487 Y31.364
G01 F600 X16.515 Y31.290
G01 F600 X16.534 Y31.257
G01 F600 X16.625 Y31.135
G01 F600 X16.651 Y31.106
G01 F600 X16.773 Y31.015
G01 F600 X16.802 Y30.994
G01 F600 X16.837 Y30.978
G01 F600 X16.980 Y30.925
G01 F600 X17.016 Y30.917
G01 F600 X17.085 Y30.910
G01 F600 X19.716 Y30.910
G01 F600 X19.784 Y30.917
G01 F600 X19.820 Y30.925
G01 F600 X19.963 Y30.978
G01 F600 X19.998 Y30.994
G01 F600 X20.027 Y31.015
G01 F600 X20.149 Y31.106
G01 F600 X20.175 Y31.135
G01 F600 X20.266 Y31.257
G01 F600 X20.285 Y31.290
G01 F600 X20.302 Y31.335
G01 F600 X20.340 Y31.436
G01 F600 X20.351 Y31.478
G01 F600 X20.358 Y31.538
G01 F600 X20.361 Y31.571
G01 F600 X20.377 Y32.655
G01 F600 X25.453 Y32.643
G01 F600 X25.465 Y32.612
G01 F600 X25.599 Y32.367
G01 F600 X25.615 Y32.339
G01 F600 X25.783 Y32.115
G01 F600 X25.805 Y32.091
G01 F600 X26.003 Y31.893
G01 F600 X26.226 Y31.726
G01 F600 X26.252 Y31.707
G01 F600 X26.498 Y31.572
G01 F600 X26.528 Y31.559
G01 F600 X26.791 Y31.461
G01 F600 X27.062 Y31.402
G01 F600 X27.094 Y31.395
G01 F600 X27.374 Y31.375
G01 F600 X27.406 Y31.375
G01 F600 X27.686 Y31.395
G01 F600 X27.718 Y31.402
G01 F600 X27.989 Y31.461
G01 F600 X28.253 Y31.559
G01 F600 X28.282 Y31.572
G01 F600 X28.528 Y31.707
G01 F600 X28.554 Y31.726
G01 F600 X28.777 Y31.893
G01 F600 X28.976 Y32.091
G01 F600 X28.997 Y32.115
G01 F600 X29.165 Y32.340
G01 F600 X29.184 Y32.371
G01 F600 X29.315 Y32.612
G01 F600 X29.333 Y32.660
G01 F600 X29.413 Y32.874
G01 F600 X29.423 Y32.905
G01 F600 X29.471 Y33.126
G01 F600 X29.483 Y33.180
G01 F600 X29.486 Y33.216
G01 F600 X29.491 Y33.280
G01 F600 X34.800 Y33.280
G01 F600 X34.800 Y25.076
G01 F600 X20.360 Y25.076
G01 F600 X20.360 Y25.256
G01 F600 X20.357 Y25.287
G01 F600 X20.347 Y25.360
G01 F600 X20.335 Y25.394
G01 F600 X20.279 Y25.537
G01 F600 X20.261 Y25.570
G01 F600 X20.179 Y25.678
G01 F600 X20.141 Y25.719
G01 F600 X20.032 Y25.801
G01 F600 X19.987 Y25.830
G01 F600 X19.954 Y25.845
G01 F600 X19.812 Y25.896
G01 F600 X19.776 Y25.903
G01 F600 X19.712 Y25.910
G01 F600 X18.643 Y25.910
G01 F600 X18.588 Y25.897
G01 F600 X18.548 Y25.879
G01 F600 X18.512 Y25.853
G01 F600 X18.483 Y25.820
G01 F600 X18.460 Y25.782
G01 F600 X18.444 Y25.727
G01 F600 X18.440 Y25.688
G01 F600 X18.440 Y25.285
G01 F600 X18.360 Y25.285
G01 F600 X18.360 Y25.690
G01 F600 X18.352 Y25.742
G01 F600 X18.339 Y25.782
G01 F600 X18.317 Y25.820
G01 F600 X18.288 Y25.853
G01 F600 X18.250 Y25.880
G01 F600 X18.197 Y25.901
G01 F600 X18.156 Y25.910
G01 F600 X18.121 Y25.910
G01 F600 X17.081 Y25.909
G01 F600 X17.018 Y25.902
G01 F600 X16.973 Y25.892
G01 F600 X16.844 Y25.844
G01 F600 X16.794 Y25.820
G01 F600 X16.766 Y25.799
G01 F600 X16.646 Y25.706
G01 F600 X16.620 Y25.678
G01 F600 X16.539 Y25.569
G01 F600 X16.512 Y25.521
G01 F600 X16.464 Y25.392
G01 F600 X16.449 Y25.342
G01 F600 X16.443 Y25.284
G01 F600 X16.440 Y25.249
G01 F600 X16.440 Y25.076
G01 F600 X7.860 Y25.076
G01 F600 X7.860 Y25.256
G01 F600 X7.857 Y25.287
G01 F600 X7.847 Y25.360
G01 F600 X7.835 Y25.394
G01 F600 X7.779 Y25.537
G01 F600 X7.761 Y25.570
G01 F600 X7.679 Y25.678
G01 F600 X7.641 Y25.719
G01 F600 X7.532 Y25.801
G01 F600 X7.487 Y25.830
G01 F600 X7.454 Y25.845
G01 F600 X7.312 Y25.896
G01 F600 X7.276 Y25.903
G01 F600 X7.212 Y25.910
G01 F600 X6.144 Y25.910
G01 F600 X6.088 Y25.897
G01 F600 X6.048 Y25.879
G01 F600 X6.012 Y25.853
G01 F600 X5.983 Y25.820
G01 F600 X5.961 Y25.782
G01 F600 X5.944 Y25.727
G01 F600 X5.940 Y25.688
G01 F600 X5.940 Y25.285
G01 F600 X5.860 Y25.285
G01 F600 X5.860 Y25.690
G01 F600 X5.852 Y25.742
G01 F600 X5.839 Y25.782
G01 F600 X5.817 Y25.820
G01 F600 X5.788 Y25.853
G01 F600 X5.750 Y25.880
G01 F600 X5.697 Y25.901
G01 F600 X5.656 Y25.910
G01 F600 X5.621 Y25.910
G01 F600 X4.581 Y25.909
G01 F600 X4.519 Y25.902
G01 F600 X4.473 Y25.892
G01 F600 X4.344 Y25.844
G01 F600 X4.294 Y25.820
G01 F600 X4.266 Y25.799
G01 F600 X4.146 Y25.706
G01 F600 X4.120 Y25.678
G01 F600 X4.039 Y25.569
G01 F600 X4.012 Y25.521
G01 F600 X3.964 Y25.392
G01 F600 X3.949 Y25.342
G01 F600 X3.943 Y25.284
G01 F600 X3.940 Y25.249
G01 F600 X3.940 Y24.860
G01 F600 X3.948 Y24.808
G01 F600 X3.961 Y24.768
G01 F600 X3.983 Y24.730
G01 F600 X4.012 Y24.697
G01 F600 X4.050 Y24.670
G01 F600 X4.103 Y24.649
G01 F600 X4.144 Y24.640
G01 F600 X4.565 Y24.640
G01 F600 X4.565 Y24.560
G01 F600 X4.144 Y24.560
G01 F600 X4.088 Y24.547
G01 F600 X4.048 Y24.529
G01 F600 X4.012 Y24.503
G01 F600 X3.983 Y24.470
G01 F600 X3.961 Y24.432
G01 F600 X3.944 Y24.377
G01 F600 X3.940 Y24.338
G01 F600 X3.940 Y23.944
G01 F600 X3.943 Y23.913
G01 F600 X3.953 Y23.840
G01 F600 X3.965 Y23.806
G01 F600 X4.021 Y23.663
G01 F600 X4.039 Y23.630
G01 F600 X4.121 Y23.521
G01 F600 X4.160 Y23.480
G01 F600 X4.268 Y23.399
G01 F600 X4.313 Y23.370
G01 F600 X4.346 Y23.355
G01 F600 X4.488 Y23.304
G01 F600 X4.524 Y23.297
G01 F600 X4.588 Y23.290
G01 F600 X5.656 Y23.290
G01 F600 X5.696 Y23.299
G01 F600 X5.714 Y23.305
G01 F600 X6.118 Y23.296
G01 F600 X6.144 Y23.290
G01 F600 X7.219 Y23.291
G01 F600 X7.282 Y23.298
G01 F600 X7.328 Y23.308
G01 F600 X7.456 Y23.356
G01 F600 X7.506 Y23.380
G01 F600 X7.534 Y23.401
G01 F600 X7.654 Y23.494
G01 F600 X7.680 Y23.522
G01 F600 X7.761 Y23.631
G01 F600 X7.788 Y23.679
G01 F600 X7.813 Y23.746
G01 F600 X16.488 Y23.746
G01 F600 X16.521 Y23.663
G01 F600 X16.539 Y23.630
G01 F600 X16.621 Y23.521
G01 F600 X16.660 Y23.480
G01 F600 X16.768 Y23.399
G01 F600 X16.813 Y23.370
G01 F600 X16.846 Y23.355
G01 F600 X16.988 Y23.304
G01 F600 X17.024 Y23.297
G01 F600 X17.088 Y23.290
G01 F600 X18.159 Y23.290
G01 F600 X18.210 Y23.305
G01 F600 X18.618 Y23.296
G01 F600 X18.644 Y23.290
G01 F600 X19.719 Y23.291
G01 F600 X19.782 Y23.298
G01 F600 X19.828 Y23.308
G01 F600 X19.956 Y23.356
G01 F600 X20.006 Y23.380
G01 F600 X20.034 Y23.401
G01 F600 X20.154 Y23.494
G01 F600 X20.180 Y23.522
G01 F600 X20.261 Y23.631
G01 F600 X20.288 Y23.679
G01 F600 X20.313 Y23.746
G01 F600 X34.797 Y23.746
G01 F600 X34.785 Y23.400
G01 F600 X33.121 Y23.399
G01 F600 X33.063 Y23.393
G01 F600 X33.013 Y23.382
G01 F600 X32.883 Y23.333
G01 F600 X32.834 Y23.310
G01 F600 X32.806 Y23.289
G01 F600 X32.686 Y23.196
G01 F600 X32.660 Y23.168
G01 F600 X32.579 Y23.059
G01 F600 X32.552 Y23.011
G01 F600 X32.504 Y22.882
G01 F600 X32.489 Y22.832
G01 F600 X32.483 Y22.776
G01 F600 X32.480 Y22.739
G01 F600 X32.480 Y21.050
G01 F600 X32.488 Y20.998
G01 F600 X32.501 Y20.958
G01 F600 X32.523 Y20.920
G01 F600 X32.552 Y20.887
G01 F600 X32.590 Y20.860
G01 F600 X32.643 Y20.839
G01 F600 X32.684 Y20.830
G01 F600 X33.105 Y20.830
G01 F600 X33.105 Y20.750
G01 F600 X32.684 Y20.750
G01 F600 X32.628 Y20.737
G01 F600 X32.588 Y20.719
G01 F600 X32.552 Y20.693
G01 F600 X32.523 Y20.660
G01 F600 X32.501 Y20.622
G01 F600 X32.484 Y20.567
G01 F600 X32.480 Y20.528
G01 F600 X32.480 Y18.834
G01 F600 X32.483 Y18.803
G01 F600 X32.493 Y18.730
G01 F600 X32.505 Y18.696
G01 F600 X32.561 Y18.553
G01 F600 X32.579 Y18.520
G01 F600 X32.661 Y18.411
G01 F600 X32.700 Y18.370
G01 F600 X32.808 Y18.289
G01 F600 X32.853 Y18.260
G01 F600 X32.886 Y18.245
G01 F600 X33.028 Y18.194
G01 F600 X33.064 Y18.187
G01 F600 X33.128 Y18.180
G01 F600 X34.800 Y18.180
G01 F600 X34.800 Y17.456
G01 F600 X20.360 Y17.456
G01 F600 X20.360 Y17.636
G01 F600 X20.357 Y17.667
G01 F600 X20.347 Y17.740
G01 F600 X20.335 Y17.774
G01 F600 X20.279 Y17.917
G01 F600 X20.261 Y17.950
G01 F600 X20.179 Y18.059
G01 F600 X20.141 Y18.099
G01 F600 X20.032 Y18.181
G01 F600 X19.987 Y18.210
G01 F600 X19.954 Y18.225
G01 F600 X19.812 Y18.276
G01 F600 X19.776 Y18.283
G01 F600 X19.712 Y18.290
G01 F600 X18.643 Y18.290
G01 F600 X18.588 Y18.277
G01 F600 X18.548 Y18.259
G01 F600 X18.512 Y18.233
G01 F600 X18.483 Y18.200
G01 F600 X18.460 Y18.162
G01 F600 X18.444 Y18.107
G01 F600 X18.440 Y18.068
G01 F600 X18.440 Y17.665
G01 F600 X18.360 Y17.665
G01 F600 X18.360 Y18.070
G01 F600 X18.352 Y18.123
G01 F600 X18.339 Y18.162
G01 F600 X18.317 Y18.200
G01 F600 X18.288 Y18.233
G01 F600 X18.250 Y18.260
G01 F600 X18.197 Y18.281
G01 F600 X18.156 Y18.290
G01 F600 X18.121 Y18.290
G01 F600 X17.081 Y18.289
G01 F600 X17.023 Y18.283
G01 F600 X16.973 Y18.272
G01 F600 X16.843 Y18.223
G01 F600 X16.794 Y18.200
G01 F600 X16.766 Y18.179
G01 F600 X16.646 Y18.086
G01 F600 X16.620 Y18.058
G01 F600 X16.539 Y17.949
G01 F600 X16.512 Y17.901
G01 F600 X16.464 Y17.772
G01 F600 X16.449 Y17.722
G01 F600 X16.443 Y17.664
G01 F600 X16.440 Y17.629
G01 F600 X16.440 Y17.456
G01 F600 X7.860 Y17.456
G01 F600 X7.860 Y17.636
G01 F600 X7.857 Y17.667
G01 F600 X7.847 Y17.740
G01 F600 X7.835 Y17.774
G01 F600 X7.779 Y17.917
G01 F600 X7.761 Y17.950
G01 F600 X7.679 Y18.059
G01 F600 X7.641 Y18.099
G01 F600 X7.532 Y18.181
G01 F600 X7.487 Y18.210
G01 F600 X7.454 Y18.225
G01 F600 X7.312 Y18.276
G01 F600 X7.276 Y18.283
G01 F600 X7.212 Y18.290
G01 F600 X6.144 Y18.290
G01 F600 X6.088 Y18.277
G01 F600 X6.048 Y18.259
G01 F600 X6.012 Y18.233
G01 F600 X5.983 Y18.200
G01 F600 X5.961 Y18.162
G01 F600 X5.944 Y18.107
G01 F600 X5.940 Y18.068
G01 F600 X5.940 Y17.665
G01 F600 X5.860 Y17.665
G01 F600 X5.860 Y18.070
G01 F600 X5.852 Y18.123
G01 F600 X5.839 Y18.162
G01 F600 X5.817 Y18.200
G01 F600 X5.788 Y18.233
G01 F600 X5.750 Y18.260
G01 F600 X5.697 Y18.281
G01 F600 X5.656 Y18.290
G01 F600 X5.621 Y18.290
G01 F600 X4.581 Y18.289
G01 F600 X4.523 Y18.283
G01 F600 X4.473 Y18.272
G01 F600 X4.343 Y18.223
G01 F600 X4.294 Y18.200
G01 F600 X4.266 Y18.179
G01 F600 X4.146 Y18.086
G01 F600 X4.120 Y18.058
G01 F600 X4.039 Y17.949
G01 F600 X4.012 Y17.901
G01 F600 X3.964 Y17.772
G01 F600 X3.949 Y17.722
G01 F600 X3.943 Y17.664
G01 F600 X3.940 Y17.629
G01 F600 X3.940 Y17.240
G01 F600 X3.948 Y17.188
G01 F600 X3.961 Y17.148
G01 F600 X3.983 Y17.110
G01 F600 X4.012 Y17.077
G01 F600 X4.050 Y17.050
G01 F600 X4.103 Y17.029
G01 F600 X4.144 Y17.020
G01 F600 X4.565 Y17.020
G01 F600 X4.565 Y16.940
G01 F600 X4.144 Y16.940
G01 F600 X4.088 Y16.927
G01 F600 X4.048 Y16.909
G01 F600 X4.012 Y16.883
G01 F600 X3.983 Y16.850
G01 F600 X3.961 Y16.812
G01 F600 X3.944 Y16.757
G01 F600 X3.940 Y16.718
G01 F600 X3.940 Y16.324
G01 F600 X3.943 Y16.293
G01 F600 X3.953 Y16.220
G01 F600 X3.965 Y16.186
G01 F600 X4.021 Y16.043
G01 F600 X4.039 Y16.010
G01 F600 X4.121 Y15.901
G01 F600 X4.160 Y15.860
G01 F600 X4.268 Y15.779
G01 F600 X4.313 Y15.750
G01 F600 X4.346 Y15.735
G01 F600 X4.488 Y15.684
G01 F600 X4.524 Y15.677
G01 F600 X4.588 Y15.670
G01 F600 X5.659 Y15.670
G01 F600 X5.710 Y15.685
G01 F600 X6.118 Y15.676
G01 F600 X6.144 Y15.670
G01 F600 X7.219 Y15.671
G01 F600 X7.282 Y15.678
G01 F600 X7.328 Y15.688
G01 F600 X7.456 Y15.736
G01 F600 X7.506 Y15.760
G01 F600 X7.534 Y15.781
G01 F600 X7.654 Y15.874
G01 F600 X7.680 Y15.902
G01 F600 X7.761 Y16.011
G01 F600 X7.788 Y16.059
G01 F600 X7.813 Y16.126
G01 F600 X16.490 Y16.122
G01 F600 X16.521 Y16.043
G01 F600 X16.539 Y16.010
G01 F600 X16.621 Y15.901
G01 F600 X16.660 Y15.860
G01 F600 X16.768 Y15.779
G01 F600 X16.813 Y15.750
G01 F600 X16.846 Y15.735
G01 F600 X16.988 Y15.684
G01 F600 X17.024 Y15.677
G01 F600 X17.088 Y15.670
G01 F600 X18.156 Y15.670
G01 F600 X18.196 Y15.679
G01 F600 X18.213 Y15.685
G01 F600 X18.618 Y15.676
G01 F600 X18.644 Y15.670
G01 F600 X19.719 Y15.671
G01 F600 X19.782 Y15.678
G01 F600 X19.828 Y15.688
G01 F600 X19.956 Y15.736
G01 F600 X20.006 Y15.760
G01 F600 X20.034 Y15.781
G01 F600 X20.154 Y15.874
G01 F600 X20.180 Y15.902
G01 F600 X20.261 Y16.011
G01 F600 X20.288 Y16.059
G01 F600 X20.313 Y16.126
G01 F600 X34.800 Y16.126
G01 F600 X34.800 Y8.300
G01 F600 X29.491 Y8.300
G01 F600 X29.486 Y8.369
G01 F600 X29.482 Y8.406
G01 F600 X29.423 Y8.675
G01 F600 X29.411 Y8.710
G01 F600 X29.313 Y8.972
G01 F600 X29.181 Y9.213
G01 F600 X29.162 Y9.245
G01 F600 X28.997 Y9.466
G01 F600 X28.972 Y9.493
G01 F600 X28.774 Y9.690
G01 F600 X28.554 Y9.855
G01 F600 X28.524 Y9.876
G01 F600 X28.282 Y10.008
G01 F600 X28.248 Y10.023
G01 F600 X27.985 Y10.120
G01 F600 X27.716 Y10.179
G01 F600 X27.681 Y10.185
G01 F600 X27.406 Y10.205
G01 F600 X27.369 Y10.205
G01 F600 X27.103 Y10.186
G01 F600 X27.096 Y10.186
G01 F600 X27.093 Y10.185
G01 F600 X26.940 Y10.174
G01 F600 X26.941 Y10.152
G01 F600 X26.822 Y10.126
G01 F600 X26.786 Y10.117
G01 F600 X26.527 Y10.021
G01 F600 X26.494 Y10.006
G01 F600 X26.252 Y9.873
G01 F600 X26.226 Y9.854
G01 F600 X26.003 Y9.688
G01 F600 X25.805 Y9.489
G01 F600 X25.783 Y9.465
G01 F600 X25.615 Y9.241
G01 F600 X25.599 Y9.213
G01 F600 X25.465 Y8.968
G01 F600 X25.450 Y8.928
G01 F600 X25.448 Y8.925
G01 F600 X20.361 Y8.925
G01 F600 X20.361 Y10.016
G01 F600 X20.357 Y10.046
G01 F600 X20.350 Y10.112
G01 F600 X20.336 Y10.154
G01 F600 X20.285 Y10.291
G01 F600 X20.260 Y10.331
G01 F600 X20.173 Y10.447
G01 F600 X20.140 Y10.480
G01 F600 X20.027 Y10.565
G01 F600 X19.997 Y10.587
G01 F600 X19.954 Y10.605
G01 F600 X19.819 Y10.655
G01 F600 X19.775 Y10.664
G01 F600 X19.712 Y10.670
G01 F600 X19.681 Y10.670
G01 F600 X17.112 Y10.670
G01 F600 X17.081 Y10.670
G01 F600 X17.016 Y10.663
G01 F600 X16.980 Y10.655
G01 F600 X16.837 Y10.602
G01 F600 X16.802 Y10.586
G01 F600 X16.773 Y10.565
G01 F600 X16.651 Y10.474
G01 F600 X16.625 Y10.445
G01 F600 X16.534 Y10.323
G01 F600 X16.516 Y10.293
G01 F600 X16.471 Y10.195
G01 F600 X7.813 Y10.216
G01 F600 X7.785 Y10.291
G01 F600 X7.760 Y10.331
G01 F600 X7.673 Y10.447
G01 F600 X7.640 Y10.480
G01 F600 X7.527 Y10.565
G01 F600 X7.497 Y10.587
G01 F600 X7.454 Y10.605
G01 F600 X7.319 Y10.655
G01 F600 X7.275 Y10.664
G01 F600 X7.212 Y10.670
G01 F600 X4.581 Y10.670
G01 F600 X4.516 Y10.663
G01 F600 X4.480 Y10.655
G01 F600 X4.337 Y10.602
G01 F600 X4.302 Y10.586
G01 F600 X4.273 Y10.565
G01 F600 X4.151 Y10.474
G01 F600 X4.125 Y10.445
G01 F600 X4.034 Y10.323
G01 F600 X4.015 Y10.290
G01 F600 X3.961 Y10.146
G01 F600 X3.950 Y10.111
G01 F600 X3.942 Y10.043
G01 F600 X3.939 Y10.012
G01 F600 X3.939 Y8.708
G01 F600 X3.943 Y8.670
G01 F600 X3.950 Y8.609
G01 F600 X3.961 Y8.574
G01 F600 X4.015 Y8.430
G01 F600 X4.034 Y8.397
G01 F600 X4.125 Y8.275
G01 F600 X4.151 Y8.246
G01 F600 X4.273 Y8.155
G01 F600 X4.302 Y8.134
G01 F600 X4.337 Y8.118
G01 F600 X4.480 Y8.065
G01 F600 X4.516 Y8.057
G01 F600 X4.585 Y8.050
G01 F600 X7.216 Y8.050
G01 F600 X7.284 Y8.057
G01 F600 X7.320 Y8.065
G01 F600 X7.463 Y8.118
G01 F600 X7.498 Y8.134
G01 F600 X7.527 Y8.155
G01 F600 X7.649 Y8.246
G01 F600 X7.675 Y8.275
G01 F600 X7.766 Y8.397
G01 F600 X7.785 Y8.430
G01 F600 X7.822 Y8.525
G01 F600 X16.479 Y8.525
G01 F600 X16.515 Y8.430
G01 F600 X16.534 Y8.397
G01 F600 X16.625 Y8.275
G01 F600 X16.651 Y8.246
G01 F600 X16.773 Y8.155
G01 F600 X16.802 Y8.134
G01 F600 X16.837 Y8.118
G01 F600 X16.980 Y8.065
G01 F600 X17.016 Y8.057
G01 F600 X17.084 Y8.050
G01 F600 X18.537 Y8.042
G01 F600 X19.052 Y7.527
G01 F600 X19.075 Y7.498
G01 F600 X19.113 Y7.463
G01 F600 X19.147 Y7.432
G01 F600 X19.187 Y7.405
G01 F600 X19.214 Y7.389
G01 F600 X19.235 Y7.374
G01 F600 X19.273 Y7.350
G01 F600 X19.321 Y7.326
G01 F600 X19.351 Y7.312
G01 F600 X19.406 Y7.296
G01 F600 X19.451 Y7.278
G01 F600 X19.487 Y7.271
G01 F600 X19.514 Y7.265
G01 F600 X19.547 Y7.258
G01 F600 X19.616 Y7.255
G01 F600 X19.649 Y7.255
G01 F600 X19.717 Y7.253
G01 F600 X19.763 Y7.255
G01 F600 X25.453 Y7.243
G01 F600 X25.465 Y7.212
G01 F600 X25.599 Y6.967
G01 F600 X25.615 Y6.939
G01 F600 X25.783 Y6.715
G01 F600 X25.805 Y6.691
G01 F600 X26.003 Y6.493
G01 F600 X26.226 Y6.326
G01 F600 X26.252 Y6.307
G01 F600 X26.498 Y6.172
G01 F600 X26.528 Y6.159
G01 F600 X26.791 Y6.061
G01 F600 X27.062 Y6.002
G01 F600 X27.094 Y5.995
G01 F600 X27.374 Y5.975
G01 F600 X27.406 Y5.975
G01 F600 X27.686 Y5.995
G01 F600 X27.718 Y6.002
G01 F600 X27.989 Y6.061
G01 F600 X28.252 Y6.159
G01 F600 X28.282 Y6.172
G01 F600 X28.528 Y6.307
G01 F600 X28.554 Y6.326
G01 F600 X28.777 Y6.493
G01 F600 X28.976 Y6.691
G01 F600 X28.997 Y6.715
G01 F600 X29.165 Y6.940
G01 F600 X29.184 Y6.971
G01 F600 X29.315 Y7.212
G01 F600 X29.365 Y7.345
G01 F600 X29.413 Y7.474
G01 F600 X29.423 Y7.505
G01 F600 X29.432 Y7.548
G01 F600 X29.483 Y7.780
G01 F600 X29.486 Y7.816
G01 F600 X29.491 Y7.880
G01 F600 X34.800 Y7.880
G01 F600 X34.814 Y1.280
G01 F600 X0.261 Y1.301
G01 F600 X0.278 Y37.760
G00 F3000 Z3.000
G00 F3000 X40.300 Y37.760
G00 F1500 Z0
G01 F600 Z-0.200
G01 F600 X59.599 Y37.739
G01 F600 X59.599 Y26.346
G01 F600 X56.940 Y26.346
G01 F600 X56.940 Y26.826
G01 F600 X56.937 Y26.857
G01 F600 X56.927 Y26.930
G01 F600 X56.915 Y26.964
G01 F600 X56.859 Y27.107
G01 F600 X56.841 Y27.140
G01 F600 X56.759 Y27.248
G01 F600 X56.721 Y27.289
G01 F600 X56.612 Y27.371
G01 F600 X56.567 Y27.400
G01 F600 X56.534 Y27.415
G01 F600 X56.392 Y27.466
G01 F600 X56.356 Y27.473
G01 F600 X56.292 Y27.480
G01 F600 X55.574 Y27.480
G01 F600 X55.518 Y27.467
G01 F600 X55.478 Y27.449
G01 F600 X55.442 Y27.423
G01 F600 X55.413 Y27.390
G01 F600 X55.391 Y27.352
G01 F600 X55.374 Y27.297
G01 F600 X55.370 Y27.258
G01 F600 X55.370 Y26.855
G01 F600 X55.290 Y26.855
G01 F600 X55.290 Y27.261
G01 F600 X55.282 Y27.313
G01 F600 X55.269 Y27.352
G01 F600 X55.247 Y27.390
G01 F600 X55.218 Y27.423
G01 F600 X55.180 Y27.450
G01 F600 X55.127 Y27.471
G01 F600 X55.086 Y27.480
G01 F600 X54.361 Y27.479
G01 F600 X54.303 Y27.473
G01 F600 X54.253 Y27.462
G01 F600 X54.123 Y27.413
G01 F600 X54.074 Y27.390
G01 F600 X54.046 Y27.369
G01 F600 X53.926 Y27.276
G01 F600 X53.900 Y27.248
G01 F600 X53.819 Y27.139
G01 F600 X53.808 Y27.119
G01 F600 X53.693 Y27.208
G01 F600 X53.661 Y27.230
G01 F600 X53.626 Y27.249
G01 F600 X53.626 Y31.549
G01 F600 X53.653 Y31.559
G01 F600 X53.682 Y31.572
G01 F600 X53.928 Y31.707
G01 F600 X53.954 Y31.726
G01 F600 X54.177 Y31.893
G01 F600 X54.376 Y32.091
G01 F600 X54.397 Y32.115
G01 F600 X54.565 Y32.340
G01 F600 X54.584 Y32.371
G01 F600 X54.715 Y32.612
G01 F600 X54.813 Y32.874
G01 F600 X54.823 Y32.905
G01 F600 X54.829 Y32.935
G01 F600 X54.883 Y33.180
G01 F600 X54.886 Y33.216
G01 F600 X54.905 Y33.500
G01 F600 X54.886 Y33.769
G01 F600 X54.882 Y33.806
G01 F600 X54.823 Y34.075
G01 F600 X54.811 Y34.110
G01 F600 X54.713 Y34.372
G01 F600 X54.581 Y34.613
G01 F600 X54.562 Y34.645
G01 F600 X54.397 Y34.866
G01 F600 X54.372 Y34.893
G01 F600 X54.174 Y35.090
G01 F600 X53.951 Y35.257
G01 F600 X53.924 Y35.276
G01 F600 X53.681 Y35.408
G01 F600 X53.648 Y35.423
G01 F600 X53.385 Y35.520
G01 F600 X53.117 Y35.578
G01 F600 X53.081 Y35.585
G01 F600 X52.806 Y35.605
G01 F600 X52.769 Y35.605
G01 F600 X52.494 Y35.585
G01 F600 X52.458 Y35.577
G01 F600 X52.222 Y35.526
G01 F600 X52.186 Y35.517
G01 F600 X51.927 Y35.421
G01 F600 X51.894 Y35.406
G01 F600 X51.652 Y35.273
G01 F600 X51.626 Y35.254
G01 F600 X51.403 Y35.087
G01 F600 X51.205 Y34.889
G01 F600 X51.183 Y34.865
G01 F600 X51.015 Y34.641
G01 F600 X50.998 Y34.613
G01 F600 X50.865 Y34.368
G01 F600 X50.767 Y34.106
G01 F600 X50.757 Y34.075
G01 F600 X50.697 Y33.801
G01 F600 X50.694 Y33.769
G01 F600 X50.674 Y33.490
G01 F600 X50.694 Y33.211
G01 F600 X50.697 Y33.179
G01 F600 X50.757 Y32.905
G01 F600 X50.767 Y32.874
G01 F600 X50.865 Y32.612
G01 F600 X50.998 Y32.367
G01 F600 X51.015 Y32.339
G01 F600 X51.183 Y32.115
G01 F600 X51.205 Y32.091
G01 F600 X51.403 Y31.893
G01 F600 X51.626 Y31.726
G01 F600 X51.652 Y31.707
G01 F600 X51.898 Y31.572
G01 F600 X51.922 Y31.561
G01 F600 X51.954 Y31.545
G01 F600 X51.954 Y27.249
G01 F600 X51.909 Y27.224
G01 F600 X51.882 Y27.204
G01 F600 X51.850 Y27.179
G01 F600 X51.697 Y27.060
G01 F600 X51.534 Y26.884
G01 F600 X51.512 Y26.859
G01 F600 X51.380 Y26.657
G01 F600 X51.364 Y26.628
G01 F600 X51.267 Y26.408
G01 F600 X51.257 Y26.376
G01 F600 X51.197 Y26.142
G01 F600 X51.194 Y26.109
G01 F600 X51.174 Y25.870
G01 F600 X51.194 Y25.631
G01 F600 X51.197 Y25.598
G01 F600 X51.257 Y25.364
G01 F600 X51.267 Y25.332
G01 F600 X51.364 Y25.112
G01 F600 X51.380 Y25.083
G01 F600 X51.512 Y24.881
G01 F600 X51.534 Y24.857
G01 F600 X51.697 Y24.680
G01 F600 X51.887 Y24.533
G01 F600 X51.913 Y24.513
G01 F600 X52.125 Y24.398
G01 F600 X52.156 Y24.385
G01 F600 X52.384 Y24.306
G01 F600 X52.416 Y24.300
G01 F600 X52.654 Y24.260
G01 F600 X52.926 Y24.260
G01 F600 X53.164 Y24.300
G01 F600 X53.196 Y24.306
G01 F600 X53.424 Y24.385
G01 F600 X53.455 Y24.398
G01 F600 X53.667 Y24.513
G01 F600 X53.692 Y24.531
G01 F600 X53.811 Y24.615
G01 F600 X53.819 Y24.600
G01 F600 X53.901 Y24.492
G01 F600 X53.939 Y24.451
G01 F600 X54.048 Y24.369
G01 F600 X54.093 Y24.340
G01 F600 X54.126 Y24.325
G01 F600 X54.268 Y24.274
G01 F600 X54.304 Y24.267
G01 F600 X54.368 Y24.260
G01 F600 X55.089 Y24.260
G01 F600 X55.140 Y24.275
G01 F600 X55.548 Y24.266
G01 F600 X55.574 Y24.260
G01 F600 X56.299 Y24.261
G01 F600 X56.357 Y24.267
G01 F600 X56.408 Y24.278
G01 F600 X56.537 Y24.327
G01 F600 X56.586 Y24.350
G01 F600 X56.614 Y24.371
G01 F600 X56.734 Y24.464
G01 F600 X56.760 Y24.492
G01 F600 X56.841 Y24.601
G01 F600 X56.868 Y24.649
G01 F600 X56.893 Y24.716
G01 F600 X59.599 Y24.716
G01 F600 X59.599 Y20.996
G01 F600 X42.692 Y20.996
G01 F600 X42.686 Y21.095
G01 F600 X42.682 Y21.134
G01 F600 X42.623 Y21.439
G01 F600 X42.613 Y21.469
G01 F600 X42.518 Y21.761
G01 F600 X42.385 Y22.042
G01 F600 X42.369 Y22.070
G01 F600 X42.203 Y22.330
G01 F600 X42.131 Y22.417
G01 F600 X42.107 Y22.445
G01 F600 X42.059 Y22.478
G01 F600 X42.020 Y22.496
G01 F600 X41.977 Y22.505
G01 F600 X41.932 Y22.505
G01 F600 X41.888 Y22.496
G01 F600 X41.836 Y22.471
G01 F600 X41.803 Y22.447
G01 F600 X41.515 Y22.159
G01 F600 X41.462 Y22.218
G01 F600 X41.741 Y22.497
G01 F600 X41.771 Y22.535
G01 F600 X41.792 Y22.571
G01 F600 X41.806 Y22.613
G01 F600 X41.811 Y22.657
G01 F600 X41.806 Y22.701
G01 F600 X41.792 Y22.745
G01 F600 X41.761 Y22.791
G01 F600 X41.734 Y22.822
G01 F600 X41.705 Y22.842
G01 F600 X41.515 Y22.980
G01 F600 X41.483 Y23.003
G01 F600 X41.211 Y23.152
G01 F600 X41.182 Y23.165
G01 F600 X40.894 Y23.278
G01 F600 X40.602 Y23.353
G01 F600 X40.564 Y23.361
G01 F600 X40.300 Y23.393
G01 F600 X40.300 Y37.760
G00 F3000 Z3.000
G00 F3000 X52.790 Y35.185
G00 F1500 Z0
G01 F600 Z-0.200
G01 F600 X53.035 Y35.167
G01 F600 X53.268 Y35.116
G01 F600 X53.493 Y35.032
G01 F600 X53.712 Y34.912
G01 F600 X53.901 Y34.769
G01 F600 X54.070 Y34.601
G01 F600 X54.219 Y34.401
G01 F600 X54.333 Y34.191
G01 F600 X54.415 Y33.969
G01 F600 X54.468 Y33.729
G01 F600 X54.485 Y33.485
G01 F600 X54.468 Y33.251
G01 F600 X54.416 Y33.011
G01 F600 X54.329 Y32.781
G01 F600 X54.217 Y32.576
G01 F600 X54.070 Y32.379
G01 F600 X53.898 Y32.208
G01 F600 X53.709 Y32.066
G01 F600 X53.493 Y31.948
G01 F600 X53.425 Y31.923
G01 F600 X53.394 Y31.909
G01 F600 X53.344 Y31.878
G01 F600 X53.313 Y31.855
G01 F600 X53.286 Y31.825
G01 F600 X53.252 Y31.777
G01 F600 X53.233 Y31.743
G01 F600 X53.221 Y31.705
G01 F600 X53.209 Y31.648
G01 F600 X53.205 Y31.613
G01 F600 X53.205 Y27.193
G01 F600 X53.209 Y27.156
G01 F600 X53.229 Y27.084
G01 F600 X53.240 Y27.049
G01 F600 X53.262 Y27.011
G01 F600 X53.288 Y26.982
G01 F600 X53.342 Y26.930
G01 F600 X53.372 Y26.908
G01 F600 X53.446 Y26.867
G01 F600 X53.615 Y26.734
G01 F600 X53.640 Y26.716
G01 F600 X53.700 Y26.677
G01 F600 X53.738 Y26.660
G01 F600 X53.779 Y26.652
G01 F600 X53.850 Y26.647
G01 F600 X53.888 Y26.647
G01 F600 X53.931 Y26.656
G01 F600 X53.964 Y26.671
G01 F600 X54.028 Y26.702
G01 F600 X54.063 Y26.727
G01 F600 X54.090 Y26.757
G01 F600 X54.131 Y26.816
G01 F600 X54.149 Y26.847
G01 F600 X54.177 Y26.915
G01 F600 X54.224 Y26.978
G01 F600 X54.293 Y27.028
G01 F600 X54.377 Y27.058
G01 F600 X54.402 Y27.060
G01 F600 X54.870 Y27.058
G01 F600 X54.870 Y26.855
G01 F600 X54.345 Y26.855
G01 F600 X54.345 Y24.885
G01 F600 X54.870 Y24.885
G01 F600 X54.870 Y24.680
G01 F600 X54.398 Y24.680
G01 F600 X54.367 Y24.684
G01 F600 X54.288 Y24.714
G01 F600 X54.221 Y24.767
G01 F600 X54.170 Y24.837
G01 F600 X54.149 Y24.893
G01 F600 X54.131 Y24.924
G01 F600 X54.090 Y24.983
G01 F600 X54.063 Y25.013
G01 F600 X54.028 Y25.038
G01 F600 X53.964 Y25.069
G01 F600 X53.931 Y25.084
G01 F600 X53.888 Y25.093
G01 F600 X53.850 Y25.093
G01 F600 X53.779 Y25.088
G01 F600 X53.738 Y25.080
G01 F600 X53.700 Y25.063
G01 F600 X53.638 Y25.023
G01 F600 X53.604 Y24.995
G01 F600 X53.445 Y24.871
G01 F600 X53.270 Y24.776
G01 F600 X53.082 Y24.712
G01 F600 X52.886 Y24.679
G01 F600 X52.694 Y24.679
G01 F600 X52.498 Y24.712
G01 F600 X52.310 Y24.777
G01 F600 X52.135 Y24.871
G01 F600 X51.980 Y24.992
G01 F600 X51.848 Y25.135
G01 F600 X51.740 Y25.300
G01 F600 X51.660 Y25.483
G01 F600 X51.611 Y25.676
G01 F600 X51.595 Y25.870
G01 F600 X51.611 Y26.064
G01 F600 X51.660 Y26.257
G01 F600 X51.740 Y26.440
G01 F600 X51.848 Y26.605
G01 F600 X51.980 Y26.748
G01 F600 X52.135 Y26.869
G01 F600 X52.208 Y26.908
G01 F600 X52.238 Y26.930
G01 F600 X52.292 Y26.982
G01 F600 X52.318 Y27.011
G01 F600 X52.340 Y27.049
G01 F600 X52.351 Y27.084
G01 F600 X52.371 Y27.156
G01 F600 X52.375 Y27.193
G01 F600 X52.375 Y31.613
G01 F600 X52.371 Y31.648
G01 F600 X52.359 Y31.705
G01 F600 X52.347 Y31.743
G01 F600 X52.328 Y31.777
G01 F600 X52.294 Y31.825
G01 F600 X52.267 Y31.855
G01 F600 X52.236 Y31.878
G01 F600 X52.186 Y31.909
G01 F600 X52.152 Y31.924
G01 F600 X52.087 Y31.948
G01 F600 X51.871 Y32.066
G01 F600 X51.682 Y32.208
G01 F600 X51.510 Y32.379
G01 F600 X51.363 Y32.576
G01 F600 X51.249 Y32.785
G01 F600 X51.165 Y33.011
G01 F600 X51.112 Y33.251
G01 F600 X51.095 Y33.490
G01 F600 X51.112 Y33.729
G01 F600 X51.165 Y33.969
G01 F600 X51.249 Y34.195
G01 F600 X51.363 Y34.404
G01 F600 X51.510 Y34.601
G01 F600 X51.682 Y34.772
G01 F600 X51.872 Y34.915
G01 F600 X52.091 Y35.033
G01 F600 X52.315 Y35.117
G01 F600 X52.336 Y35.122
G01 F600 X52.336 Y35.122
G01 F600 X52.548 Y35.167
G01 F600 X52.790 Y35.185
G00 F3000 Z3.000
G00 F3000 X27.394 Y35.184
G00 F1500 Z0
G01 F600 Z-0.200
G01 F600 X27.639 Y35.166
G01 F600 X27.868 Y35.116
G01 F600 X28.093 Y35.032
G01 F600 X28.312 Y34.912
G01 F600 X28.501 Y34.769
G01 F600 X28.670 Y34.601
G01 F600 X28.817 Y34.404
G01 F600 X28.933 Y34.191
G01 F600 X29.016 Y33.965
G01 F600 X29.068 Y33.729
G01 F600 X29.085 Y33.485
G01 F600 X29.068 Y33.251
G01 F600 X29.060 Y33.215
G01 F600 X29.060 Y33.215
G01 F600 X29.014 Y33.007
G01 F600 X28.945 Y32.822
G01 F600 X28.929 Y32.782
G01 F600 X28.817 Y32.576
G01 F600 X28.670 Y32.379
G01 F600 X28.498 Y32.208
G01 F600 X28.309 Y32.066
G01 F600 X28.093 Y31.948
G01 F600 X27.865 Y31.863
G01 F600 X27.635 Y31.813
G01 F600 X27.390 Y31.795
G01 F600 X27.145 Y31.813
G01 F600 X26.915 Y31.863
G01 F600 X26.687 Y31.948
G01 F600 X26.471 Y32.066
G01 F600 X26.282 Y32.208
G01 F600 X26.110 Y32.379
G01 F600 X25.963 Y32.576
G01 F600 X25.849 Y32.785
G01 F600 X25.817 Y32.871
G01 F600 X25.799 Y32.901
G01 F600 X25.768 Y32.951
G01 F600 X25.740 Y32.983
G01 F600 X25.710 Y33.004
G01 F600 X25.662 Y33.037
G01 F600 X25.623 Y33.055
G01 F600 X25.588 Y33.062
G01 F600 X25.530 Y33.074
G01 F600 X20.253 Y33.074
G01 F600 X20.216 Y33.066
G01 F600 X20.145 Y33.047
G01 F600 X20.107 Y33.030
G01 F600 X20.073 Y33.006
G01 F600 X20.022 Y32.954
G01 F600 X19.997 Y32.926
G01 F600 X19.975 Y32.888
G01 F600 X19.963 Y32.853
G01 F600 X19.944 Y32.782
G01 F600 X19.940 Y32.745
G01 F600 X19.940 Y31.577
G01 F600 X19.939 Y31.563
G01 F600 X19.914 Y31.496
G01 F600 X19.908 Y31.480
G01 F600 X19.856 Y31.411
G01 F600 X19.792 Y31.363
G01 F600 X19.696 Y31.329
G01 F600 X17.120 Y31.329
G01 F600 X17.091 Y31.332
G01 F600 X17.008 Y31.363
G01 F600 X16.944 Y31.411
G01 F600 X16.892 Y31.480
G01 F600 X16.848 Y31.599
G01 F600 X16.824 Y31.641
G01 F600 X16.806 Y31.672
G01 F600 X16.778 Y31.704
G01 F600 X16.728 Y31.743
G01 F600 X16.698 Y31.765
G01 F600 X16.659 Y31.783
G01 F600 X16.596 Y31.797
G01 F600 X16.561 Y31.804
G01 F600 X13.530 Y31.804
G01 F600 X17.885 Y31.988
G01 F600 X16.987 Y31.650
G01 F600 X17.008 Y31.535
G01 F600 X19.735 Y31.535
G01 F600 X19.735 Y32.905
G01 F600 X19.383 Y32.905
G01 F600 X19.758 Y33.280
G01 F600 X25.926 Y33.280
G01 F600 X25.937 Y33.181
G01 F600 X26.033 Y32.886
G01 F600 X26.188 Y32.617
G01 F600 X26.396 Y32.386
G01 F600 X26.647 Y32.203
G01 F600 X26.931 Y32.077
G01 F600 X27.235 Y32.012
G01 F600 X27.545 Y32.012
G01 F600 X27.849 Y32.077
G01 F600 X28.133 Y32.203
G01 F600 X28.384 Y32.386
G01 F600 X28.592 Y32.617
G01 F600 X28.747 Y32.886
G01 F600 X28.843 Y33.181
G01 F600 X28.876 Y33.490
G01 F600 X28.843 Y33.799
G01 F600 X28.747 Y34.094
G01 F600 X28.592 Y34.363
G01 F600 X28.384 Y34.594
G01 F600 X28.133 Y34.777
G01 F600 X27.849 Y34.903
G01 F600 X27.545 Y34.968
G01 F600 X27.235 Y34.968
G01 F600 X26.931 Y34.903
G01 F600 X26.647 Y34.777
G01 F600 X26.396 Y34.594
G01 F600 X26.188 Y34.363
G01 F600 X26.033 Y34.094
G01 F600 X25.937 Y33.799
G01 F600 X25.926 Y33.700
G01 F600 X19.648 Y33.700
G01 F600 X19.605 Y33.691
G01 F600 X19.565 Y33.672
G01 F600 X19.531 Y33.648
G01 F600 X18.788 Y32.905
G01 F600 X17.065 Y32.905
G01 F600 X17.065 Y32.430
G01 F600 X7.235 Y32.430
G01 F600 X7.235 Y32.905
G01 F600 X4.565 Y32.905
G01 F600 X4.565 Y31.535
G01 F600 X7.150 Y31.535
G01 F600 X7.428 Y31.535
G01 F600 X7.408 Y31.480
G01 F600 X7.356 Y31.411
G01 F600 X7.292 Y31.363
G01 F600 X7.196 Y31.329
G01 F600 X4.620 Y31.329
G01 F600 X4.591 Y31.332
G01 F600 X4.508 Y31.363
G01 F600 X4.444 Y31.411
G01 F600 X4.392 Y31.480
G01 F600 X4.361 Y31.563
G01 F600 X4.360 Y31.577
G01 F600 X4.360 Y32.863
G01 F600 X4.361 Y32.877
G01 F600 X4.392 Y32.960
G01 F600 X4.444 Y33.029
G01 F600 X4.482 Y33.058
G01 F600 X4.507 Y33.076
G01 F600 X4.598 Y33.108
G01 F600 X4.620 Y33.111
G01 F600 X7.182 Y33.111
G01 F600 X7.213 Y33.106
G01 F600 X7.292 Y33.077
G01 F600 X7.356 Y33.029
G01 F600 X7.408 Y32.960
G01 F600 X7.452 Y32.841
G01 F600 X7.476 Y32.799
G01 F600 X7.494 Y32.768
G01 F600 X7.522 Y32.736
G01 F600 X7.572 Y32.697
G01 F600 X7.602 Y32.675
G01 F600 X7.641 Y32.657
G01 F600 X7.704 Y32.643
G01 F600 X7.739 Y32.636
G01 F600 X16.561 Y32.636
G01 F600 X16.596 Y32.643
G01 F600 X16.659 Y32.657
G01 F600 X16.698 Y32.675
G01 F600 X16.728 Y32.697
G01 F600 X16.778 Y32.736
G01 F600 X16.807 Y32.768
G01 F600 X16.831 Y32.811
G01 F600 X16.848 Y32.840
G01 F600 X16.892 Y32.960
G01 F600 X16.944 Y33.029
G01 F600 X16.982 Y33.058
G01 F600 X17.007 Y33.076
G01 F600 X17.098 Y33.108
G01 F600 X17.120 Y33.111
G01 F600 X18.586 Y33.111
G01 F600 X18.642 Y33.122
G01 F600 X18.677 Y33.130
G01 F600 X18.716 Y33.147
G01 F600 X18.764 Y33.179
G01 F600 X18.791 Y33.199
G01 F600 X19.337 Y33.747
G01 F600 X19.375 Y33.783
G01 F600 X19.375 Y33.783
G01 F600 X19.407 Y33.812
G01 F600 X19.444 Y33.842
G01 F600 X19.467 Y33.855
G01 F600 X19.498 Y33.869
G01 F600 X19.529 Y33.883
G01 F600 X19.550 Y33.892
G01 F600 X19.578 Y33.897
G01 F600 X19.605 Y33.902
G01 F600 X19.629 Y33.907
G01 F600 X19.656 Y33.909
G01 F600 X19.689 Y33.906
G01 F600 X25.530 Y33.906
G01 F600 X25.588 Y33.918
G01 F600 X25.623 Y33.925
G01 F600 X25.662 Y33.943
G01 F600 X25.710 Y33.976
G01 F600 X25.740 Y33.997
G01 F600 X25.768 Y34.029
G01 F600 X25.800 Y34.080
G01 F600 X25.819 Y34.115
G01 F600 X25.849 Y34.195
G01 F600 X25.963 Y34.404
G01 F600 X26.110 Y34.601
G01 F600 X26.281 Y34.772
G01 F600 X26.472 Y34.915
G01 F600 X26.691 Y35.033
G01 F600 X26.915 Y35.117
G01 F600 X26.936 Y35.122
G01 F600 X26.936 Y35.122
G01 F600 X27.148 Y35.167
G01 F600 X27.394 Y35.184
G00 F3000 Z3.000
G00 F3000 X52.635 Y34.968
G00 F1500 Z0
G01 F600 Z-0.200
G01 F600 X52.331 Y34.903
G01 F600 X52.047 Y34.777
G01 F600 X51.796 Y34.594
G01 F600 X51.588 Y34.363
G01 F600 X51.433 Y34.094
G01 F600 X51.337 Y33.799
G01 F600 X51.304 Y33.490
G01 F600 X51.337 Y33.181
G01 F600 X51.433 Y32.886
G01 F600 X51.588 Y32.617
G01 F600 X51.796 Y32.386
G01 F600 X52.047 Y32.203
G01 F600 X52.331 Y32.077
G01 F600 X52.580 Y32.028
G01 F600 X52.580 Y26.828
G01 F600 X52.485 Y26.808
G01 F600 X52.297 Y26.724
G01 F600 X52.130 Y26.603
G01 F600 X51.992 Y26.449
G01 F600 X51.890 Y26.271
G01 F600 X51.826 Y26.075
G01 F600 X51.804 Y25.870
G01 F600 X51.826 Y25.665
G01 F600 X51.890 Y25.469
G01 F600 X51.992 Y25.291
G01 F600 X52.130 Y25.137
G01 F600 X52.297 Y25.016
G01 F600 X52.485 Y24.933
G01 F600 X52.687 Y24.890
G01 F600 X52.893 Y24.890
G01 F600 X53.095 Y24.933
G01 F600 X53.283 Y25.016
G01 F600 X53.450 Y25.137
G01 F600 X53.588 Y25.291
G01 F600 X53.691 Y25.469
G01 F600 X53.754 Y25.665
G01 F600 X53.776 Y25.870
G01 F600 X53.754 Y26.075
G01 F600 X53.691 Y26.271
G01 F600 X53.588 Y26.449
G01 F600 X53.450 Y26.603
G01 F600 X53.283 Y26.724
G01 F600 X53.095 Y26.808
G01 F600 X53.001 Y26.828
G01 F600 X53.021 Y32.029
G01 F600 X53.249 Y32.077
G01 F600 X53.533 Y32.203
G01 F600 X53.784 Y32.386
G01 F600 X53.992 Y32.617
G01 F600 X54.147 Y32.886
G01 F600 X54.243 Y33.181
G01 F600 X54.276 Y33.490
G01 F600 X54.243 Y33.799
G01 F600 X54.147 Y34.094
G01 F600 X53.992 Y34.363
G01 F600 X53.784 Y34.594
G01 F600 X53.533 Y34.777
G01 F600 X53.249 Y34.903
G01 F600 X52.945 Y34.968
G01 F600 X52.635 Y34.968
G00 F3000 Z3.000
G00 F3000 X55.791 Y27.060
G00 F1500 Z0
G01 F600 Z-0.200
G01 F600 X56.263 Y27.060
G01 F600 X56.289 Y27.057
G01 F600 X56.371 Y27.027
G01 F600 X56.436 Y26.978
G01 F600 X56.487 Y26.910
G01 F600 X56.518 Y26.824
G01 F600 X56.520 Y26.803
G01 F600 X56.598 Y26.330
G01 F600 X56.315 Y26.330
G01 F600 X56.315 Y26.855
G01 F600 X55.791 Y26.855
G01 F600 X55.791 Y27.060
G00 F3000 Z3.000
G00 F3000 X56.794 Y25.927
G00 F1500 Z0
G01 F600 Z-0.200
G01 F600 X59.599 Y25.927
G01 F600 X59.599 Y25.135
G01 F600 X56.940 Y25.135
G01 F600 X56.940 Y25.610
G01 F600 X56.932 Y25.663
G01 F600 X56.919 Y25.702
G01 F600 X56.897 Y25.740
G01 F600 X56.868 Y25.773
G01 F600 X56.830 Y25.800
G01 F600 X56.777 Y25.821
G01 F600 X56.736 Y25.830
G01 F600 X56.315 Y25.830
G01 F600 X56.315 Y25.910
G01 F600 X56.739 Y25.910
G01 F600 X56.794 Y25.927
G00 F3000 Z3.000
G00 F3000 X17.123 Y25.490
G00 F1500 Z0
G01 F600 Z-0.200
G01 F600 X17.940 Y25.490
G01 F600 X17.940 Y25.285
G01 F600 X17.065 Y25.285
G01 F600 X17.065 Y25.068
G01 F600 X16.860 Y25.069
G01 F600 X16.860 Y25.242
G01 F600 X16.862 Y25.257
G01 F600 X16.893 Y25.340
G01 F600 X16.944 Y25.409
G01 F600 X17.008 Y25.457
G01 F600 X17.090 Y25.487
G01 F600 X17.123 Y25.490
G00 F3000 Z3.000
G00 F3000 X4.622 Y25.490
G00 F1500 Z0
G01 F600 Z-0.200
G01 F600 X5.494 Y25.490
G01 F600 X5.476 Y25.285
G01 F600 X4.565 Y25.285
G01 F600 X4.565 Y25.062
G01 F600 X4.360 Y25.063
G01 F600 X4.360 Y25.242
G01 F600 X4.362 Y25.257
G01 F600 X4.393 Y25.340
G01 F600 X4.444 Y25.409
G01 F600 X4.508 Y25.457
G01 F600 X4.591 Y25.487
G01 F600 X4.622 Y25.490
G00 F3000 Z3.000
G00 F3000 X6.361 Y25.490
G00 F1500 Z0
G01 F600 Z-0.200
G01 F600 X7.183 Y25.490
G01 F600 X7.209 Y25.487
G01 F600 X7.291 Y25.457
G01 F600 X7.356 Y25.408
G01 F600 X7.407 Y25.340
G01 F600 X7.438 Y25.254
G01 F600 X7.440 Y25.240
G01 F600 X7.440 Y25.061
G01 F600 X7.235 Y25.063
G01 F600 X7.235 Y25.285
G01 F600 X6.361 Y25.285
G01 F600 X6.361 Y25.490
G00 F3000 Z3.000
G00 F3000 X18.861 Y25.490
G00 F1500 Z0
G01 F600 Z-0.200
G01 F600 X19.683 Y25.490
G01 F600 X19.709 Y25.487
G01 F600 X19.791 Y25.457
G01 F600 X19.856 Y25.408
G01 F600 X19.907 Y25.340
G01 F600 X19.938 Y25.254
G01 F600 X19.940 Y25.240
G01 F600 X19.940 Y25.061
G01 F600 X19.735 Y25.063
G01 F600 X19.735 Y25.285
G01 F600 X18.861 Y25.285
G01 F600 X18.861 Y25.490
G00 F3000 Z3.000
G00 F3000 X56.315 Y25.408
G00 F1500 Z0
G01 F600 Z-0.200
G01 F600 X56.520 Y25.408
G01 F600 X56.520 Y24.934
G01 F600 X56.516 Y24.910
G01 F600 X56.483 Y24.825
G01 F600 X56.436 Y24.762
G01 F600 X56.367 Y24.712
G01 F600 X56.283 Y24.682
G01 F600 X56.264 Y24.680
G01 F600 X55.791 Y24.688
G01 F600 X55.792 Y24.885
G01 F600 X56.315 Y24.885
G01 F600 X56.315 Y25.408
G00 F3000 Z3.000
G00 F3000 X55.290 Y24.885
G00 F1500 Z0
G01 F600 Z-0.200
G01 F600 X55.370 Y24.885
G01 F600 X55.370 Y24.696
G01 F600 X55.290 Y24.696
G01 F600 X55.290 Y24.885
G00 F3000 Z3.000
G00 F3000 X20.214 Y24.657
G00 F1500 Z0
G01 F600 Z-0.200
G01 F600 X34.800 Y24.657
G01 F600 X34.800 Y24.169
G01 F600 X20.344 Y24.418
G01 F600 X20.339 Y24.432
G01 F600 X20.317 Y24.470
G01 F600 X20.288 Y24.503
G01 F600 X20.250 Y24.530
G01 F600 X20.197 Y24.551
G01 F600 X20.156 Y24.560
G01 F600 X19.735 Y24.560
G01 F600 X19.735 Y24.640
G01 F600 X20.159 Y24.640
G01 F600 X20.214 Y24.657
G00 F3000 Z3.000
G00 F3000 X7.714 Y24.657
G00 F1500 Z0
G01 F600 Z-0.200
G01 F600 X16.619 Y24.646
G01 F600 X16.644 Y24.640
G01 F600 X17.065 Y24.640
G01 F600 X17.065 Y24.560
G01 F600 X16.643 Y24.560
G01 F600 X16.588 Y24.547
G01 F600 X16.548 Y24.529
G01 F600 X16.512 Y24.503
G01 F600 X16.483 Y24.470
G01 F600 X16.460 Y24.432
G01 F600 X16.444 Y24.377
G01 F600 X16.440 Y24.338
G01 F600 X16.440 Y24.172
G01 F600 X7.844 Y24.418
G01 F600 X7.839 Y24.432
G01 F600 X7.817 Y24.470
G01 F600 X7.788 Y24.503
G01 F600 X7.750 Y24.530
G01 F600 X7.697 Y24.551
G01 F600 X7.656 Y24.560
G01 F600 X7.235 Y24.560
G01 F600 X7.235 Y24.640
G01 F600 X7.659 Y24.640
G01 F600 X7.714 Y24.657
G00 F3000 Z3.000
G00 F3000 X4.361 Y24.140
G00 F1500 Z0
G01 F600 Z-0.200
G01 F600 X4.565 Y24.140
G01 F600 X4.565 Y23.915
G01 F600 X5.470 Y23.915
G01 F600 X5.448 Y23.710
G01 F600 X4.618 Y23.710
G01 F600 X4.588 Y23.714
G01 F600 X4.508 Y23.744
G01 F600 X4.441 Y23.797
G01 F600 X4.390 Y23.867
G01 F600 X4.362 Y23.946
G01 F600 X4.360 Y23.960
G01 F600 X4.361 Y24.140
G00 F3000 Z3.000
G00 F3000 X16.861 Y24.140
G00 F1500 Z0
G01 F600 Z-0.200
G01 F600 X17.065 Y24.140
G01 F600 X17.065 Y23.915
G01 F600 X17.974 Y23.915
G01 F600 X17.956 Y23.710
G01 F600 X17.118 Y23.710
G01 F600 X17.088 Y23.714
G01 F600 X17.008 Y23.744
G01 F600 X16.941 Y23.797
G01 F600 X16.890 Y23.867
G01 F600 X16.862 Y23.946
G01 F600 X16.860 Y23.960
G01 F600 X16.861 Y24.140
G00 F3000 Z3.000
G00 F3000 X7.235 Y24.140
G00 F1500 Z0
G01 F600 Z-0.200
G01 F600 X7.480 Y24.140
G01 F600 X7.453 Y24.027
G01 F600 X7.443 Y23.985
G01 F600 X7.436 Y23.940
G01 F600 X7.403 Y23.855
G01 F600 X7.356 Y23.792
G01 F600 X7.287 Y23.742
G01 F600 X7.203 Y23.712
G01 F600 X7.178 Y23.710
G01 F600 X6.361 Y23.719
G01 F600 X6.361 Y23.915
G01 F600 X7.235 Y23.915
G01 F600 X7.235 Y24.140
G00 F3000 Z3.000
G00 F3000 X19.735 Y24.140
G00 F1500 Z0
G01 F600 Z-0.200
G01 F600 X19.980 Y24.140
G01 F600 X19.953 Y24.027
G01 F600 X19.943 Y23.985
G01 F600 X19.936 Y23.940
G01 F600 X19.903 Y23.855
G01 F600 X19.856 Y23.792
G01 F600 X19.787 Y23.742
G01 F600 X19.703 Y23.712
G01 F600 X19.681 Y23.710
G01 F600 X18.861 Y23.719
G01 F600 X18.861 Y23.915
G01 F600 X19.735 Y23.915
G01 F600 X19.735 Y24.140
G00 F3000 Z3.000
G00 F3000 X18.360 Y23.915
G00 F1500 Z0
G01 F600 Z-0.200
G01 F600 X18.440 Y23.915
G01 F600 X18.440 Y23.726
G01 F600 X18.360 Y23.726
G01 F600 X18.360 Y23.915
G00 F3000 Z3.000
G00 F3000 X5.860 Y23.915
G00 F1500 Z0
G01 F600 Z-0.200
G01 F600 X5.940 Y23.915
G01 F600 X5.940 Y23.726
G01 F600 X5.860 Y23.726
G01 F600 X5.860 Y23.915
G00 F3000 Z3.000
G00 F3000 X41.931 Y21.976
G00 F1500 Z0
G01 F600 Z-0.200
G01 F600 X42.014 Y21.845
G01 F600 X42.133 Y21.589
G01 F600 X42.215 Y21.337
G01 F600 X42.267 Y21.059
G01 F600 X42.284 Y20.786
G01 F600 X42.267 Y20.517
G01 F600 X42.213 Y20.236
G01 F600 X42.131 Y19.983
G01 F600 X42.012 Y19.731
G01 F600 X41.929 Y19.602
G01 F600 X41.774 Y19.757
G01 F600 X41.904 Y19.982
G01 F600 X42.032 Y20.377
G01 F600 X42.076 Y20.790
G01 F600 X42.032 Y21.203
G01 F600 X41.904 Y21.598
G01 F600 X41.776 Y21.821
G01 F600 X41.931 Y21.976
G00 F3000 Z3.000
G00 F3000 X42.692 Y20.576
G00 F1500 Z0
G01 F600 Z-0.200
G01 F600 X59.599 Y20.576
G01 F600 X59.599 Y16.186
G01 F600 X56.940 Y16.186
G01 F600 X56.940 Y16.666
G01 F600 X56.937 Y16.697
G01 F600 X56.927 Y16.770
G01 F600 X56.915 Y16.804
G01 F600 X56.859 Y16.947
G01 F600 X56.841 Y16.980
G01 F600 X56.759 Y17.088
G01 F600 X56.721 Y17.129
G01 F600 X56.612 Y17.211
G01 F600 X56.567 Y17.240
G01 F600 X56.534 Y17.255
G01 F600 X56.392 Y17.306
G01 F600 X56.356 Y17.313
G01 F600 X56.292 Y17.320
G01 F600 X55.574 Y17.320
G01 F600 X55.518 Y17.307
G01 F600 X55.478 Y17.289
G01 F600 X55.442 Y17.263
G01 F600 X55.413 Y17.230
G01 F600 X55.391 Y17.192
G01 F600 X55.374 Y17.137
G01 F600 X55.370 Y17.098
G01 F600 X55.370 Y16.695
G01 F600 X55.290 Y16.695
G01 F600 X55.290 Y17.101
G01 F600 X55.282 Y17.152
G01 F600 X55.269 Y17.192
G01 F600 X55.247 Y17.230
G01 F600 X55.218 Y17.263
G01 F600 X55.180 Y17.290
G01 F600 X55.127 Y17.311
G01 F600 X55.086 Y17.320
G01 F600 X54.361 Y17.319
G01 F600 X54.303 Y17.313
G01 F600 X54.253 Y17.302
G01 F600 X54.124 Y17.254
G01 F600 X54.074 Y17.230
G01 F600 X54.046 Y17.209
G01 F600 X53.926 Y17.116
G01 F600 X53.900 Y17.088
G01 F600 X53.819 Y16.979
G01 F600 X53.808 Y16.959
G01 F600 X53.693 Y17.048
G01 F600 X53.661 Y17.070
G01 F600 X53.454 Y17.182
G01 F600 X53.419 Y17.197
G01 F600 X53.196 Y17.274
G01 F600 X53.159 Y17.281
G01 F600 X52.926 Y17.320
G01 F600 X52.674 Y17.319
G01 F600 X52.649 Y17.319
G01 F600 X52.648 Y17.319
G01 F600 X52.485 Y17.319
G01 F600 X52.485 Y17.292
G01 F600 X52.422 Y17.282
G01 F600 X52.420 Y17.281
G01 F600 X52.414 Y17.280
G01 F600 X52.268 Y17.256
G01 F600 X52.270 Y17.235
G01 F600 X52.155 Y17.195
G01 F600 X52.120 Y17.179
G01 F600 X52.054 Y17.143
G01 F600 X51.909 Y17.064
G01 F600 X51.882 Y17.044
G01 F600 X51.850 Y17.019
G01 F600 X51.697 Y16.900
G01 F600 X51.534 Y16.724
G01 F600 X51.512 Y16.699
G01 F600 X51.380 Y16.497
G01 F600 X51.364 Y16.468
G01 F600 X51.267 Y16.248
G01 F600 X51.257 Y16.216
G01 F600 X51.197 Y15.982
G01 F600 X51.194 Y15.949
G01 F600 X51.174 Y15.710
G01 F600 X51.194 Y15.471
G01 F600 X51.197 Y15.438
G01 F600 X51.257 Y15.204
G01 F600 X51.267 Y15.173
G01 F600 X51.364 Y14.952
G01 F600 X51.380 Y14.923
G01 F600 X51.512 Y14.721
G01 F600 X51.534 Y14.697
G01 F600 X51.697 Y14.520
G01 F600 X51.887 Y14.373
G01 F600 X51.913 Y14.353
G01 F600 X51.954 Y14.331
G01 F600 X51.954 Y10.031
G01 F600 X51.927 Y10.021
G01 F600 X51.894 Y10.006
G01 F600 X51.652 Y9.873
G01 F600 X51.626 Y9.854
G01 F600 X51.403 Y9.688
G01 F600 X51.205 Y9.489
G01 F600 X51.183 Y9.465
G01 F600 X51.015 Y9.241
G01 F600 X50.998 Y9.213
G01 F600 X50.865 Y8.968
G01 F600 X50.767 Y8.706
G01 F600 X50.757 Y8.675
G01 F600 X50.697 Y8.401
G01 F600 X50.694 Y8.369
G01 F600 X50.674 Y8.090
G01 F600 X50.694 Y7.811
G01 F600 X50.697 Y7.779
G01 F600 X50.757 Y7.505
G01 F600 X50.767 Y7.474
G01 F600 X50.865 Y7.212
G01 F600 X50.998 Y6.967
G01 F600 X51.015 Y6.939
G01 F600 X51.183 Y6.715
G01 F600 X51.205 Y6.691
G01 F600 X51.403 Y6.493
G01 F600 X51.626 Y6.326
G01 F600 X51.652 Y6.307
G01 F600 X51.898 Y6.172
G01 F600 X51.928 Y6.159
G01 F600 X52.191 Y6.061
G01 F600 X52.462 Y6.002
G01 F600 X52.494 Y5.995
G01 F600 X52.774 Y5.975
G01 F600 X52.806 Y5.975
G01 F600 X53.086 Y5.995
G01 F600 X53.118 Y6.002
G01 F600 X53.390 Y6.061
G01 F600 X53.652 Y6.159
G01 F600 X53.682 Y6.172
G01 F600 X53.928 Y6.307
G01 F600 X53.954 Y6.326
G01 F600 X54.177 Y6.493
G01 F600 X54.376 Y6.691
G01 F600 X54.397 Y6.715
G01 F600 X54.565 Y6.940
G01 F600 X54.584 Y6.971
G01 F600 X54.715 Y7.212
G01 F600 X54.813 Y7.474
G01 F600 X54.823 Y7.505
G01 F600 X54.829 Y7.535
G01 F600 X54.883 Y7.780
G01 F600 X54.886 Y7.816
G01 F600 X54.905 Y8.100
G01 F600 X54.886 Y8.369
G01 F600 X54.882 Y8.406
G01 F600 X54.823 Y8.675
G01 F600 X54.811 Y8.710
G01 F600 X54.713 Y8.972
G01 F600 X54.581 Y9.213
G01 F600 X54.562 Y9.245
G01 F600 X54.397 Y9.466
G01 F600 X54.372 Y9.493
G01 F600 X54.174 Y9.690
G01 F600 X53.951 Y9.857
G01 F600 X53.924 Y9.876
G01 F600 X53.681 Y10.008
G01 F600 X53.654 Y10.020
G01 F600 X53.626 Y10.035
G01 F600 X53.643 Y14.340
G01 F600 X53.667 Y14.353
G01 F600 X53.694 Y14.373
G01 F600 X53.807 Y14.462
G01 F600 X53.819 Y14.440
G01 F600 X53.901 Y14.331
G01 F600 X53.940 Y14.290
G01 F600 X54.048 Y14.209
G01 F600 X54.093 Y14.180
G01 F600 X54.126 Y14.165
G01 F600 X54.268 Y14.114
G01 F600 X54.304 Y14.107
G01 F600 X54.368 Y14.100
G01 F600 X55.051 Y14.100
G01 F600 X55.091 Y14.101
G01 F600 X55.144 Y14.117
G01 F600 X55.514 Y14.117
G01 F600 X55.533 Y14.109
G01 F600 X55.574 Y14.100
G01 F600 X56.262 Y14.100
G01 F600 X56.299 Y14.101
G01 F600 X56.357 Y14.107
G01 F600 X56.408 Y14.118
G01 F600 X56.536 Y14.166
G01 F600 X56.586 Y14.190
G01 F600 X56.614 Y14.211
G01 F600 X56.734 Y14.304
G01 F600 X56.760 Y14.332
G01 F600 X56.841 Y14.441
G01 F600 X56.868 Y14.489
G01 F600 X56.893 Y14.556
G01 F600 X59.599 Y14.556
G01 F600 X59.599 Y1.280
G01 F600 X40.300 Y1.280
G01 F600 X40.310 Y18.187
G01 F600 X40.572 Y18.220
G01 F600 X40.603 Y18.227
G01 F600 X40.902 Y18.304
G01 F600 X41.182 Y18.415
G01 F600 X41.218 Y18.431
G01 F600 X41.490 Y18.582
G01 F600 X41.516 Y18.600
G01 F600 X41.734 Y18.759
G01 F600 X41.770 Y18.800
G01 F600 X41.792 Y18.838
G01 F600 X41.806 Y18.880
G01 F600 X41.811 Y18.923
G01 F600 X41.806 Y18.967
G01 F600 X41.792 Y19.010
G01 F600 X41.764 Y19.057
G01 F600 X41.739 Y19.084
G01 F600 X41.462 Y19.362
G01 F600 X41.515 Y19.421
G01 F600 X41.805 Y19.132
G01 F600 X41.851 Y19.101
G01 F600 X41.889 Y19.084
G01 F600 X41.932 Y19.075
G01 F600 X41.977 Y19.075
G01 F600 X42.022 Y19.085
G01 F600 X42.073 Y19.111
G01 F600 X42.107 Y19.136
G01 F600 X42.132 Y19.163
G01 F600 X42.208 Y19.256
G01 F600 X42.369 Y19.511
G01 F600 X42.389 Y19.545
G01 F600 X42.521 Y19.826
G01 F600 X42.614 Y20.112
G01 F600 X42.625 Y20.149
G01 F600 X42.683 Y20.454
G01 F600 X42.686 Y20.485
G01 F600 X42.692 Y20.576
G00 F3000 Z3.000
G00 F3000 X4.622 Y17.870
G00 F1500 Z0
G01 F600 Z-0.200
G01 F600 X5.440 Y17.870
G01 F600 X5.440 Y17.665
G01 F600 X4.565 Y17.665
G01 F600 X4.565 Y17.442
G01 F600 X4.360 Y17.443
G01 F600 X4.360 Y17.622
G01 F600 X4.362 Y17.637
G01 F600 X4.393 Y17.720
G01 F600 X4.444 Y17.789
G01 F600 X4.508 Y17.837
G01 F600 X4.591 Y17.867
G01 F600 X4.622 Y17.870
G00 F3000 Z3.000
G00 F3000 X6.361 Y17.870
G00 F1500 Z0
G01 F600 Z-0.200
G01 F600 X7.183 Y17.870
G01 F600 X7.209 Y17.867
G01 F600 X7.292 Y17.837
G01 F600 X7.356 Y17.788
G01 F600 X7.407 Y17.720
G01 F600 X7.438 Y17.634
G01 F600 X7.440 Y17.620
G01 F600 X7.440 Y17.441
G01 F600 X7.235 Y17.443
G01 F600 X7.235 Y17.665
G01 F600 X6.361 Y17.665
G01 F600 X6.361 Y17.870
G00 F3000 Z3.000
G00 F3000 X17.123 Y17.870
G00 F1500 Z0
G01 F600 Z-0.200
G01 F600 X17.994 Y17.870
G01 F600 X17.976 Y17.665
G01 F600 X17.065 Y17.665
G01 F600 X17.065 Y17.448
G01 F600 X16.860 Y17.449
G01 F600 X16.860 Y17.622
G01 F600 X16.862 Y17.637
G01 F600 X16.893 Y17.720
G01 F600 X16.944 Y17.789
G01 F600 X17.008 Y17.837
G01 F600 X17.090 Y17.867
G01 F600 X17.123 Y17.870
G00 F3000 Z3.000
G00 F3000 X18.861 Y17.870
G00 F1500 Z0
G01 F600 Z-0.200
G01 F600 X19.683 Y17.870
G01 F600 X19.709 Y17.867
G01 F600 X19.792 Y17.837
G01 F600 X19.856 Y17.788
G01 F600 X19.907 Y17.720
G01 F600 X19.938 Y17.634
G01 F600 X19.940 Y17.620
G01 F600 X19.940 Y17.441
G01 F600 X19.735 Y17.443
G01 F600 X19.735 Y17.665
G01 F600 X18.861 Y17.665
G01 F600 X18.861 Y17.870
G00 F3000 Z3.000
G00 F3000 X20.217 Y17.037
G00 F1500 Z0
G01 F600 Z-0.200
G01 F600 X34.800 Y17.037
G01 F600 X34.800 Y16.545
G01 F600 X20.360 Y16.545
G01 F600 X20.360 Y16.720
G01 F600 X20.352 Y16.773
G01 F600 X20.339 Y16.812
G01 F600 X20.317 Y16.850
G01 F600 X20.288 Y16.883
G01 F600 X20.250 Y16.910
G01 F600 X20.197 Y16.931
G01 F600 X20.156 Y16.940
G01 F600 X19.735 Y16.940
G01 F600 X19.735 Y17.020
G01 F600 X20.156 Y17.020
G01 F600 X20.196 Y17.029
G01 F600 X20.217 Y17.037
G00 F3000 Z3.000
G00 F3000 X7.717 Y17.037
G00 F1500 Z0
G01 F600 Z-0.200
G01 F600 X16.619 Y17.026
G01 F600 X16.644 Y17.020
G01 F600 X17.065 Y17.020
G01 F600 X17.065 Y16.940
G01 F600 X16.643 Y16.940
G01 F600 X16.588 Y16.927
G01 F600 X16.548 Y16.909
G01 F600 X16.512 Y16.883
G01 F600 X16.483 Y16.850
G01 F600 X16.460 Y16.812
G01 F600 X16.444 Y16.757
G01 F600 X16.440 Y16.718
G01 F600 X16.440 Y16.545
G01 F600 X7.860 Y16.545
G01 F600 X7.860 Y16.720
G01 F600 X7.852 Y16.773
G01 F600 X7.839 Y16.812
G01 F600 X7.817 Y16.850
G01 F600 X7.788 Y16.883
G01 F600 X7.750 Y16.910
G01 F600 X7.697 Y16.931
G01 F600 X7.656 Y16.940
G01 F600 X7.235 Y16.940
G01 F600 X7.235 Y17.020
G01 F600 X7.656 Y17.020
G01 F600 X7.696 Y17.029
G01 F600 X7.717 Y17.037
G00 F3000 Z3.000
G00 F3000 X52.692 Y16.901
G00 F1500 Z0
G01 F600 Z-0.200
G01 F600 X52.891 Y16.900
G01 F600 X53.081 Y16.868
G01 F600 X53.269 Y16.804
G01 F600 X53.447 Y16.707
G01 F600 X53.615 Y16.574
G01 F600 X53.640 Y16.556
G01 F600 X53.700 Y16.517
G01 F600 X53.738 Y16.500
G01 F600 X53.779 Y16.492
G01 F600 X53.850 Y16.487
G01 F600 X53.888 Y16.487
G01 F600 X53.931 Y16.496
G01 F600 X53.964 Y16.511
G01 F600 X54.028 Y16.542
G01 F600 X54.063 Y16.567
G01 F600 X54.090 Y16.597
G01 F600 X54.131 Y16.656
G01 F600 X54.149 Y16.687
G01 F600 X54.177 Y16.755
G01 F600 X54.224 Y16.818
G01 F600 X54.293 Y16.868
G01 F600 X54.377 Y16.898
G01 F600 X54.402 Y16.900
G01 F600 X54.870 Y16.898
G01 F600 X54.870 Y16.695
G01 F600 X54.345 Y16.695
G01 F600 X54.345 Y14.725
G01 F600 X54.870 Y14.725
G01 F600 X54.870 Y14.520
G01 F600 X54.397 Y14.520
G01 F600 X54.371 Y14.523
G01 F600 X54.288 Y14.554
G01 F600 X54.224 Y14.602
G01 F600 X54.173 Y14.671
G01 F600 X54.150 Y14.732
G01 F600 X54.131 Y14.764
G01 F600 X54.090 Y14.823
G01 F600 X54.063 Y14.853
G01 F600 X54.028 Y14.878
G01 F600 X53.964 Y14.909
G01 F600 X53.931 Y14.924
G01 F600 X53.888 Y14.933
G01 F600 X53.850 Y14.933
G01 F600 X53.779 Y14.929
G01 F600 X53.738 Y14.920
G01 F600 X53.700 Y14.903
G01 F600 X53.638 Y14.863
G01 F600 X53.604 Y14.835
G01 F600 X53.445 Y14.711
G01 F600 X53.372 Y14.672
G01 F600 X53.342 Y14.650
G01 F600 X53.288 Y14.598
G01 F600 X53.263 Y14.570
G01 F600 X53.240 Y14.531
G01 F600 X53.229 Y14.496
G01 F600 X53.209 Y14.424
G01 F600 X53.205 Y14.387
G01 F600 X53.205 Y9.967
G01 F600 X53.209 Y9.932
G01 F600 X53.221 Y9.875
G01 F600 X53.233 Y9.837
G01 F600 X53.252 Y9.803
G01 F600 X53.286 Y9.755
G01 F600 X53.313 Y9.725
G01 F600 X53.344 Y9.703
G01 F600 X53.393 Y9.671
G01 F600 X53.425 Y9.657
G01 F600 X53.493 Y9.632
G01 F600 X53.708 Y9.515
G01 F600 X53.901 Y9.369
G01 F600 X54.070 Y9.201
G01 F600 X54.217 Y9.004
G01 F600 X54.333 Y8.791
G01 F600 X54.416 Y8.565
G01 F600 X54.468 Y8.329
G01 F600 X54.485 Y8.085
G01 F600 X54.468 Y7.851
G01 F600 X54.416 Y7.611
G01 F600 X54.329 Y7.381
G01 F600 X54.217 Y7.176
G01 F600 X54.070 Y6.979
G01 F600 X53.898 Y6.808
G01 F600 X53.709 Y6.666
G01 F600 X53.493 Y6.548
G01 F600 X53.265 Y6.463
G01 F600 X53.035 Y6.413
G01 F600 X52.790 Y6.395
G01 F600 X52.545 Y6.413
G01 F600 X52.315 Y6.463
G01 F600 X52.087 Y6.548
G01 F600 X51.871 Y6.666
G01 F600 X51.682 Y6.808
G01 F600 X51.510 Y6.979
G01 F600 X51.363 Y7.176
G01 F600 X51.249 Y7.385
G01 F600 X51.165 Y7.611
G01 F600 X51.112 Y7.851
G01 F600 X51.095 Y8.090
G01 F600 X51.112 Y8.329
G01 F600 X51.165 Y8.569
G01 F600 X51.249 Y8.795
G01 F600 X51.363 Y9.004
G01 F600 X51.510 Y9.201
G01 F600 X51.681 Y9.372
G01 F600 X51.872 Y9.515
G01 F600 X52.087 Y9.632
G01 F600 X52.155 Y9.657
G01 F600 X52.187 Y9.671
G01 F600 X52.236 Y9.703
G01 F600 X52.267 Y9.725
G01 F600 X52.294 Y9.755
G01 F600 X52.328 Y9.803
G01 F600 X52.347 Y9.837
G01 F600 X52.359 Y9.875
G01 F600 X52.371 Y9.932
G01 F600 X52.375 Y9.967
G01 F600 X52.375 Y14.387
G01 F600 X52.371 Y14.424
G01 F600 X52.351 Y14.496
G01 F600 X52.340 Y14.531
G01 F600 X52.318 Y14.570
G01 F600 X52.292 Y14.598
G01 F600 X52.237 Y14.651
G01 F600 X52.200 Y14.676
G01 F600 X52.135 Y14.711
G01 F600 X51.980 Y14.832
G01 F600 X51.848 Y14.975
G01 F600 X51.740 Y15.141
G01 F600 X51.660 Y15.323
G01 F600 X51.611 Y15.516
G01 F600 X51.595 Y15.710
G01 F600 X51.611 Y15.904
G01 F600 X51.660 Y16.097
G01 F600 X51.740 Y16.280
G01 F600 X51.848 Y16.445
G01 F600 X51.980 Y16.588
G01 F600 X52.135 Y16.709
G01 F600 X52.261 Y16.777
G01 F600 X52.310 Y16.803
G01 F600 X52.498 Y16.868
G01 F600 X52.692 Y16.901
G00 F3000 Z3.000
G00 F3000 X55.791 Y16.900
G00 F1500 Z0
G01 F600 Z-0.200
G01 F600 X56.263 Y16.900
G01 F600 X56.289 Y16.897
G01 F600 X56.372 Y16.867
G01 F600 X56.436 Y16.818
G01 F600 X56.487 Y16.750
G01 F600 X56.518 Y16.664
G01 F600 X56.520 Y16.643
G01 F600 X56.598 Y16.170
G01 F600 X56.315 Y16.170
G01 F600 X56.315 Y16.695
G01 F600 X55.791 Y16.695
G01 F600 X55.791 Y16.900
G00 F3000 Z3.000
G00 F3000 X52.687 Y16.690
G00 F1500 Z0
G01 F600 Z-0.200
G01 F600 X52.485 Y16.648
G01 F600 X52.297 Y16.564
G01 F600 X52.130 Y16.443
G01 F600 X51.992 Y16.289
G01 F600 X51.890 Y16.111
G01 F600 X51.826 Y15.915
G01 F600 X51.804 Y15.710
G01 F600 X51.826 Y15.505
G01 F600 X51.890 Y15.309
G01 F600 X51.992 Y15.131
G01 F600 X52.130 Y14.977
G01 F600 X52.297 Y14.856
G01 F600 X52.485 Y14.773
G01 F600 X52.577 Y14.753
G01 F600 X52.559 Y9.552
G01 F600 X52.331 Y9.503
G01 F600 X52.047 Y9.377
G01 F600 X51.796 Y9.194
G01 F600 X51.588 Y8.963
G01 F600 X51.433 Y8.694
G01 F600 X51.337 Y8.399
G01 F600 X51.304 Y8.090
G01 F600 X51.337 Y7.781
G01 F600 X51.433 Y7.486
G01 F600 X51.588 Y7.217
G01 F600 X51.796 Y6.986
G01 F600 X52.047 Y6.803
G01 F600 X52.331 Y6.677
G01 F600 X52.635 Y6.612
G01 F600 X52.945 Y6.612
G01 F600 X53.249 Y6.677
G01 F600 X53.533 Y6.803
G01 F600 X53.784 Y6.986
G01 F600 X53.992 Y7.217
G01 F600 X54.147 Y7.486
G01 F600 X54.243 Y7.781
G01 F600 X54.276 Y8.090
G01 F600 X54.243 Y8.399
G01 F600 X54.147 Y8.694
G01 F600 X53.992 Y8.963
G01 F600 X53.784 Y9.194
G01 F600 X53.533 Y9.377
G01 F600 X53.249 Y9.503
G01 F600 X53.000 Y9.552
G01 F600 X53.000 Y14.753
G01 F600 X53.095 Y14.773
G01 F600 X53.283 Y14.856
G01 F600 X53.450 Y14.977
G01 F600 X53.588 Y15.131
G01 F600 X53.691 Y15.309
G01 F600 X53.754 Y15.505
G01 F600 X53.776 Y15.710
G01 F600 X53.754 Y15.915
G01 F600 X53.691 Y16.111
G01 F600 X53.588 Y16.289
G01 F600 X53.450 Y16.443
G01 F600 X53.283 Y16.564
G01 F600 X53.095 Y16.648
G01 F600 X52.893 Y16.690
G01 F600 X52.687 Y16.690
G00 F3000 Z3.000
G00 F3000 X19.735 Y16.520
G00 F1500 Z0
G01 F600 Z-0.200
G01 F600 X19.940 Y16.520
G01 F600 X19.940 Y16.344
G01 F600 X19.936 Y16.320
G01 F600 X19.903 Y16.235
G01 F600 X19.856 Y16.172
G01 F600 X19.787 Y16.122
G01 F600 X19.703 Y16.092
G01 F600 X19.678 Y16.090
G01 F600 X18.861 Y16.099
G01 F600 X18.861 Y16.295
G01 F600 X19.735 Y16.295
G01 F600 X19.735 Y16.520
G00 F3000 Z3.000
G00 F3000 X16.861 Y16.520
G00 F1500 Z0
G01 F600 Z-0.200
G01 F600 X17.065 Y16.520
G01 F600 X17.065 Y16.295
G01 F600 X17.940 Y16.295
G01 F600 X17.940 Y16.090
G01 F600 X17.118 Y16.090
G01 F600 X17.088 Y16.094
G01 F600 X17.008 Y16.124
G01 F600 X16.941 Y16.177
G01 F600 X16.890 Y16.247
G01 F600 X16.862 Y16.326
G01 F600 X16.860 Y16.340
G01 F600 X16.861 Y16.520
G00 F3000 Z3.000
G00 F3000 X7.235 Y16.520
G00 F1500 Z0
G01 F600 Z-0.200
G01 F600 X7.440 Y16.520
G01 F600 X7.440 Y16.344
G01 F600 X7.436 Y16.320
G01 F600 X7.403 Y16.235
G01 F600 X7.356 Y16.172
G01 F600 X7.287 Y16.122
G01 F600 X7.203 Y16.092
G01 F600 X7.181 Y16.090
G01 F600 X6.361 Y16.099
G01 F600 X6.361 Y16.295
G01 F600 X7.235 Y16.295
G01 F600 X7.235 Y16.520
G00 F3000 Z3.000
G00 F3000 X4.361 Y16.520
G00 F1500 Z0
G01 F600 Z-0.200
G01 F600 X4.565 Y16.520
G01 F600 X4.565 Y16.295
G01 F600 X5.440 Y16.295
G01 F600 X5.440 Y16.090
G01 F600 X4.618 Y16.090
G01 F600 X4.587 Y16.094
G01 F600 X4.508 Y16.124
G01 F600 X4.441 Y16.177
G01 F600 X4.390 Y16.247
G01 F600 X4.362 Y16.326
G01 F600 X4.360 Y16.340
G01 F600 X4.361 Y16.520
G00 F3000 Z3.000
G00 F3000 X18.360 Y16.295
G00 F1500 Z0
G01 F600 Z-0.200
G01 F600 X18.440 Y16.295
G01 F600 X18.440 Y16.106
G01 F600 X18.360 Y16.106
G01 F600 X18.360 Y16.295
G00 F3000 Z3.000
G00 F3000 X5.860 Y16.295
G00 F1500 Z0
G01 F600 Z-0.200
G01 F600 X5.940 Y16.295
G01 F600 X5.940 Y16.106
G01 F600 X5.860 Y16.106
G01 F600 X5.860 Y16.295
G00 F3000 Z3.000
G00 F3000 X56.794 Y15.767
G00 F1500 Z0
G01 F600 Z-0.200
G01 F600 X59.599 Y15.767
G01 F600 X59.599 Y14.975
G01 F600 X56.940 Y14.975
G01 F600 X56.940 Y15.450
G01 F600 X56.932 Y15.503
G01 F600 X56.919 Y15.542
G01 F600 X56.897 Y15.580
G01 F600 X56.868 Y15.613
G01 F600 X56.830 Y15.640
G01 F600 X56.777 Y15.661
G01 F600 X56.736 Y15.670
G01 F600 X56.315 Y15.670
G01 F600 X56.315 Y15.750
G01 F600 X56.739 Y15.750
G01 F600 X56.794 Y15.767
G00 F3000 Z3.000
G00 F3000 X56.315 Y15.248
G00 F1500 Z0
G01 F600 Z-0.200
G01 F600 X56.520 Y15.248
G01 F600 X56.520 Y14.767
G01 F600 X56.518 Y14.753
G01 F600 X56.487 Y14.671
G01 F600 X56.436 Y14.601
G01 F600 X56.372 Y14.553
G01 F600 X56.289 Y14.523
G01 F600 X56.258 Y14.520
G01 F600 X55.791 Y14.520
G01 F600 X55.792 Y14.725
G01 F600 X56.315 Y14.725
G01 F600 X56.315 Y15.248
G00 F3000 Z3.000
G00 F3000 X55.290 Y14.725
G00 F1500 Z0
G01 F600 Z-0.200
G01 F600 X55.370 Y14.725
G01 F600 X55.370 Y14.536
G01 F600 X55.290 Y14.536
G01 F600 X55.290 Y14.725
G00 F3000 Z3.000
G00 F3000 X4.620 Y10.251
G00 F1500 Z0
G01 F600 Z-0.200
G01 F600 X7.184 Y10.251
G01 F600 X7.209 Y10.248
G01 F600 X7.292 Y10.216
G01 F600 X7.361 Y10.163
G01 F600 X7.408 Y10.100
G01 F600 X7.452 Y9.981
G01 F600 X7.476 Y9.939
G01 F600 X7.494 Y9.908
G01 F600 X7.522 Y9.876
G01 F600 X7.572 Y9.837
G01 F600 X7.602 Y9.815
G01 F600 X7.641 Y9.797
G01 F600 X7.704 Y9.783
G01 F600 X7.739 Y9.776
G01 F600 X16.561 Y9.776
G01 F600 X16.596 Y9.783
G01 F600 X16.659 Y9.797
G01 F600 X16.698 Y9.815
G01 F600 X16.728 Y9.837
G01 F600 X16.778 Y9.876
G01 F600 X16.807 Y9.908
G01 F600 X16.831 Y9.951
G01 F600 X16.848 Y9.980
G01 F600 X16.892 Y10.100
G01 F600 X16.944 Y10.169
G01 F600 X17.008 Y10.217
G01 F600 X17.090 Y10.248
G01 F600 X17.123 Y10.251
G01 F600 X19.682 Y10.251
G01 F600 X19.713 Y10.246
G01 F600 X19.794 Y10.215
G01 F600 X19.856 Y10.169
G01 F600 X19.908 Y10.100
G01 F600 X19.939 Y10.015
G01 F600 X19.940 Y10.001
G01 F600 X19.940 Y8.835
G01 F600 X19.944 Y8.798
G01 F600 X19.963 Y8.727
G01 F600 X19.975 Y8.692
G01 F600 X19.997 Y8.654
G01 F600 X20.022 Y8.626
G01 F600 X20.073 Y8.574
G01 F600 X20.107 Y8.550
G01 F600 X20.145 Y8.533
G01 F600 X20.216 Y8.514
G01 F600 X20.253 Y8.506
G01 F600 X25.530 Y8.506
G01 F600 X25.588 Y8.518
G01 F600 X25.623 Y8.525
G01 F600 X25.662 Y8.543
G01 F600 X25.710 Y8.576
G01 F600 X25.740 Y8.597
G01 F600 X25.768 Y8.629
G01 F600 X25.799 Y8.679
G01 F600 X25.817 Y8.709
G01 F600 X25.835 Y8.759
G01 F600 X25.849 Y8.795
G01 F600 X25.963 Y9.004
G01 F600 X26.110 Y9.201
G01 F600 X26.281 Y9.372
G01 F600 X26.472 Y9.515
G01 F600 X26.687 Y9.632
G01 F600 X26.915 Y9.717
G01 F600 X26.936 Y9.722
G01 F600 X26.936 Y9.722
G01 F600 X27.148 Y9.767
G01 F600 X27.390 Y9.785
G01 F600 X27.641 Y9.767
G01 F600 X27.660 Y9.767
G01 F600 X27.867 Y9.716
G01 F600 X28.097 Y9.630
G01 F600 X28.309 Y9.514
G01 F600 X28.502 Y9.369
G01 F600 X28.673 Y9.197
G01 F600 X28.819 Y9.001
G01 F600 X28.933 Y8.791
G01 F600 X29.016 Y8.569
G01 F600 X29.068 Y8.329
G01 F600 X29.073 Y8.254
G01 F600 X29.085 Y8.085
G01 F600 X29.068 Y7.851
G01 F600 X29.021 Y7.637
G01 F600 X29.021 Y7.637
G01 F600 X29.014 Y7.608
G01 F600 X28.977 Y7.507
G01 F600 X28.977 Y7.507
G01 F600 X28.929 Y7.381
G01 F600 X28.817 Y7.176
G01 F600 X28.670 Y6.979
G01 F600 X28.498 Y6.808
G01 F600 X28.309 Y6.666
G01 F600 X28.093 Y6.548
G01 F600 X27.865 Y6.463
G01 F600 X27.635 Y6.413
G01 F600 X27.390 Y6.395
G01 F600 X27.145 Y6.413
G01 F600 X26.915 Y6.463
G01 F600 X26.687 Y6.548
G01 F600 X26.471 Y6.666
G01 F600 X26.282 Y6.808
G01 F600 X26.110 Y6.979
G01 F600 X25.963 Y7.176
G01 F600 X25.849 Y7.385
G01 F600 X25.817 Y7.471
G01 F600 X25.799 Y7.501
G01 F600 X25.768 Y7.551
G01 F600 X25.740 Y7.583
G01 F600 X25.710 Y7.604
G01 F600 X25.662 Y7.637
G01 F600 X25.623 Y7.655
G01 F600 X25.588 Y7.662
G01 F600 X25.530 Y7.674
G01 F600 X19.722 Y7.673
G01 F600 X19.674 Y7.674
G01 F600 X19.632 Y7.676
G01 F600 X19.601 Y7.677
G01 F600 X19.571 Y7.682
G01 F600 X19.531 Y7.698
G01 F600 X19.483 Y7.716
G01 F600 X19.459 Y7.729
G01 F600 X19.434 Y7.746
G01 F600 X19.394 Y7.777
G01 F600 X19.373 Y7.797
G01 F600 X19.348 Y7.824
G01 F600 X18.791 Y8.381
G01 F600 X18.764 Y8.401
G01 F600 X18.716 Y8.433
G01 F600 X18.677 Y8.450
G01 F600 X18.642 Y8.458
G01 F600 X18.586 Y8.469
G01 F600 X17.120 Y8.469
G01 F600 X17.091 Y8.472
G01 F600 X17.008 Y8.503
G01 F600 X16.944 Y8.551
G01 F600 X16.892 Y8.620
G01 F600 X16.848 Y8.739
G01 F600 X16.824 Y8.781
G01 F600 X16.806 Y8.812
G01 F600 X16.778 Y8.844
G01 F600 X16.728 Y8.883
G01 F600 X16.698 Y8.905
G01 F600 X16.659 Y8.923
G01 F600 X16.596 Y8.937
G01 F600 X16.561 Y8.944
G01 F600 X7.739 Y8.944
G01 F600 X7.704 Y8.937
G01 F600 X7.641 Y8.923
G01 F600 X7.602 Y8.905
G01 F600 X7.572 Y8.883
G01 F600 X7.522 Y8.844
G01 F600 X7.493 Y8.812
G01 F600 X7.469 Y8.769
G01 F600 X7.453 Y8.740
G01 F600 X7.408 Y8.620
G01 F600 X7.356 Y8.551
G01 F600 X7.293 Y8.504
G01 F600 X7.196 Y8.469
G01 F600 X4.620 Y8.469
G01 F600 X4.591 Y8.472
G01 F600 X4.508 Y8.503
G01 F600 X4.444 Y8.551
G01 F600 X4.392 Y8.620
G01 F600 X4.361 Y8.703
G01 F600 X4.360 Y8.717
G01 F600 X4.360 Y10.003
G01 F600 X4.361 Y10.017
G01 F600 X4.392 Y10.100
G01 F600 X4.444 Y10.169
G01 F600 X4.507 Y10.216
G01 F600 X4.598 Y10.248
G01 F600 X4.620 Y10.251
G00 F3000 Z3.000
G00 F3000 X4.565 Y10.045
G00 F1500 Z0
G01 F600 Z-0.200
G01 F600 X4.565 Y8.675
G01 F600 X7.235 Y8.675
G01 F600 X7.235 Y9.150
G01 F600 X17.065 Y9.150
G01 F600 X17.065 Y8.675
G01 F600 X18.788 Y8.675
G01 F600 X19.531 Y7.932
G01 F600 X19.565 Y7.908
G01 F600 X19.605 Y7.889
G01 F600 X19.648 Y7.880
G01 F600 X25.926 Y7.880
G01 F600 X25.937 Y7.781
G01 F600 X26.033 Y7.486
G01 F600 X26.188 Y7.217
G01 F600 X26.396 Y6.986
G01 F600 X26.647 Y6.803
G01 F600 X26.931 Y6.677
G01 F600 X27.235 Y6.612
G01 F600 X27.545 Y6.612
G01 F600 X27.849 Y6.677
G01 F600 X28.133 Y6.803
G01 F600 X28.384 Y6.986
G01 F600 X28.592 Y7.217
G01 F600 X28.747 Y7.486
G01 F600 X28.843 Y7.781
G01 F600 X28.876 Y8.090
G01 F600 X28.843 Y8.399
G01 F600 X28.747 Y8.694
G01 F600 X28.592 Y8.963
G01 F600 X28.384 Y9.194
G01 F600 X28.133 Y9.377
G01 F600 X27.849 Y9.503
G01 F600 X27.545 Y9.568
G01 F600 X27.235 Y9.568
G01 F600 X26.931 Y9.503
G01 F600 X26.647 Y9.377
G01 F600 X26.396 Y9.194
G01 F600 X26.188 Y8.963
G01 F600 X26.033 Y8.694
G01 F600 X25.937 Y8.399
G01 F600 X25.926 Y8.300
G01 F600 X19.758 Y8.300
G01 F600 X19.383 Y8.675
G01 F600 X19.735 Y8.675
G01 F600 X19.735 Y10.045
G01 F600 X17.065 Y10.045
G01 F600 X17.065 Y9.570
G01 F600 X7.235 Y9.570
G01 F600 X7.235 Y10.045
G01 F600 X4.565 Y10.045
G00 F3000 Z3.000
G00 F3000 X-0.549 Y38.855
G00 F1500 Z0
G01 F600 Z-0.200
G01 F600 X-0.639 Y38.845
G01 F600 X-0.744 Y38.785
G01 F600 X-0.814 Y38.688
G01 F600 X-0.835 Y38.590
G01 F600 X-0.835 Y0.451
G01 F600 X-0.814 Y0.352
G01 F600 X-0.738 Y0.247
G01 F600 X-0.600 Y0.185
G01 F600 X60.450 Y0.185
G01 F600 X60.555 Y0.219
G01 F600 X60.652 Y0.307
G01 F600 X60.695 Y0.441
G01 F600 X60.693 Y38.630
G01 F600 X60.644 Y38.740
G01 F600 X60.555 Y38.821
G01 F600 X60.450 Y38.855
G01 F600 X-0.549 Y38.855
G00 F3000 Z3.000
G00 F3000 X-0.267 Y38.285
G00 F1500 Z0
G01 F600 Z-0.200
G01 F600 X60.125 Y38.285
G01 F600 X60.125 Y0.755
G01 F600 X-0.265 Y0.755
G01 F600 X-0.267 Y38.285
G00 F3000 Z3.000
G00 F3000 X0.142 Y38.279
G00 F1500 Z0
G01 F600 Z-0.200
G01 F600 X0.093 Y38.269
G01 F600 X0.012 Y38.247
G01 F600 X-0.043 Y38.223
G01 F600 X-0.092 Y38.187
G01 F600 X-0.151 Y38.128
G01 F600 X-0.185 Y38.090
G01 F600 X-0.217 Y38.034
G01 F600 X-0.233 Y37.986
G01 F600 X-0.255 Y37.905
G01 F600 X-0.260 Y37.855
G01 F600 X-0.260 Y1.185
G01 F600 X-0.255 Y1.135
G01 F600 X-0.233 Y1.054
G01 F600 X-0.217 Y1.006
G01 F600 X-0.185 Y0.950
G01 F600 X-0.151 Y0.912
G01 F600 X-0.092 Y0.853
G01 F600 X-0.043 Y0.818
G01 F600 X0.012 Y0.793
G01 F600 X0.093 Y0.771
G01 F600 X0.142 Y0.761
G01 F600 X34.918 Y0.761
G01 F600 X34.968 Y0.771
G01 F600 X35.049 Y0.793
G01 F600 X35.104 Y0.818
G01 F600 X35.152 Y0.853
G01 F600 X35.211 Y0.912
G01 F600 X35.245 Y0.950
G01 F600 X35.278 Y1.006
G01 F600 X35.293 Y1.054
G01 F600 X35.315 Y1.135
G01 F600 X35.320 Y1.185
G01 F600 X35.320 Y18.276
G01 F600 X35.315 Y18.326
G01 F600 X35.293 Y18.407
G01 F600 X35.278 Y18.455
G01 F600 X35.245 Y18.511
G01 F600 X35.211 Y18.549
G01 F600 X35.152 Y18.608
G01 F600 X35.104 Y18.643
G01 F600 X35.049 Y18.667
G01 F600 X34.968 Y18.689
G01 F600 X34.918 Y18.700
G01 F600 X33.162 Y18.700
G01 F600 X33.154 Y18.701
G01 F600 X33.144 Y18.705
G01 F600 X37.175 Y18.705
G01 F600 X37.175 Y22.875
G01 F600 X33.144 Y22.875
G01 F600 X33.153 Y22.879
G01 F600 X33.168 Y22.880
G01 F600 X34.918 Y22.880
G01 F600 X34.968 Y22.891
G01 F600 X35.049 Y22.913
G01 F600 X35.104 Y22.937
G01 F600 X35.152 Y22.973
G01 F600 X35.211 Y23.032
G01 F600 X35.245 Y23.069
G01 F600 X35.278 Y23.125
G01 F600 X35.293 Y23.173
G01 F600 X35.315 Y23.254
G01 F600 X35.320 Y23.304
G01 F600 X35.320 Y37.855
G01 F600 X35.315 Y37.905
G01 F600 X35.293 Y37.986
G01 F600 X35.278 Y38.034
G01 F600 X35.245 Y38.090
G01 F600 X35.211 Y38.128
G01 F600 X35.152 Y38.187
G01 F600 X35.104 Y38.223
G01 F600 X35.049 Y38.247
G01 F600 X34.968 Y38.269
G01 F600 X34.918 Y38.279
G01 F600 X0.142 Y38.279
G00 F3000 Z3.000
G00 F3000 X40.182 Y38.279
G00 F1500 Z0
G01 F600 Z-0.200
G01 F600 X40.132 Y38.269
G01 F600 X40.051 Y38.247
G01 F600 X39.996 Y38.223
G01 F600 X39.948 Y38.187
G01 F600 X39.889 Y38.128
G01 F600 X39.855 Y38.090
G01 F600 X39.822 Y38.034
G01 F600 X39.807 Y37.986
G01 F600 X39.785 Y37.905
G01 F600 X39.780 Y37.855
G01 F600 X39.780 Y23.304
G01 F600 X39.785 Y23.254
G01 F600 X39.807 Y23.173
G01 F600 X39.822 Y23.125
G01 F600 X39.855 Y23.069
G01 F600 X39.889 Y23.032
G01 F600 X39.948 Y22.973
G01 F600 X39.996 Y22.937
G01 F600 X40.051 Y22.913
G01 F600 X40.132 Y22.891
G01 F600 X40.180 Y22.881
G01 F600 X40.219 Y22.880
G01 F600 X40.487 Y22.846
G01 F600 X40.740 Y22.780
G01 F600 X40.982 Y22.684
G01 F600 X41.117 Y22.610
G01 F600 X41.113 Y22.606
G01 F600 X40.735 Y22.774
G01 F600 X40.308 Y22.865
G01 F600 X39.872 Y22.865
G01 F600 X39.445 Y22.774
G01 F600 X39.047 Y22.597
G01 F600 X38.694 Y22.340
G01 F600 X38.402 Y22.016
G01 F600 X38.184 Y21.639
G01 F600 X38.049 Y21.224
G01 F600 X38.004 Y20.790
G01 F600 X38.049 Y20.356
G01 F600 X38.184 Y19.941
G01 F600 X38.402 Y19.564
G01 F600 X38.694 Y19.240
G01 F600 X39.047 Y18.983
G01 F600 X39.445 Y18.806
G01 F600 X39.872 Y18.715
G01 F600 X40.308 Y18.715
G01 F600 X40.735 Y18.806
G01 F600 X41.113 Y18.975
G01 F600 X41.117 Y18.970
G01 F600 X40.977 Y18.894
G01 F600 X40.734 Y18.798
G01 F600 X40.481 Y18.733
G01 F600 X40.171 Y18.697
G01 F600 X40.132 Y18.689
G01 F600 X40.051 Y18.667
G01 F600 X39.996 Y18.643
G01 F600 X39.948 Y18.608
G01 F600 X39.889 Y18.549
G01 F600 X39.855 Y18.511
G01 F600 X39.822 Y18.455
G01 F600 X39.807 Y18.407
G01 F600 X39.785 Y18.326
G01 F600 X39.780 Y18.276
G01 F600 X39.780 Y1.185
G01 F600 X39.785 Y1.135
G01 F600 X39.807 Y1.054
G01 F600 X39.822 Y1.006
G01 F600 X39.855 Y0.950
G01 F600 X39.889 Y0.912
G01 F600 X39.948 Y0.853
G01 F600 X39.996 Y0.818
G01 F600 X40.051 Y0.793
G01 F600 X40.132 Y0.771
G01 F600 X40.182 Y0.761
G01 F600 X59.718 Y0.761
G01 F600 X59.767 Y0.771
G01 F600 X59.848 Y0.793
G01 F600 X59.903 Y0.818
G01 F600 X59.952 Y0.853
G01 F600 X60.011 Y0.912
G01 F600 X60.045 Y0.950
G01 F600 X60.077 Y1.006
G01 F600 X60.093 Y1.054
G01 F600 X60.114 Y1.135
G01 F600 X60.120 Y1.185
G01 F600 X60.120 Y37.855
G01 F600 X60.114 Y37.905
G01 F600 X60.093 Y37.986
G01 F600 X60.077 Y38.034
G01 F600 X60.045 Y38.090
G01 F600 X60.011 Y38.128
G01 F600 X59.952 Y38.187
G01 F600 X59.903 Y38.223
G01 F600 X59.848 Y38.247
G01 F600 X59.767 Y38.269
G01 F600 X59.718 Y38.279
G01 F600 X40.182 Y38.279
G00 F3000 Z3.000
G00 F3000 X0.378 Y37.660
G00 F1500 Z0
G01 F600 Z-0.200
G01 F600 X34.700 Y37.660
G01 F600 X34.700 Y33.800
G01 F600 X29.583 Y33.800
G01 F600 X29.580 Y33.822
G01 F600 X29.519 Y34.102
G01 F600 X29.506 Y34.144
G01 F600 X29.404 Y34.414
G01 F600 X29.268 Y34.663
G01 F600 X29.245 Y34.701
G01 F600 X29.074 Y34.930
G01 F600 X29.044 Y34.962
G01 F600 X28.839 Y35.166
G01 F600 X28.610 Y35.338
G01 F600 X28.576 Y35.361
G01 F600 X28.326 Y35.498
G01 F600 X28.285 Y35.516
G01 F600 X28.013 Y35.616
G01 F600 X27.736 Y35.677
G01 F600 X27.694 Y35.685
G01 F600 X27.409 Y35.705
G01 F600 X27.365 Y35.705
G01 F600 X27.080 Y35.684
G01 F600 X27.037 Y35.675
G01 F600 X26.799 Y35.623
G01 F600 X26.756 Y35.613
G01 F600 X26.489 Y35.513
G01 F600 X26.449 Y35.495
G01 F600 X26.198 Y35.358
G01 F600 X26.166 Y35.335
G01 F600 X25.937 Y35.163
G01 F600 X25.732 Y34.958
G01 F600 X25.706 Y34.929
G01 F600 X25.531 Y34.696
G01 F600 X25.511 Y34.662
G01 F600 X25.382 Y34.425
G01 F600 X19.716 Y34.426
G01 F600 X19.665 Y34.431
G01 F600 X19.606 Y34.426
G01 F600 X19.556 Y34.425
G01 F600 X19.502 Y34.413
G01 F600 X19.482 Y34.407
G01 F600 X19.443 Y34.401
G01 F600 X19.396 Y34.389
G01 F600 X19.331 Y34.368
G01 F600 X19.288 Y34.348
G01 F600 X19.226 Y34.317
G01 F600 X19.185 Y34.295
G01 F600 X19.130 Y34.260
G01 F600 X19.091 Y34.230
G01 F600 X19.041 Y34.184
G01 F600 X19.019 Y34.162
G01 F600 X18.860 Y34.003
G01 F600 X18.487 Y33.630
G01 F600 X17.076 Y33.630
G01 F600 X17.000 Y33.622
G01 F600 X16.952 Y33.611
G01 F600 X16.799 Y33.554
G01 F600 X16.752 Y33.533
G01 F600 X16.707 Y33.500
G01 F600 X16.653 Y33.460
G01 F600 X16.583 Y33.408
G01 F600 X16.548 Y33.369
G01 F600 X16.450 Y33.238
G01 F600 X16.428 Y33.199
G01 F600 X16.407 Y33.155
G01 F600 X7.890 Y33.156
G01 F600 X7.875 Y33.195
G01 F600 X7.843 Y33.247
G01 F600 X7.749 Y33.372
G01 F600 X7.706 Y33.416
G01 F600 X7.586 Y33.506
G01 F600 X7.547 Y33.534
G01 F600 X7.491 Y33.558
G01 F600 X7.346 Y33.612
G01 F600 X7.289 Y33.623
G01 F600 X7.217 Y33.630
G01 F600 X7.182 Y33.630
G01 F600 X4.576 Y33.630
G01 F600 X4.500 Y33.622
G01 F600 X4.452 Y33.611
G01 F600 X4.299 Y33.554
G01 F600 X4.252 Y33.533
G01 F600 X4.207 Y33.500
G01 F600 X4.153 Y33.460
G01 F600 X4.083 Y33.408
G01 F600 X4.048 Y33.369
G01 F600 X3.950 Y33.238
G01 F600 X3.924 Y33.192
G01 F600 X3.867 Y33.039
G01 F600 X3.852 Y32.992
G01 F600 X3.843 Y32.913
G01 F600 X3.839 Y32.878
G01 F600 X3.839 Y31.562
G01 F600 X3.844 Y31.519
G01 F600 X3.852 Y31.448
G01 F600 X3.867 Y31.401
G01 F600 X3.924 Y31.248
G01 F600 X3.950 Y31.202
G01 F600 X4.048 Y31.071
G01 F600 X4.083 Y31.032
G01 F600 X4.214 Y30.934
G01 F600 X4.252 Y30.907
G01 F600 X4.299 Y30.886
G01 F600 X4.452 Y30.829
G01 F600 X4.500 Y30.818
G01 F600 X4.579 Y30.810
G01 F600 X7.221 Y30.810
G01 F600 X7.300 Y30.818
G01 F600 X7.348 Y30.829
G01 F600 X7.501 Y30.886
G01 F600 X7.548 Y30.907
G01 F600 X7.586 Y30.934
G01 F600 X7.717 Y31.032
G01 F600 X7.752 Y31.071
G01 F600 X7.850 Y31.202
G01 F600 X7.876 Y31.248
G01 F600 X7.890 Y31.285
G01 F600 X16.418 Y31.264
G01 F600 X16.424 Y31.248
G01 F600 X16.450 Y31.202
G01 F600 X16.548 Y31.071
G01 F600 X16.583 Y31.032
G01 F600 X16.714 Y30.934
G01 F600 X16.752 Y30.907
G01 F600 X16.799 Y30.886
G01 F600 X16.952 Y30.829
G01 F600 X17.000 Y30.818
G01 F600 X17.079 Y30.810
G01 F600 X19.721 Y30.810
G01 F600 X19.800 Y30.818
G01 F600 X19.848 Y30.829
G01 F600 X20.001 Y30.886
G01 F600 X20.048 Y30.907
G01 F600 X20.086 Y30.934
G01 F600 X20.217 Y31.032
G01 F600 X20.252 Y31.071
G01 F600 X20.350 Y31.202
G01 F600 X20.376 Y31.248
G01 F600 X20.396 Y31.300
G01 F600 X20.435 Y31.405
G01 F600 X20.450 Y31.460
G01 F600 X20.457 Y31.528
G01 F600 X20.461 Y31.565
G01 F600 X20.475 Y32.555
G01 F600 X25.388 Y32.543
G01 F600 X25.511 Y32.318
G01 F600 X25.531 Y32.284
G01 F600 X25.706 Y32.051
G01 F600 X25.732 Y32.022
G01 F600 X25.937 Y31.817
G01 F600 X26.166 Y31.645
G01 F600 X26.198 Y31.622
G01 F600 X26.454 Y31.482
G01 F600 X26.490 Y31.466
G01 F600 X26.762 Y31.365
G01 F600 X27.041 Y31.304
G01 F600 X27.080 Y31.296
G01 F600 X27.370 Y31.275
G01 F600 X27.410 Y31.275
G01 F600 X27.700 Y31.296
G01 F600 X27.739 Y31.304
G01 F600 X28.018 Y31.365
G01 F600 X28.290 Y31.466
G01 F600 X28.327 Y31.483
G01 F600 X28.582 Y31.622
G01 F600 X28.614 Y31.645
G01 F600 X28.843 Y31.817
G01 F600 X29.048 Y32.022
G01 F600 X29.075 Y32.051
G01 F600 X29.249 Y32.284
G01 F600 X29.271 Y32.322
G01 F600 X29.406 Y32.570
G01 F600 X29.427 Y32.625
G01 F600 X29.507 Y32.841
G01 F600 X29.520 Y32.879
G01 F600 X29.569 Y33.105
G01 F600 X29.582 Y33.164
G01 F600 X29.583 Y33.180
G01 F600 X34.700 Y33.180
G01 F600 X34.700 Y25.176
G01 F600 X20.460 Y25.176
G01 F600 X20.460 Y25.261
G01 F600 X20.456 Y25.299
G01 F600 X20.444 Y25.382
G01 F600 X20.430 Y25.428
G01 F600 X20.370 Y25.581
G01 F600 X20.344 Y25.625
G01 F600 X20.256 Y25.743
G01 F600 X20.208 Y25.794
G01 F600 X20.089 Y25.883
G01 F600 X20.035 Y25.918
G01 F600 X19.992 Y25.938
G01 F600 X19.839 Y25.992
G01 F600 X19.791 Y26.002
G01 F600 X19.717 Y26.010
G01 F600 X18.632 Y26.010
G01 F600 X18.556 Y25.992
G01 F600 X18.498 Y25.966
G01 F600 X18.445 Y25.928
G01 F600 X18.402 Y25.880
G01 F600 X18.400 Y25.877
G01 F600 X18.399 Y25.880
G01 F600 X18.355 Y25.928
G01 F600 X18.298 Y25.969
G01 F600 X18.225 Y25.997
G01 F600 X18.166 Y26.010
G01 F600 X18.121 Y26.010
G01 F600 X17.075 Y26.009
G01 F600 X17.002 Y26.001
G01 F600 X16.944 Y25.988
G01 F600 X16.805 Y25.936
G01 F600 X16.743 Y25.906
G01 F600 X16.706 Y25.879
G01 F600 X16.577 Y25.779
G01 F600 X16.543 Y25.741
G01 F600 X16.455 Y25.624
G01 F600 X16.421 Y25.563
G01 F600 X16.369 Y25.424
G01 F600 X16.351 Y25.362
G01 F600 X16.344 Y25.295
G01 F600 X16.340 Y25.253
G01 F600 X16.340 Y25.176
G01 F600 X7.960 Y25.176
G01 F600 X7.960 Y25.261
G01 F600 X7.956 Y25.299
G01 F600 X7.944 Y25.382
G01 F600 X7.930 Y25.428
G01 F600 X7.870 Y25.581
G01 F600 X7.844 Y25.625
G01 F600 X7.756 Y25.743
G01 F600 X7.708 Y25.794
G01 F600 X7.589 Y25.883
G01 F600 X7.535 Y25.918
G01 F600 X7.492 Y25.938
G01 F600 X7.339 Y25.992
G01 F600 X7.291 Y26.002
G01 F600 X7.217 Y26.010
G01 F600 X6.132 Y26.010
G01 F600 X6.056 Y25.992
G01 F600 X5.998 Y25.966
G01 F600 X5.945 Y25.928
G01 F600 X5.902 Y25.880
G01 F600 X5.900 Y25.877
G01 F600 X5.899 Y25.880
G01 F600 X5.855 Y25.928
G01 F600 X5.798 Y25.969
G01 F600 X5.725 Y25.997
G01 F600 X5.666 Y26.010
G01 F600 X5.621 Y26.010
G01 F600 X4.575 Y26.009
G01 F600 X4.502 Y26.001
G01 F600 X4.444 Y25.988
G01 F600 X4.305 Y25.936
G01 F600 X4.243 Y25.906
G01 F600 X4.206 Y25.879
G01 F600 X4.077 Y25.779
G01 F600 X4.043 Y25.741
G01 F600 X3.955 Y25.624
G01 F600 X3.921 Y25.563
G01 F600 X3.869 Y25.424
G01 F600 X3.851 Y25.362
G01 F600 X3.844 Y25.295
G01 F600 X3.840 Y25.253
G01 F600 X3.840 Y24.852
G01 F600 X3.851 Y24.784
G01 F600 X3.869 Y24.727
G01 F600 X3.901 Y24.671
G01 F600 X3.945 Y24.622
G01 F600 X3.976 Y24.600
G01 F600 X3.945 Y24.578
G01 F600 X3.901 Y24.530
G01 F600 X3.868 Y24.472
G01 F600 X3.845 Y24.397
G01 F600 X3.840 Y24.343
G01 F600 X3.840 Y23.939
G01 F600 X3.844 Y23.901
G01 F600 X3.856 Y23.818
G01 F600 X3.870 Y23.772
G01 F600 X3.930 Y23.620
G01 F600 X3.956 Y23.575
G01 F600 X4.045 Y23.457
G01 F600 X4.094 Y23.405
G01 F600 X4.211 Y23.317
G01 F600 X4.265 Y23.282
G01 F600 X4.309 Y23.263
G01 F600 X4.461 Y23.208
G01 F600 X4.509 Y23.198
G01 F600 X4.583 Y23.190
G01 F600 X5.666 Y23.190
G01 F600 X5.723 Y23.203
G01 F600 X5.730 Y23.205
G01 F600 X6.107 Y23.196
G01 F600 X6.134 Y23.190
G01 F600 X7.225 Y23.191
G01 F600 X7.298 Y23.199
G01 F600 X7.356 Y23.212
G01 F600 X7.495 Y23.264
G01 F600 X7.557 Y23.294
G01 F600 X7.594 Y23.321
G01 F600 X7.723 Y23.421
G01 F600 X7.757 Y23.459
G01 F600 X7.845 Y23.576
G01 F600 X7.879 Y23.637
G01 F600 X7.883 Y23.646
G01 F600 X16.420 Y23.646
G01 F600 X16.430 Y23.620
G01 F600 X16.456 Y23.575
G01 F600 X16.545 Y23.457
G01 F600 X16.594 Y23.405
G01 F600 X16.711 Y23.317
G01 F600 X16.765 Y23.282
G01 F600 X16.809 Y23.263
G01 F600 X16.961 Y23.208
G01 F600 X17.009 Y23.198
G01 F600 X17.083 Y23.190
G01 F600 X18.173 Y23.190
G01 F600 X18.223 Y23.205
G01 F600 X18.607 Y23.196
G01 F600 X18.634 Y23.190
G01 F600 X19.725 Y23.191
G01 F600 X19.798 Y23.199
G01 F600 X19.856 Y23.212
G01 F600 X19.995 Y23.264
G01 F600 X20.057 Y23.294
G01 F600 X20.094 Y23.321
G01 F600 X20.223 Y23.421
G01 F600 X20.257 Y23.459
G01 F600 X20.345 Y23.576
G01 F600 X20.379 Y23.637
G01 F600 X20.383 Y23.646
G01 F600 X34.693 Y23.646
G01 F600 X34.689 Y23.500
G01 F600 X33.116 Y23.499
G01 F600 X33.047 Y23.492
G01 F600 X32.984 Y23.478
G01 F600 X32.844 Y23.425
G01 F600 X32.783 Y23.396
G01 F600 X32.746 Y23.369
G01 F600 X32.617 Y23.269
G01 F600 X32.583 Y23.231
G01 F600 X32.495 Y23.114
G01 F600 X32.461 Y23.053
G01 F600 X32.409 Y22.914
G01 F600 X32.391 Y22.852
G01 F600 X32.384 Y22.786
G01 F600 X32.380 Y22.743
G01 F600 X32.380 Y21.042
G01 F600 X32.391 Y20.974
G01 F600 X32.409 Y20.917
G01 F600 X32.442 Y20.861
G01 F600 X32.485 Y20.812
G01 F600 X32.516 Y20.790
G01 F600 X32.485 Y20.768
G01 F600 X32.442 Y20.720
G01 F600 X32.408 Y20.662
G01 F600 X32.385 Y20.587
G01 F600 X32.380 Y20.533
G01 F600 X32.380 Y18.829
G01 F600 X32.384 Y18.791
G01 F600 X32.395 Y18.708
G01 F600 X32.410 Y18.662
G01 F600 X32.470 Y18.509
G01 F600 X32.496 Y18.465
G01 F600 X32.585 Y18.347
G01 F600 X32.634 Y18.295
G01 F600 X32.751 Y18.207
G01 F600 X32.805 Y18.172
G01 F600 X32.849 Y18.152
G01 F600 X33.001 Y18.098
G01 F600 X33.049 Y18.088
G01 F600 X33.123 Y18.080
G01 F600 X34.700 Y18.080
G01 F600 X34.700 Y17.556
G01 F600 X20.460 Y17.556
G01 F600 X20.460 Y17.641
G01 F600 X20.456 Y17.679
G01 F600 X20.444 Y17.762
G01 F600 X20.430 Y17.808
G01 F600 X20.370 Y17.960
G01 F600 X20.344 Y18.005
G01 F600 X20.256 Y18.123
G01 F600 X20.208 Y18.174
G01 F600 X20.089 Y18.263
G01 F600 X20.035 Y18.298
G01 F600 X19.992 Y18.318
G01 F600 X19.839 Y18.372
G01 F600 X19.791 Y18.382
G01 F600 X19.717 Y18.390
G01 F600 X18.632 Y18.390
G01 F600 X18.556 Y18.372
G01 F600 X18.498 Y18.346
G01 F600 X18.445 Y18.308
G01 F600 X18.402 Y18.259
G01 F600 X18.400 Y18.257
G01 F600 X18.399 Y18.259
G01 F600 X18.355 Y18.308
G01 F600 X18.298 Y18.349
G01 F600 X18.225 Y18.377
G01 F600 X18.166 Y18.390
G01 F600 X18.121 Y18.390
G01 F600 X17.076 Y18.389
G01 F600 X17.007 Y18.382
G01 F600 X16.944 Y18.368
G01 F600 X16.804 Y18.315
G01 F600 X16.743 Y18.286
G01 F600 X16.706 Y18.259
G01 F600 X16.577 Y18.159
G01 F600 X16.543 Y18.121
G01 F600 X16.455 Y18.004
G01 F600 X16.421 Y17.943
G01 F600 X16.369 Y17.804
G01 F600 X16.351 Y17.742
G01 F600 X16.344 Y17.675
G01 F600 X16.340 Y17.633
G01 F600 X16.340 Y17.556
G01 F600 X7.960 Y17.556
G01 F600 X7.960 Y17.641
G01 F600 X7.956 Y17.679
G01 F600 X7.944 Y17.762
G01 F600 X7.930 Y17.808
G01 F600 X7.870 Y17.960
G01 F600 X7.844 Y18.005
G01 F600 X7.756 Y18.123
G01 F600 X7.708 Y18.174
G01 F600 X7.589 Y18.263
G01 F600 X7.535 Y18.298
G01 F600 X7.492 Y18.318
G01 F600 X7.339 Y18.372
G01 F600 X7.291 Y18.382
G01 F600 X7.217 Y18.390
G01 F600 X6.132 Y18.390
G01 F600 X6.056 Y18.372
G01 F600 X5.998 Y18.346
G01 F600 X5.945 Y18.308
G01 F600 X5.902 Y18.259
G01 F600 X5.900 Y18.257
G01 F600 X5.899 Y18.259
G01 F600 X5.855 Y18.308
G01 F600 X5.798 Y18.349
G01 F600 X5.725 Y18.377
G01 F600 X5.666 Y18.390
G01 F600 X5.621 Y18.390
G01 F600 X4.576 Y18.389
G01 F600 X4.507 Y18.382
G01 F600 X4.444 Y18.368
G01 F600 X4.304 Y18.315
G01 F600 X4.243 Y18.286
G01 F600 X4.206 Y18.259
G01 F600 X4.077 Y18.159
G01 F600 X4.043 Y18.121
G01 F600 X3.955 Y18.004
G01 F600 X3.921 Y17.943
G01 F600 X3.869 Y17.804
G01 F600 X3.851 Y17.742
G01 F600 X3.844 Y17.675
G01 F600 X3.840 Y17.633
G01 F600 X3.840 Y17.232
G01 F600 X3.851 Y17.164
G01 F600 X3.869 Y17.107
G01 F600 X3.901 Y17.050
G01 F600 X3.945 Y17.002
G01 F600 X3.976 Y16.980
G01 F600 X3.945 Y16.958
G01 F600 X3.901 Y16.910
G01 F600 X3.868 Y16.852
G01 F600 X3.845 Y16.777
G01 F600 X3.840 Y16.723
G01 F600 X3.840 Y16.319
G01 F600 X3.844 Y16.281
G01 F600 X3.856 Y16.198
G01 F600 X3.870 Y16.152
G01 F600 X3.930 Y16.000
G01 F600 X3.956 Y15.955
G01 F600 X4.045 Y15.837
G01 F600 X4.094 Y15.785
G01 F600 X4.211 Y15.697
G01 F600 X4.265 Y15.662
G01 F600 X4.309 Y15.643
G01 F600 X4.461 Y15.588
G01 F600 X4.509 Y15.578
G01 F600 X4.583 Y15.570
G01 F600 X5.673 Y15.570
G01 F600 X5.723 Y15.585
G01 F600 X6.107 Y15.576
G01 F600 X6.134 Y15.570
G01 F600 X7.225 Y15.571
G01 F600 X7.298 Y15.579
G01 F600 X7.356 Y15.592
G01 F600 X7.495 Y15.644
G01 F600 X7.557 Y15.674
G01 F600 X7.594 Y15.701
G01 F600 X7.723 Y15.801
G01 F600 X7.757 Y15.839
G01 F600 X7.845 Y15.956
G01 F600 X7.879 Y16.017
G01 F600 X7.882 Y16.026
G01 F600 X16.422 Y16.022
G01 F600 X16.430 Y16.000
G01 F600 X16.456 Y15.955
G01 F600 X16.545 Y15.837
G01 F600 X16.594 Y15.785
G01 F600 X16.711 Y15.697
G01 F600 X16.765 Y15.662
G01 F600 X16.809 Y15.643
G01 F600 X16.961 Y15.588
G01 F600 X17.009 Y15.578
G01 F600 X17.083 Y15.570
G01 F600 X18.166 Y15.570
G01 F600 X18.223 Y15.583
G01 F600 X18.230 Y15.585
G01 F600 X18.607 Y15.576
G01 F600 X18.634 Y15.570
G01 F600 X19.725 Y15.571
G01 F600 X19.798 Y15.579
G01 F600 X19.856 Y15.592
G01 F600 X19.995 Y15.644
G01 F600 X20.057 Y15.674
G01 F600 X20.094 Y15.701
G01 F600 X20.223 Y15.801
G01 F600 X20.257 Y15.839
G01 F600 X20.345 Y15.956
G01 F600 X20.379 Y16.017
G01 F600 X20.383 Y16.026
G01 F600 X34.700 Y16.026
G01 F600 X34.700 Y8.400
G01 F600 X29.583 Y8.400
G01 F600 X29.580 Y8.422
G01 F600 X29.519 Y8.702
G01 F600 X29.506 Y8.744
G01 F600 X29.404 Y9.014
G01 F600 X29.268 Y9.263
G01 F600 X29.245 Y9.301
G01 F600 X29.074 Y9.530
G01 F600 X29.044 Y9.562
G01 F600 X28.839 Y9.766
G01 F600 X28.612 Y9.936
G01 F600 X28.576 Y9.961
G01 F600 X28.326 Y10.098
G01 F600 X28.285 Y10.116
G01 F600 X28.013 Y10.216
G01 F600 X27.736 Y10.277
G01 F600 X27.694 Y10.285
G01 F600 X27.409 Y10.305
G01 F600 X27.365 Y10.305
G01 F600 X27.100 Y10.286
G01 F600 X27.085 Y10.285
G01 F600 X27.080 Y10.284
G01 F600 X26.837 Y10.267
G01 F600 X26.838 Y10.232
G01 F600 X26.799 Y10.223
G01 F600 X26.756 Y10.213
G01 F600 X26.489 Y10.113
G01 F600 X26.449 Y10.095
G01 F600 X26.198 Y9.958
G01 F600 X26.166 Y9.935
G01 F600 X25.937 Y9.763
G01 F600 X25.732 Y9.558
G01 F600 X25.706 Y9.529
G01 F600 X25.531 Y9.296
G01 F600 X25.511 Y9.262
G01 F600 X25.382 Y9.025
G01 F600 X20.461 Y9.025
G01 F600 X20.460 Y10.021
G01 F600 X20.457 Y10.057
G01 F600 X20.448 Y10.133
G01 F600 X20.430 Y10.188
G01 F600 X20.375 Y10.335
G01 F600 X20.343 Y10.387
G01 F600 X20.249 Y10.512
G01 F600 X20.206 Y10.556
G01 F600 X20.086 Y10.646
G01 F600 X20.047 Y10.674
G01 F600 X19.991 Y10.698
G01 F600 X19.846 Y10.752
G01 F600 X19.789 Y10.763
G01 F600 X19.717 Y10.770
G01 F600 X19.681 Y10.770
G01 F600 X17.112 Y10.770
G01 F600 X17.076 Y10.770
G01 F600 X17.000 Y10.762
G01 F600 X16.952 Y10.751
G01 F600 X16.799 Y10.694
G01 F600 X16.752 Y10.673
G01 F600 X16.714 Y10.646
G01 F600 X16.583 Y10.548
G01 F600 X16.548 Y10.509
G01 F600 X16.450 Y10.378
G01 F600 X16.428 Y10.339
G01 F600 X16.407 Y10.296
G01 F600 X7.883 Y10.316
G01 F600 X7.875 Y10.335
G01 F600 X7.843 Y10.387
G01 F600 X7.749 Y10.512
G01 F600 X7.706 Y10.556
G01 F600 X7.586 Y10.646
G01 F600 X7.547 Y10.674
G01 F600 X7.491 Y10.698
G01 F600 X7.346 Y10.752
G01 F600 X7.289 Y10.763
G01 F600 X7.217 Y10.770
G01 F600 X4.576 Y10.770
G01 F600 X4.500 Y10.762
G01 F600 X4.452 Y10.751
G01 F600 X4.299 Y10.694
G01 F600 X4.252 Y10.673
G01 F600 X4.214 Y10.646
G01 F600 X4.083 Y10.548
G01 F600 X4.048 Y10.509
G01 F600 X3.950 Y10.378
G01 F600 X3.924 Y10.332
G01 F600 X3.867 Y10.179
G01 F600 X3.852 Y10.132
G01 F600 X3.843 Y10.053
G01 F600 X3.839 Y10.018
G01 F600 X3.839 Y8.702
G01 F600 X3.844 Y8.659
G01 F600 X3.852 Y8.588
G01 F600 X3.867 Y8.541
G01 F600 X3.924 Y8.388
G01 F600 X3.950 Y8.342
G01 F600 X4.048 Y8.211
G01 F600 X4.083 Y8.172
G01 F600 X4.214 Y8.074
G01 F600 X4.252 Y8.047
G01 F600 X4.299 Y8.026
G01 F600 X4.452 Y7.969
G01 F600 X4.500 Y7.958
G01 F600 X4.579 Y7.950
G01 F600 X7.221 Y7.950
G01 F600 X7.300 Y7.958
G01 F600 X7.348 Y7.969
G01 F600 X7.501 Y8.026
G01 F600 X7.548 Y8.047
G01 F600 X7.586 Y8.074
G01 F600 X7.717 Y8.172
G01 F600 X7.752 Y8.211
G01 F600 X7.850 Y8.342
G01 F600 X7.876 Y8.386
G01 F600 X7.891 Y8.425
G01 F600 X16.410 Y8.425
G01 F600 X16.424 Y8.388
G01 F600 X16.450 Y8.342
G01 F600 X16.548 Y8.211
G01 F600 X16.583 Y8.172
G01 F600 X16.714 Y8.074
G01 F600 X16.752 Y8.047
G01 F600 X16.799 Y8.026
G01 F600 X16.952 Y7.969
G01 F600 X17.000 Y7.958
G01 F600 X17.079 Y7.950
G01 F600 X18.495 Y7.942
G01 F600 X18.977 Y7.459
G01 F600 X19.002 Y7.429
G01 F600 X19.045 Y7.390
G01 F600 X19.084 Y7.354
G01 F600 X19.134 Y7.320
G01 F600 X19.160 Y7.305
G01 F600 X19.180 Y7.291
G01 F600 X19.224 Y7.263
G01 F600 X19.278 Y7.236
G01 F600 X19.316 Y7.219
G01 F600 X19.374 Y7.201
G01 F600 X19.423 Y7.182
G01 F600 X19.468 Y7.173
G01 F600 X19.493 Y7.168
G01 F600 X19.535 Y7.159
G01 F600 X19.613 Y7.155
G01 F600 X19.649 Y7.155
G01 F600 X19.718 Y7.153
G01 F600 X19.766 Y7.155
G01 F600 X25.388 Y7.143
G01 F600 X25.511 Y6.918
G01 F600 X25.531 Y6.884
G01 F600 X25.706 Y6.651
G01 F600 X25.732 Y6.622
G01 F600 X25.937 Y6.417
G01 F600 X26.166 Y6.245
G01 F600 X26.198 Y6.222
G01 F600 X26.454 Y6.082
G01 F600 X26.490 Y6.066
G01 F600 X26.762 Y5.965
G01 F600 X27.041 Y5.904
G01 F600 X27.080 Y5.896
G01 F600 X27.370 Y5.875
G01 F600 X27.410 Y5.875
G01 F600 X27.700 Y5.896
G01 F600 X27.739 Y5.904
G01 F600 X28.018 Y5.965
G01 F600 X28.290 Y6.066
G01 F600 X28.326 Y6.082
G01 F600 X28.582 Y6.222
G01 F600 X28.614 Y6.245
G01 F600 X28.843 Y6.417
G01 F600 X29.048 Y6.622
G01 F600 X29.075 Y6.651
G01 F600 X29.249 Y6.884
G01 F600 X29.271 Y6.922
G01 F600 X29.406 Y7.171
G01 F600 X29.459 Y7.311
G01 F600 X29.507 Y7.441
G01 F600 X29.520 Y7.479
G01 F600 X29.530 Y7.527
G01 F600 X29.582 Y7.764
G01 F600 X29.583 Y7.780
G01 F600 X34.700 Y7.780
G01 F600 X34.713 Y1.380
G01 F600 X0.361 Y1.401
G01 F600 X0.378 Y37.660
G00 F3000 Z3.000
G00 F3000 X40.400 Y37.660
G00 F1500 Z0
G01 F600 Z-0.200
G01 F600 X59.499 Y37.639
G01 F600 X59.499 Y26.446
G01 F600 X57.040 Y26.446
G01 F600 X57.040 Y26.831
G01 F600 X57.036 Y26.869
G01 F600 X57.024 Y26.952
G01 F600 X57.010 Y26.998
G01 F600 X56.950 Y27.151
G01 F600 X56.924 Y27.195
G01 F600 X56.836 Y27.313
G01 F600 X56.788 Y27.364
G01 F600 X56.669 Y27.453
G01 F600 X56.615 Y27.488
G01 F600 X56.572 Y27.508
G01 F600 X56.419 Y27.562
G01 F600 X56.371 Y27.572
G01 F600 X56.297 Y27.580
G01 F600 X55.562 Y27.580
G01 F600 X55.486 Y27.562
G01 F600 X55.428 Y27.536
G01 F600 X55.375 Y27.498
G01 F600 X55.332 Y27.450
G01 F600 X55.330 Y27.447
G01 F600 X55.329 Y27.450
G01 F600 X55.285 Y27.498
G01 F600 X55.228 Y27.539
G01 F600 X55.155 Y27.567
G01 F600 X55.096 Y27.580
G01 F600 X54.356 Y27.579
G01 F600 X54.287 Y27.572
G01 F600 X54.224 Y27.558
G01 F600 X54.084 Y27.505
G01 F600 X54.023 Y27.476
G01 F600 X53.986 Y27.449
G01 F600 X53.857 Y27.349
G01 F600 X53.823 Y27.311
G01 F600 X53.786 Y27.262
G01 F600 X53.752 Y27.289
G01 F600 X53.726 Y27.307
G01 F600 X53.726 Y31.482
G01 F600 X53.727 Y31.483
G01 F600 X53.982 Y31.622
G01 F600 X54.014 Y31.645
G01 F600 X54.243 Y31.817
G01 F600 X54.448 Y32.022
G01 F600 X54.475 Y32.051
G01 F600 X54.649 Y32.284
G01 F600 X54.671 Y32.322
G01 F600 X54.806 Y32.570
G01 F600 X54.908 Y32.841
G01 F600 X54.920 Y32.879
G01 F600 X54.927 Y32.914
G01 F600 X54.982 Y33.164
G01 F600 X54.986 Y33.208
G01 F600 X55.005 Y33.500
G01 F600 X54.986 Y33.779
G01 F600 X54.980 Y33.822
G01 F600 X54.919 Y34.102
G01 F600 X54.906 Y34.144
G01 F600 X54.804 Y34.414
G01 F600 X54.668 Y34.663
G01 F600 X54.645 Y34.701
G01 F600 X54.474 Y34.930
G01 F600 X54.444 Y34.962
G01 F600 X54.239 Y35.166
G01 F600 X54.010 Y35.338
G01 F600 X53.976 Y35.361
G01 F600 X53.726 Y35.498
G01 F600 X53.685 Y35.516
G01 F600 X53.413 Y35.616
G01 F600 X53.137 Y35.676
G01 F600 X53.094 Y35.685
G01 F600 X52.809 Y35.705
G01 F600 X52.765 Y35.705
G01 F600 X52.480 Y35.684
G01 F600 X52.437 Y35.675
G01 F600 X52.199 Y35.623
G01 F600 X52.156 Y35.613
G01 F600 X51.889 Y35.513
G01 F600 X51.849 Y35.495
G01 F600 X51.598 Y35.358
G01 F600 X51.566 Y35.335
G01 F600 X51.337 Y35.163
G01 F600 X51.132 Y34.958
G01 F600 X51.105 Y34.929
G01 F600 X50.931 Y34.696
G01 F600 X50.911 Y34.662
G01 F600 X50.774 Y34.410
G01 F600 X50.673 Y34.139
G01 F600 X50.660 Y34.101
G01 F600 X50.599 Y33.817
G01 F600 X50.595 Y33.777
G01 F600 X50.574 Y33.490
G01 F600 X50.595 Y33.203
G01 F600 X50.599 Y33.163
G01 F600 X50.660 Y32.879
G01 F600 X50.673 Y32.841
G01 F600 X50.774 Y32.571
G01 F600 X50.911 Y32.318
G01 F600 X50.931 Y32.284
G01 F600 X51.106 Y32.051
G01 F600 X51.132 Y32.022
G01 F600 X51.337 Y31.817
G01 F600 X51.566 Y31.645
G01 F600 X51.598 Y31.622
G01 F600 X51.854 Y31.482
G01 F600 X51.854 Y31.482
G01 F600 X51.854 Y27.308
G01 F600 X51.822 Y27.284
G01 F600 X51.789 Y27.258
G01 F600 X51.629 Y27.134
G01 F600 X51.460 Y26.951
G01 F600 X51.433 Y26.920
G01 F600 X51.295 Y26.709
G01 F600 X51.274 Y26.674
G01 F600 X51.173 Y26.443
G01 F600 X51.160 Y26.404
G01 F600 X51.099 Y26.160
G01 F600 X51.094 Y26.119
G01 F600 X51.074 Y25.870
G01 F600 X51.094 Y25.621
G01 F600 X51.099 Y25.580
G01 F600 X51.160 Y25.336
G01 F600 X51.173 Y25.297
G01 F600 X51.274 Y25.066
G01 F600 X51.295 Y25.031
G01 F600 X51.433 Y24.820
G01 F600 X51.460 Y24.789
G01 F600 X51.629 Y24.606
G01 F600 X51.826 Y24.453
G01 F600 X51.860 Y24.428
G01 F600 X52.081 Y24.308
G01 F600 X52.119 Y24.292
G01 F600 X52.357 Y24.210
G01 F600 X52.398 Y24.201
G01 F600 X52.646 Y24.160
G01 F600 X52.934 Y24.160
G01 F600 X53.183 Y24.201
G01 F600 X53.223 Y24.210
G01 F600 X53.461 Y24.292
G01 F600 X53.499 Y24.308
G01 F600 X53.720 Y24.428
G01 F600 X53.749 Y24.449
G01 F600 X53.787 Y24.476
G01 F600 X53.824 Y24.427
G01 F600 X53.872 Y24.376
G01 F600 X53.991 Y24.287
G01 F600 X54.045 Y24.252
G01 F600 X54.089 Y24.233
G01 F600 X54.241 Y24.178
G01 F600 X54.289 Y24.168
G01 F600 X54.363 Y24.160
G01 F600 X55.103 Y24.160
G01 F600 X55.153 Y24.175
G01 F600 X55.537 Y24.166
G01 F600 X55.564 Y24.160
G01 F600 X56.304 Y24.161
G01 F600 X56.373 Y24.168
G01 F600 X56.436 Y24.182
G01 F600 X56.576 Y24.235
G01 F600 X56.637 Y24.264
G01 F600 X56.674 Y24.291
G01 F600 X56.803 Y24.391
G01 F600 X56.837 Y24.429
G01 F600 X56.925 Y24.546
G01 F600 X56.959 Y24.607
G01 F600 X56.963 Y24.616
G01 F600 X59.499 Y24.616
G01 F600 X59.499 Y21.096
G01 F600 X42.786 Y21.096
G01 F600 X42.786 Y21.103
G01 F600 X42.781 Y21.149
G01 F600 X42.720 Y21.464
G01 F600 X42.708 Y21.500
G01 F600 X42.611 Y21.798
G01 F600 X42.474 Y22.089
G01 F600 X42.455 Y22.121
G01 F600 X42.284 Y22.389
G01 F600 X42.207 Y22.482
G01 F600 X42.174 Y22.520
G01 F600 X42.109 Y22.565
G01 F600 X42.051 Y22.592
G01 F600 X41.987 Y22.605
G01 F600 X41.922 Y22.605
G01 F600 X41.905 Y22.602
G01 F600 X41.911 Y22.657
G01 F600 X41.904 Y22.721
G01 F600 X41.883 Y22.789
G01 F600 X41.841 Y22.852
G01 F600 X41.801 Y22.896
G01 F600 X41.764 Y22.923
G01 F600 X41.573 Y23.062
G01 F600 X41.536 Y23.088
G01 F600 X41.255 Y23.242
G01 F600 X41.221 Y23.257
G01 F600 X40.925 Y23.373
G01 F600 X40.625 Y23.451
G01 F600 X40.580 Y23.460
G01 F600 X40.400 Y23.482
G01 F600 X40.400 Y37.660
G00 F3000 Z3.000
G00 F3000 X52.790 Y35.084
G00 F1500 Z0
G01 F600 Z-0.200
G01 F600 X53.020 Y35.068
G01 F600 X53.240 Y35.020
G01 F600 X53.451 Y34.941
G01 F600 X53.658 Y34.827
G01 F600 X53.836 Y34.694
G01 F600 X53.994 Y34.535
G01 F600 X54.134 Y34.347
G01 F600 X54.242 Y34.149
G01 F600 X54.319 Y33.941
G01 F600 X54.368 Y33.715
G01 F600 X54.384 Y33.485
G01 F600 X54.369 Y33.266
G01 F600 X54.319 Y33.039
G01 F600 X54.238 Y32.823
G01 F600 X54.133 Y32.630
G01 F600 X53.994 Y32.445
G01 F600 X53.833 Y32.284
G01 F600 X53.655 Y32.151
G01 F600 X53.451 Y32.039
G01 F600 X53.387 Y32.015
G01 F600 X53.347 Y31.997
G01 F600 X53.288 Y31.961
G01 F600 X53.246 Y31.930
G01 F600 X53.207 Y31.887
G01 F600 X53.168 Y31.830
G01 F600 X53.141 Y31.784
G01 F600 X53.124 Y31.731
G01 F600 X53.120 Y31.713
G01 F600 X53.121 Y31.948
G01 F600 X53.280 Y31.981
G01 F600 X53.583 Y32.116
G01 F600 X53.852 Y32.311
G01 F600 X54.073 Y32.558
G01 F600 X54.239 Y32.845
G01 F600 X54.342 Y33.160
G01 F600 X54.376 Y33.490
G01 F600 X54.342 Y33.820
G01 F600 X54.239 Y34.135
G01 F600 X54.073 Y34.422
G01 F600 X53.852 Y34.669
G01 F600 X53.583 Y34.864
G01 F600 X53.280 Y34.999
G01 F600 X52.956 Y35.068
G01 F600 X52.624 Y35.068
G01 F600 X52.300 Y34.999
G01 F600 X51.997 Y34.864
G01 F600 X51.729 Y34.669
G01 F600 X51.507 Y34.422
G01 F600 X51.341 Y34.135
G01 F600 X51.238 Y33.820
G01 F600 X51.204 Y33.490
G01 F600 X51.238 Y33.160
G01 F600 X51.341 Y32.845
G01 F600 X51.507 Y32.558
G01 F600 X51.729 Y32.311
G01 F600 X51.997 Y32.116
G01 F600 X52.301 Y31.981
G01 F600 X52.480 Y31.945
G01 F600 X52.480 Y26.909
G01 F600 X52.454 Y26.903
G01 F600 X52.247 Y26.811
G01 F600 X52.063 Y26.677
G01 F600 X51.911 Y26.509
G01 F600 X51.798 Y26.312
G01 F600 X51.727 Y26.096
G01 F600 X51.704 Y25.870
G01 F600 X51.727 Y25.644
G01 F600 X51.798 Y25.428
G01 F600 X51.911 Y25.232
G01 F600 X52.063 Y25.063
G01 F600 X52.247 Y24.929
G01 F600 X52.454 Y24.837
G01 F600 X52.677 Y24.790
G01 F600 X52.904 Y24.790
G01 F600 X53.126 Y24.837
G01 F600 X53.333 Y24.929
G01 F600 X53.517 Y25.063
G01 F600 X53.669 Y25.232
G01 F600 X53.782 Y25.428
G01 F600 X53.852 Y25.644
G01 F600 X53.876 Y25.870
G01 F600 X53.852 Y26.096
G01 F600 X53.782 Y26.312
G01 F600 X53.669 Y26.509
G01 F600 X53.517 Y26.677
G01 F600 X53.333 Y26.811
G01 F600 X53.126 Y26.903
G01 F600 X53.101 Y26.908
G01 F600 X53.105 Y27.983
G01 F600 X53.105 Y27.188
G01 F600 X53.111 Y27.137
G01 F600 X53.133 Y27.055
G01 F600 X53.149 Y27.008
G01 F600 X53.181 Y26.951
G01 F600 X53.216 Y26.912
G01 F600 X53.278 Y26.853
G01 F600 X53.318 Y26.824
G01 F600 X53.391 Y26.784
G01 F600 X53.555 Y26.654
G01 F600 X53.583 Y26.633
G01 F600 X53.652 Y26.589
G01 F600 X53.707 Y26.565
G01 F600 X53.765 Y26.552
G01 F600 X53.847 Y26.547
G01 F600 X53.898 Y26.547
G01 F600 X53.962 Y26.561
G01 F600 X54.006 Y26.580
G01 F600 X54.080 Y26.616
G01 F600 X54.130 Y26.652
G01 F600 X54.168 Y26.695
G01 F600 X54.215 Y26.762
G01 F600 X54.239 Y26.803
G01 F600 X54.245 Y26.817
G01 F600 X54.245 Y24.923
G01 F600 X54.240 Y24.936
G01 F600 X54.215 Y24.978
G01 F600 X54.168 Y25.045
G01 F600 X54.130 Y25.088
G01 F600 X54.080 Y25.124
G01 F600 X54.006 Y25.160
G01 F600 X53.962 Y25.179
G01 F600 X53.898 Y25.193
G01 F600 X53.847 Y25.193
G01 F600 X53.765 Y25.188
G01 F600 X53.707 Y25.175
G01 F600 X53.652 Y25.151
G01 F600 X53.578 Y25.104
G01 F600 X53.540 Y25.072
G01 F600 X53.390 Y24.955
G01 F600 X53.230 Y24.868
G01 F600 X53.057 Y24.809
G01 F600 X52.878 Y24.779
G01 F600 X52.702 Y24.779
G01 F600 X52.523 Y24.809
G01 F600 X52.350 Y24.868
G01 F600 X52.190 Y24.955
G01 F600 X52.048 Y25.066
G01 F600 X51.928 Y25.197
