(G-CODE GENERATED BY FLATCAM v8.994 - www.flatcam.org - Version Date: 2020/11/7)

(Name: WiznetDemo-PTH.drl_cnc)
(Type: G-code from Geometry)
(Units: MM)

(Created on Sunday, 05 February 2023 at 20:42)

(This preprocessor is the default preprocessor used by FlatCAM.)
(It is made to work with MACH3 compatible motion controllers.)


(TOOLS DIAMETER: )
(Tool: 1 -> Dia: 0.70104)
(Tool: 2 -> Dia: 0.8000999999999999)
(Tool: 3 -> Dia: 0.83058)
(Tool: 4 -> Dia: 0.89916)
(Tool: 5 -> Dia: 1.0007599999999999)
(Tool: 6 -> Dia: 1.69926)

(FEEDRATE Z: )
(Tool: 1 -> Feedrate: 300)
(Tool: 2 -> Feedrate: 300)
(Tool: 3 -> Feedrate: 300)
(Tool: 4 -> Feedrate: 300)
(Tool: 5 -> Feedrate: 300)
(Tool: 6 -> Feedrate: 300)

(FEEDRATE RAPIDS: )
(Tool: 1 -> Feedrate Rapids: 1500)
(Tool: 2 -> Feedrate Rapids: 1500)
(Tool: 3 -> Feedrate Rapids: 1500)
(Tool: 4 -> Feedrate Rapids: 1500)
(Tool: 5 -> Feedrate Rapids: 1500)
(Tool: 6 -> Feedrate Rapids: 1500)

(Z_CUT: )
(Tool: 1 -> Z_Cut: -1.7)
(Tool: 2 -> Z_Cut: -1.7)
(Tool: 3 -> Z_Cut: -1.7)
(Tool: 4 -> Z_Cut: -1.7)
(Tool: 5 -> Z_Cut: -1.7)
(Tool: 6 -> Z_Cut: -1.7)

(Tools Offset: )
(Tool: 1 -> Offset Z: 0.0)
(Tool: 2 -> Offset Z: 0.0)
(Tool: 3 -> Offset Z: 0.0)
(Tool: 4 -> Offset Z: 0.0)
(Tool: 5 -> Offset Z: 0.0)
(Tool: 6 -> Offset Z: 0.0)

(Z_MOVE: )
(Tool: 1 -> Z_Move: 2)
(Tool: 2 -> Z_Move: 2)
(Tool: 3 -> Z_Move: 2)
(Tool: 4 -> Z_Move: 2)
(Tool: 5 -> Z_Move: 2)
(Tool: 6 -> Z_Move: 2)

(Z Toolchange: 15 mm)
(X,Y Toolchange: 0.0000, 0.0000 mm)
(Z Start: None mm)
(Z End: 0.5 mm)
(X,Y End: None mm)
(Steps per circle: 64)
(Preprocessor Excellon: default)

(X range:   12.2997 ...   86.8093  mm)
(Y range:    3.5595 ...   56.4804  mm)

(Spindle Speed: 0 RPM)
G21
G90
G94

G01 F300.00

M5
G00 Z15.0000
T1
G00 X0.0000 Y0.0000                
M6
(MSG, Change to Tool Dia = 0.7010 ||| Total drills for tool T1 = 69)
M0
G00 Z15.0000

G01 F300.00
M03
G00 X51.4360 Y26.2747
G01 Z-1.7000
G01 Z0
G00 Z2.0000
G00 X45.7159 Y24.7634
G01 Z-1.7000
G01 Z0
G00 Z2.0000
G00 X45.7159 Y19.8638
G01 Z-1.7000
G01 Z0
G00 Z2.0000
G00 X51.4360 Y18.6547
G01 Z-1.7000
G01 Z0
G00 Z2.0000
G00 X55.5889 Y11.5300
G01 Z-1.7000
G01 Z0
G00 Z2.0000
G00 X58.5200 Y11.5300
G01 Z-1.7000
G01 Z0
G00 Z2.0000
G00 X61.0600 Y11.5554
G01 Z-1.7000
G01 Z0
G00 Z2.0000
G00 X63.6000 Y11.5453
G01 Z-1.7000
G01 Z0
G00 Z2.0000
G00 X66.1400 Y11.5453
G01 Z-1.7000
G01 Z0
G00 Z2.0000
G00 X66.1400 Y3.9253
G01 Z-1.7000
G01 Z0
G00 Z2.0000
G00 X63.6000 Y3.9253
G01 Z-1.7000
G01 Z0
G00 Z2.0000
G00 X61.0600 Y3.9354
G01 Z-1.7000
G01 Z0
G00 Z2.0000
G00 X58.5200 Y3.9100
G01 Z-1.7000
G01 Z0
G00 Z2.0000
G00 X55.5889 Y3.9100
G01 Z-1.7000
G01 Z0
G00 Z2.0000
G00 X26.8970 Y11.5300
G01 Z-1.7000
G01 Z0
G00 Z2.0000
G00 X26.8970 Y8.9900
G01 Z-1.7000
G01 Z0
G00 Z2.0000
G00 X19.0230 Y8.9900
G01 Z-1.7000
G01 Z0
G00 Z2.0000
G00 X19.0230 Y11.5300
G01 Z-1.7000
G01 Z0
G00 Z2.0000
G00 X12.8000 Y17.8800
G01 Z-1.7000
G01 Z0
G00 Z2.0000
G00 X12.8000 Y22.7797
G01 Z-1.7000
G01 Z0
G00 Z2.0000
G00 X12.8000 Y30.5800
G01 Z-1.7000
G01 Z0
G00 Z2.0000
G00 X12.8000 Y33.1200
G01 Z-1.7000
G01 Z0
G00 Z2.0000
G00 X19.0230 Y39.4700
G01 Z-1.7000
G01 Z0
G00 Z2.0000
G00 X19.0230 Y42.0100
G01 Z-1.7000
G01 Z0
G00 Z2.0000
G00 X22.9600 Y50.9000
G01 Z-1.7000
G01 Z0
G00 Z2.0000
G00 X22.9600 Y53.4400
G01 Z-1.7000
G01 Z0
G00 Z2.0000
G00 X22.9600 Y55.9800
G01 Z-1.7000
G01 Z0
G00 Z2.0000
G00 X25.5000 Y55.9800
G01 Z-1.7000
G01 Z0
G00 Z2.0000
G00 X25.5000 Y53.4400
G01 Z-1.7000
G01 Z0
G00 Z2.0000
G00 X25.5000 Y50.9000
G01 Z-1.7000
G01 Z0
G00 Z2.0000
G00 X26.8970 Y42.0100
G01 Z-1.7000
G01 Z0
G00 Z2.0000
G00 X19.0230 Y36.9300
G01 Z-1.7000
G01 Z0
G00 Z2.0000
G00 X19.0230 Y34.3900
G01 Z-1.7000
G01 Z0
G00 Z2.0000
G00 X19.0230 Y31.8500
G01 Z-1.7000
G01 Z0
G00 Z2.0000
G00 X19.0230 Y29.3100
G01 Z-1.7000
G01 Z0
G00 Z2.0000
G00 X19.0230 Y26.7700
G01 Z-1.7000
G01 Z0
G00 Z2.0000
G00 X19.0230 Y24.2300
G01 Z-1.7000
G01 Z0
G00 Z2.0000
G00 X19.0230 Y21.6900
G01 Z-1.7000
G01 Z0
G00 Z2.0000
G00 X19.0230 Y19.1500
G01 Z-1.7000
G01 Z0
G00 Z2.0000
G00 X19.0230 Y16.6100
G01 Z-1.7000
G01 Z0
G00 Z2.0000
G00 X19.0230 Y14.0700
G01 Z-1.7000
G01 Z0
G00 Z2.0000
G00 X26.8970 Y14.0700
G01 Z-1.7000
G01 Z0
G00 Z2.0000
G00 X26.8970 Y16.6100
G01 Z-1.7000
G01 Z0
G00 Z2.0000
G00 X26.8970 Y19.1500
G01 Z-1.7000
G01 Z0
G00 Z2.0000
G00 X26.8970 Y21.6900
G01 Z-1.7000
G01 Z0
G00 Z2.0000
G00 X26.8970 Y24.2300
G01 Z-1.7000
G01 Z0
G00 Z2.0000
G00 X26.8970 Y26.7700
G01 Z-1.7000
G01 Z0
G00 Z2.0000
G00 X26.8970 Y29.3100
G01 Z-1.7000
G01 Z0
G00 Z2.0000
G00 X26.8970 Y31.8500
G01 Z-1.7000
G01 Z0
G00 Z2.0000
G00 X26.8970 Y34.3900
G01 Z-1.7000
G01 Z0
G00 Z2.0000
G00 X26.8970 Y36.9300
G01 Z-1.7000
G01 Z0
G00 Z2.0000
G00 X26.8970 Y39.4700
G01 Z-1.7000
G01 Z0
G00 Z2.0000
G00 X71.5807 Y49.8790
G01 Z-1.7000
G01 Z0
G00 Z2.0000
G00 X74.1207 Y49.8790
G01 Z-1.7000
G01 Z0
G00 Z2.0000
G00 X82.2995 Y49.8790
G01 Z-1.7000
G01 Z0
G00 Z2.0000
G00 X84.8395 Y49.8790
G01 Z-1.7000
G01 Z0
G00 Z2.0000
G00 X85.9597 Y42.7695
G01 Z-1.7000
G01 Z0
G00 Z2.0000
G00 X82.6500 Y39.4700
G01 Z-1.7000
G01 Z0
G00 Z2.0000
G00 X83.9200 Y36.9300
G01 Z-1.7000
G01 Z0
G00 Z2.0000
G00 X81.3800 Y36.9300
G01 Z-1.7000
G01 Z0
G00 Z2.0000
G00 X80.1100 Y39.4700
G01 Z-1.7000
G01 Z0
G00 Z2.0000
G00 X78.8400 Y36.9300
G01 Z-1.7000
G01 Z0
G00 Z2.0000
G00 X77.5700 Y39.4700
G01 Z-1.7000
G01 Z0
G00 Z2.0000
G00 X76.3000 Y36.9300
G01 Z-1.7000
G01 Z0
G00 Z2.0000
G00 X73.7600 Y36.9300
G01 Z-1.7000
G01 Z0
G00 Z2.0000
G00 X72.4900 Y39.4700
G01 Z-1.7000
G01 Z0
G00 Z2.0000
G00 X70.4606 Y42.7695
G01 Z-1.7000
G01 Z0
G00 Z2.0000
G00 X57.4710 Y36.9453
G01 Z-1.7000
G01 Z0
G00 Z2.0000
G00 X57.4710 Y29.3253
G01 Z-1.7000
G01 Z0
G00 Z2.0000
M05
G00 Z0.50


