(G-CODE GENERATED BY FLATCAM v8.994 - www.flatcam.org - Version Date: 2020/11/7)

(Name: WiznetDemo-F_Cu.gbr_iso_combined_cnc)
(Type: G-code from Geometry)
(Units: MM)

(Created on Sunday, 05 February 2023 at 20:42)

(This preprocessor is the default preprocessor used by FlatCAM.)
(It is made to work with MACH3 compatible motion controllers.)

(TOOL DIAMETER: 0.1 mm)
(Feedrate_XY: 120.0 mm/min)
(Feedrate_Z: 60.0 mm/min)
(Feedrate rapids 1500.0 mm/min)

(Z_Cut: -0.0 mm)
(Z_Move: 2.0 mm)
(Z Start: None mm)
(Z End: 15.0 mm)
(X,Y End: None mm)
(Steps per circle: 64)
(Preprocessor Geometry: default)

(X range:   -0.0500 ...   89.1501  mm)
(Y range:   -0.0500 ...   58.6701  mm)

(Spindle Speed: 0.0 RPM)
G21
G90
G94

G01 F120.00

M5
G00 Z15.0000
G00 X0.0000 Y0.0000
T1
M6    
(MSG, Change to Tool Dia = 0.1000)
M0
G00 Z15.0000

M03
G01 F120.00
G00 X-0.0499 Y0.0976
G01 F60.00
G01 Z-0.0000
G01 F120.00
G01 X-0.0493 Y0.0853
G01 X-0.0471 Y0.0708
G01 X-0.0435 Y0.0565
G01 X-0.0386 Y0.0426
G01 X-0.0323 Y0.0293
G01 X-0.0247 Y0.0167
G01 X-0.0159 Y0.0049
G01 X-0.0061 Y-0.0061
G01 X0.0049 Y-0.0159
G01 X0.0167 Y-0.0247
G01 X0.0293 Y-0.0323
G01 X0.0426 Y-0.0386
G01 X0.0565 Y-0.0435
G01 X0.0708 Y-0.0471
G01 X0.0853 Y-0.0493
G01 X0.1000 Y-0.0500
G01 X89.0000 Y-0.0500
G01 X89.0148 Y-0.0493
G01 X89.0269 Y-0.0475
G01 X89.0436 Y-0.0435
G01 X89.0575 Y-0.0386
G01 X89.0686 Y-0.0334
G01 X89.0834 Y-0.0247
G01 X89.0971 Y-0.0143
G01 X89.1062 Y-0.0061
G01 X89.1144 Y0.0030
G01 X89.1248 Y0.0167
G01 X89.1324 Y0.0293
G01 X89.1387 Y0.0426
G01 X89.1443 Y0.0589
G01 X89.1472 Y0.0708
G01 X89.1491 Y0.0829
G01 X89.1501 Y0.1000
G01 X89.1501 Y58.5200
G01 X89.1491 Y58.5372
G01 X89.1472 Y58.5493
G01 X89.1436 Y58.5636
G01 X89.1387 Y58.5775
G01 X89.1335 Y58.5886
G01 X89.1248 Y58.6034
G01 X89.1144 Y58.6171
G01 X89.1062 Y58.6262
G01 X89.0971 Y58.6344
G01 X89.0834 Y58.6448
G01 X89.0708 Y58.6524
G01 X89.0552 Y58.6596
G01 X89.0436 Y58.6636
G01 X89.0317 Y58.6667
G01 X89.0148 Y58.6694
G01 X89.0000 Y58.6701
G01 X0.1000 Y58.6701
G01 X0.0853 Y58.6694
G01 X0.0732 Y58.6676
G01 X0.0565 Y58.6636
G01 X0.0426 Y58.6587
G01 X0.0315 Y58.6535
G01 X0.0167 Y58.6448
G01 X0.0030 Y58.6344
G01 X-0.0061 Y58.6262
G01 X-0.0143 Y58.6171
G01 X-0.0247 Y58.6034
G01 X-0.0323 Y58.5908
G01 X-0.0386 Y58.5775
G01 X-0.0442 Y58.5612
G01 X-0.0471 Y58.5493
G01 X-0.0490 Y58.5372
G01 X-0.0500 Y58.5200
G01 X-0.0499 Y0.0976
G00 Z2.0000
G00 X0.2501 Y0.2501
G01 F60.00
G01 Z-0.0000
G01 F120.00
G01 X88.8500 Y0.2501
G01 X88.8500 Y58.3700
G01 X0.2501 Y58.3700
G01 X0.2501 Y0.2501
G00 Z2.0000
G00 X0.6597 Y0.8239
G01 F60.00
G01 Z-0.0000
G01 F120.00
G01 X0.6714 Y0.7704
G01 X0.6732 Y0.7644
G01 X0.6764 Y0.7576
G01 X0.6821 Y0.7495
G01 X0.7321 Y0.6922
G01 X0.7368 Y0.6882
G01 X0.7410 Y0.6855
G01 X0.7454 Y0.6832
G01 X0.7512 Y0.6809
G01 X0.8216 Y0.6603
G01 X0.8274 Y0.6591
G01 X0.8345 Y0.6586
G01 X88.2655 Y0.6586
G01 X88.2750 Y0.6595
G01 X88.3297 Y0.6714
G01 X88.3369 Y0.6737
G01 X88.3446 Y0.6777
G01 X88.3506 Y0.6821
G01 X88.4052 Y0.7295
G01 X88.4095 Y0.7339
G01 X88.4139 Y0.7399
G01 X88.4169 Y0.7454
G01 X88.4192 Y0.7512
G01 X88.4395 Y0.8205
G01 X88.4410 Y0.8274
G01 X88.4415 Y0.8345
G01 X88.4415 Y57.7855
G01 X88.4406 Y57.7950
G01 X88.4287 Y57.8497
G01 X88.4264 Y57.8569
G01 X88.4224 Y57.8646
G01 X88.4180 Y57.8706
G01 X88.3706 Y57.9252
G01 X88.3662 Y57.9295
G01 X88.3602 Y57.9339
G01 X88.3547 Y57.9369
G01 X88.3489 Y57.9392
G01 X88.2796 Y57.9595
G01 X88.2727 Y57.9610
G01 X88.2655 Y57.9615
G01 X24.7547 Y57.9615
G01 X24.7471 Y57.9610
G01 X24.7010 Y57.9527
G01 X24.6940 Y57.9507
G01 X24.6884 Y57.9483
G01 X24.6812 Y57.9438
G01 X24.6232 Y57.9007
G01 X24.6177 Y57.8957
G01 X24.6130 Y57.8899
G01 X24.6104 Y57.8857
G01 X24.6077 Y57.8801
G01 X24.5823 Y57.8125
G01 X24.5802 Y57.8054
G01 X24.5792 Y57.7980
G01 X24.5792 Y57.7918
G01 X24.5799 Y57.7856
G01 X24.5953 Y57.7138
G01 X24.5981 Y57.7056
G01 X24.6022 Y57.6979
G01 X24.6076 Y57.6911
G01 X24.6442 Y57.6543
G01 X24.6479 Y57.6490
G01 X24.6529 Y57.6436
G01 X24.6640 Y57.6350
G01 X24.6707 Y57.6309
G01 X24.6992 Y57.6041
G01 X24.7117 Y57.5936
G01 X24.7326 Y57.5728
G01 X24.7782 Y57.5299
G01 X24.7826 Y57.5238
G01 X24.7933 Y57.5119
G01 X25.0080 Y57.2973
G01 X25.0135 Y57.2926
G01 X25.0185 Y57.2893
G01 X25.0780 Y57.2553
G01 X25.0825 Y57.2532
G01 X25.0873 Y57.2517
G01 X25.0922 Y57.2506
G01 X25.0984 Y57.2499
G01 X25.1778 Y57.2524
G01 X25.1848 Y57.2538
G01 X25.1958 Y57.2573
G01 X25.4085 Y57.2898
G01 X25.6236 Y57.2872
G01 X25.8354 Y57.2495
G01 X26.0383 Y57.1777
G01 X26.2266 Y57.0737
G01 X26.3955 Y56.9403
G01 X26.5403 Y56.7812
G01 X26.6572 Y56.6005
G01 X26.7430 Y56.4032
G01 X26.7954 Y56.1945
G01 X26.8132 Y55.9786
G01 X26.8117 Y55.9173
G01 X26.7834 Y55.7026
G01 X26.7537 Y55.6048
G01 X26.7484 Y55.5813
G01 X26.7479 Y55.5765
G01 X26.7478 Y55.5705
G01 X26.7585 Y55.4942
G01 X26.7603 Y55.4869
G01 X26.7631 Y55.4800
G01 X26.7663 Y55.4747
G01 X26.7692 Y55.4707
G01 X26.8165 Y55.4161
G01 X26.8218 Y55.4108
G01 X26.8278 Y55.4064
G01 X26.8333 Y55.4035
G01 X26.8402 Y55.4009
G01 X26.9095 Y55.3805
G01 X26.9153 Y55.3793
G01 X26.9212 Y55.3789
G01 X27.8794 Y55.3789
G01 X27.8887 Y55.3802
G01 X27.9473 Y55.3944
G01 X27.9518 Y55.3961
G01 X27.9580 Y55.3993
G01 X27.9644 Y55.4018
G01 X27.9869 Y55.4124
G01 X27.9917 Y55.4151
G01 X28.0486 Y55.4319
G01 X28.0970 Y55.4493
G01 X28.1024 Y55.4500
G01 X28.1269 Y55.4546
G01 X28.1333 Y55.4562
G01 X28.1847 Y55.4579
G01 X28.2438 Y55.4632
G01 X28.2492 Y55.4625
G01 X28.2740 Y55.4609
G01 X28.2806 Y55.4609
G01 X28.3386 Y55.4482
G01 X28.3894 Y55.4401
G01 X28.3944 Y55.4381
G01 X28.4181 Y55.4304
G01 X28.4245 Y55.4287
G01 X28.4704 Y55.4054
G01 X28.5247 Y55.3816
G01 X28.5291 Y55.3783
G01 X28.5501 Y55.3650
G01 X28.5559 Y55.3618
G01 X28.5933 Y55.3288
G01 X28.6119 Y55.3139
G01 X28.6291 Y55.2973
G01 X28.6665 Y55.2643
G01 X28.6704 Y55.2589
G01 X28.6887 Y55.2372
G01 X32.2373 Y51.6885
G01 X32.2487 Y51.6781
G01 X32.2788 Y51.6532
G01 X32.2894 Y51.6388
G01 X32.3031 Y51.6228
G01 X32.3148 Y51.6111
G01 X32.3347 Y51.5774
G01 X32.3418 Y51.5665
G01 X32.3654 Y51.5339
G01 X32.3722 Y51.5174
G01 X32.3814 Y51.4984
G01 X32.3898 Y51.4842
G01 X32.4011 Y51.4455
G01 X32.4053 Y51.4332
G01 X32.4197 Y51.3968
G01 X32.4221 Y51.3791
G01 X32.4264 Y51.3585
G01 X32.4309 Y51.3426
G01 X32.4322 Y51.3035
G01 X32.4336 Y51.2873
G01 X32.4336 Y51.2578
G01 X32.4356 Y51.1952
G01 X32.4343 Y51.1878
G01 X32.4336 Y51.1718
G01 X32.4336 Y28.6079
G01 X32.4338 Y28.6031
G01 X32.4347 Y28.5971
G01 X32.4496 Y28.5371
G01 X32.4518 Y28.5303
G01 X32.4544 Y28.5249
G01 X32.4576 Y28.5198
G01 X32.4614 Y28.5152
G01 X32.5126 Y28.4625
G01 X32.5163 Y28.4592
G01 X32.5214 Y28.4556
G01 X32.5269 Y28.4527
G01 X32.5327 Y28.4505
G01 X32.6054 Y28.4334
G01 X32.6115 Y28.4324
G01 X32.6215 Y28.4324
G01 X32.6312 Y28.4343
G01 X32.7004 Y28.4589
G01 X32.7069 Y28.4618
G01 X32.7120 Y28.4649
G01 X32.7308 Y28.4786
G01 X32.7478 Y28.4931
G01 X32.7596 Y28.5048
G01 X32.7942 Y28.5253
G01 X32.8051 Y28.5325
G01 X32.8367 Y28.5554
G01 X32.8533 Y28.5622
G01 X32.8722 Y28.5714
G01 X32.8865 Y28.5798
G01 X32.9251 Y28.5911
G01 X32.9375 Y28.5953
G01 X32.9738 Y28.6097
G01 X32.9915 Y28.6121
G01 X33.0121 Y28.6164
G01 X33.0280 Y28.6209
G01 X33.0671 Y28.6222
G01 X33.0833 Y28.6236
G01 X33.1128 Y28.6236
G01 X33.1754 Y28.6256
G01 X33.1828 Y28.6243
G01 X33.1988 Y28.6236
G01 X36.8031 Y28.6236
G01 X36.8081 Y28.6238
G01 X36.8142 Y28.6248
G01 X36.8792 Y28.6414
G01 X36.8837 Y28.6432
G01 X36.8891 Y28.6460
G01 X36.8941 Y28.6494
G01 X36.8978 Y28.6526
G01 X36.9498 Y28.7045
G01 X36.9545 Y28.7102
G01 X36.9578 Y28.7155
G01 X36.9603 Y28.7211
G01 X36.9622 Y28.7271
G01 X36.9781 Y28.8001
G01 X36.9788 Y28.8062
G01 X36.9787 Y28.8124
G01 X36.9778 Y28.8186
G01 X36.9761 Y28.8246
G01 X36.9501 Y28.8946
G01 X36.9473 Y28.9001
G01 X36.9446 Y28.9043
G01 X36.9380 Y28.9117
G01 X36.8774 Y28.9575
G01 X36.8703 Y28.9619
G01 X36.8649 Y28.9644
G01 X36.7643 Y29.0020
G01 X36.7550 Y29.0072
G01 X36.6586 Y29.0794
G01 X36.6511 Y29.0869
G01 X36.5789 Y29.1833
G01 X36.5738 Y29.1926
G01 X36.5310 Y29.3068
G01 X36.5288 Y29.3160
G01 X36.5237 Y29.3624
G01 X36.5235 Y29.6858
G01 X36.9315 Y29.6858
G01 X36.9315 Y29.4098
G01 X36.9319 Y29.4037
G01 X36.9333 Y29.3965
G01 X36.9363 Y29.3884
G01 X36.9406 Y29.3810
G01 X36.9453 Y29.3753
G01 X36.9508 Y29.3704
G01 X36.9579 Y29.3657
G01 X36.9658 Y29.3623
G01 X36.9742 Y29.3603
G01 X36.9815 Y29.3598
G01 X38.8015 Y29.3598
G01 X38.8113 Y29.3608
G01 X38.8195 Y29.3632
G01 X38.8272 Y29.3669
G01 X38.8342 Y29.3719
G01 X38.8402 Y29.3781
G01 X38.8456 Y29.3862
G01 X38.8490 Y29.3941
G01 X38.8510 Y29.4025
G01 X38.8515 Y29.4098
G01 X38.8515 Y29.6858
G01 X39.2595 Y29.6858
G01 X39.2593 Y29.3624
G01 X39.2543 Y29.3160
G01 X39.2521 Y29.3068
G01 X39.2093 Y29.1926
G01 X39.2042 Y29.1833
G01 X39.1319 Y29.0869
G01 X39.1244 Y29.0794
G01 X39.0280 Y29.0072
G01 X39.0187 Y29.0020
G01 X38.9136 Y28.9624
G01 X38.9071 Y28.9586
G01 X38.8561 Y28.9231
G01 X38.8514 Y28.9193
G01 X38.8448 Y28.9122
G01 X38.8397 Y28.9039
G01 X38.8097 Y28.8383
G01 X38.8068 Y28.8301
G01 X38.8053 Y28.8215
G01 X38.8054 Y28.8128
G01 X38.8160 Y28.7389
G01 X38.8178 Y28.7316
G01 X38.8201 Y28.7259
G01 X38.8231 Y28.7204
G01 X38.8267 Y28.7154
G01 X38.8748 Y28.6599
G01 X38.8793 Y28.6556
G01 X38.8853 Y28.6512
G01 X38.8919 Y28.6477
G01 X38.8977 Y28.6456
G01 X38.9670 Y28.6253
G01 X38.9763 Y28.6237
G01 X39.8783 Y28.6236
G01 X39.8890 Y28.6239
G01 X39.8964 Y28.6247
G01 X39.9036 Y28.6266
G01 X39.9724 Y28.6523
G01 X39.9812 Y28.6569
G01 X39.9889 Y28.6631
G01 X39.9938 Y28.6687
G01 X40.0371 Y28.7266
G01 X40.0409 Y28.7329
G01 X40.0434 Y28.7386
G01 X40.0454 Y28.7458
G01 X40.0462 Y28.7520
G01 X40.0513 Y28.8228
G01 X40.0510 Y28.8327
G01 X40.0491 Y28.8412
G01 X40.0458 Y28.8492
G01 X40.0094 Y28.9157
G01 X40.0059 Y28.9205
G01 X40.0018 Y28.9249
G01 X39.9295 Y29.0213
G01 X39.9244 Y29.0307
G01 X39.8816 Y29.1448
G01 X39.8794 Y29.1540
G01 X39.8742 Y29.2045
G01 X39.8742 Y29.5238
G01 X40.2822 Y29.5238
G01 X40.2822 Y29.2478
G01 X40.2826 Y29.2417
G01 X40.2840 Y29.2345
G01 X40.2870 Y29.2265
G01 X40.2913 Y29.2190
G01 X40.2968 Y29.2125
G01 X40.3034 Y29.2069
G01 X40.3097 Y29.2032
G01 X40.3177 Y29.2000
G01 X40.3248 Y29.1984
G01 X40.3322 Y29.1978
G01 X42.1522 Y29.1978
G01 X42.1607 Y29.1986
G01 X42.1690 Y29.2008
G01 X42.1779 Y29.2049
G01 X42.1848 Y29.2100
G01 X42.1916 Y29.2171
G01 X42.1963 Y29.2243
G01 X42.1997 Y29.2321
G01 X42.2016 Y29.2405
G01 X42.2022 Y29.2478
G01 X42.2022 Y29.5238
G01 X42.6102 Y29.5238
G01 X42.6102 Y29.2045
G01 X42.6049 Y29.1540
G01 X42.6027 Y29.1448
G01 X42.5599 Y29.0307
G01 X42.5548 Y29.0213
G01 X42.4826 Y28.9249
G01 X42.4726 Y28.9143
G01 X42.4683 Y28.9083
G01 X42.4654 Y28.9028
G01 X42.4349 Y28.8360
G01 X42.4322 Y28.8264
G01 X42.4314 Y28.8178
G01 X42.4319 Y28.8104
G01 X42.4422 Y28.7389
G01 X42.4436 Y28.7328
G01 X42.4458 Y28.7270
G01 X42.4486 Y28.7215
G01 X42.4529 Y28.7154
G01 X42.5002 Y28.6608
G01 X42.5045 Y28.6564
G01 X42.5094 Y28.6525
G01 X42.5147 Y28.6493
G01 X42.5204 Y28.6468
G01 X42.5920 Y28.6256
G01 X42.5966 Y28.6245
G01 X42.6025 Y28.6237
G01 X52.2456 Y28.6236
G01 X52.2514 Y28.6239
G01 X52.2572 Y28.6249
G01 X52.3206 Y28.6417
G01 X52.3276 Y28.6441
G01 X52.3331 Y28.6469
G01 X52.3383 Y28.6503
G01 X52.3429 Y28.6544
G01 X52.3964 Y28.7101
G01 X52.3999 Y28.7152
G01 X52.4023 Y28.7195
G01 X52.4046 Y28.7253
G01 X52.4062 Y28.7313
G01 X52.4205 Y28.8034
G01 X52.4210 Y28.8133
G01 X52.4195 Y28.8231
G01 X52.4176 Y28.8290
G01 X52.3905 Y28.8973
G01 X52.3875 Y28.9025
G01 X52.3843 Y28.9067
G01 X52.3646 Y28.9400
G01 X52.3568 Y28.9520
G01 X52.3332 Y28.9846
G01 X52.3265 Y29.0011
G01 X52.3172 Y29.0200
G01 X52.3088 Y29.0343
G01 X52.2976 Y29.0729
G01 X52.2933 Y29.0853
G01 X52.2789 Y29.1216
G01 X52.2768 Y29.1380
G01 X52.2725 Y29.1587
G01 X52.2677 Y29.1759
G01 X52.2665 Y29.2149
G01 X52.2651 Y29.2312
G01 X52.2650 Y29.2607
G01 X52.2641 Y29.2913
G01 X52.2609 Y29.3176
G01 X52.2598 Y29.3237
G01 X52.2579 Y29.3297
G01 X52.2558 Y29.3343
G01 X52.2212 Y29.3977
G01 X52.2180 Y29.4028
G01 X52.2135 Y29.4083
G01 X42.8928 Y38.7290
G01 X42.8814 Y38.7394
G01 X42.8513 Y38.7643
G01 X42.8407 Y38.7787
G01 X42.8270 Y38.7947
G01 X42.8153 Y38.8064
G01 X42.7954 Y38.8401
G01 X42.7883 Y38.8510
G01 X42.7647 Y38.8836
G01 X42.7579 Y38.9001
G01 X42.7487 Y38.9190
G01 X42.7403 Y38.9333
G01 X42.7290 Y38.9720
G01 X42.7248 Y38.9843
G01 X42.7104 Y39.0206
G01 X42.7082 Y39.0371
G01 X42.7040 Y39.0577
G01 X42.6992 Y39.0749
G01 X42.6979 Y39.1140
G01 X42.6965 Y39.1302
G01 X42.6965 Y39.1597
G01 X42.6945 Y39.2223
G01 X42.6958 Y39.2297
G01 X42.6965 Y39.2457
G01 X42.6965 Y43.2442
G01 X42.6959 Y43.2596
G01 X42.6922 Y43.2985
G01 X42.6948 Y43.3162
G01 X42.6965 Y43.3372
G01 X42.6965 Y43.3538
G01 X42.7065 Y43.3928
G01 X42.7091 Y43.4055
G01 X42.7153 Y43.4441
G01 X42.7218 Y43.4594
G01 X42.7286 Y43.4793
G01 X42.7332 Y43.4966
G01 X42.7526 Y43.5319
G01 X42.7583 Y43.5436
G01 X42.7738 Y43.5794
G01 X42.7839 Y43.5926
G01 X42.7955 Y43.6102
G01 X42.8042 Y43.6257
G01 X42.8310 Y43.6542
G01 X42.8415 Y43.6667
G01 X42.8623 Y43.6876
G01 X42.9052 Y43.7332
G01 X42.9113 Y43.7376
G01 X42.9232 Y43.7483
G01 X50.7671 Y51.5923
G01 X50.7775 Y51.6037
G01 X50.8024 Y51.6338
G01 X50.8168 Y51.6444
G01 X50.8328 Y51.6581
G01 X50.8446 Y51.6698
G01 X50.8792 Y51.6903
G01 X50.8901 Y51.6975
G01 X50.9217 Y51.7204
G01 X50.9383 Y51.7272
G01 X50.9572 Y51.7364
G01 X50.9715 Y51.7448
G01 X51.0101 Y51.7561
G01 X51.0235 Y51.7608
G01 X51.0588 Y51.7747
G01 X51.0765 Y51.7771
G01 X51.0971 Y51.7814
G01 X51.1130 Y51.7859
G01 X51.1521 Y51.7872
G01 X51.1683 Y51.7886
G01 X51.1979 Y51.7886
G01 X51.2604 Y51.7906
G01 X51.2678 Y51.7893
G01 X51.2838 Y51.7886
G01 X72.7592 Y51.7886
G01 X72.7746 Y51.7892
G01 X72.8135 Y51.7929
G01 X72.8312 Y51.7903
G01 X72.8522 Y51.7886
G01 X72.8688 Y51.7886
G01 X72.9078 Y51.7786
G01 X72.9205 Y51.7760
G01 X72.9591 Y51.7698
G01 X72.9744 Y51.7633
G01 X72.9943 Y51.7565
G01 X73.0116 Y51.7519
G01 X73.0469 Y51.7325
G01 X73.0586 Y51.7268
G01 X73.0944 Y51.7113
G01 X73.1076 Y51.7012
G01 X73.1252 Y51.6896
G01 X73.1407 Y51.6809
G01 X73.1692 Y51.6541
G01 X73.1817 Y51.6436
G01 X73.2026 Y51.6228
G01 X73.2482 Y51.5799
G01 X73.2526 Y51.5738
G01 X73.2633 Y51.5619
G01 X73.5071 Y51.3182
G01 X73.5140 Y51.3127
G01 X73.5626 Y51.2822
G01 X73.5679 Y51.2793
G01 X73.5736 Y51.2770
G01 X73.5807 Y51.2753
G01 X73.5867 Y51.2746
G01 X73.6576 Y51.2711
G01 X73.6659 Y51.2713
G01 X73.6718 Y51.2724
G01 X73.8912 Y51.3250
G01 X74.1200 Y51.3431
G01 X74.3499 Y51.3248
G01 X74.5721 Y51.2715
G01 X74.7842 Y51.1836
G01 X74.9800 Y51.0637
G01 X75.1546 Y50.9146
G01 X75.3037 Y50.7400
G01 X75.4236 Y50.5442
G01 X75.5115 Y50.3321
G01 X75.5579 Y50.1385
G01 X75.5650 Y50.1089
G01 X75.5831 Y49.8800
G01 X75.5650 Y49.6512
G01 X75.5115 Y49.4280
G01 X75.4241 Y49.2170
G01 X75.3037 Y49.0201
G01 X75.1546 Y48.8455
G01 X74.9796 Y48.6961
G01 X74.9751 Y48.6926
G01 X74.9512 Y48.6703
G01 X74.9466 Y48.6644
G01 X74.9435 Y48.6590
G01 X74.9121 Y48.5898
G01 X74.9103 Y48.5839
G01 X74.9094 Y48.5790
G01 X74.9091 Y48.5691
G01 X74.9196 Y48.4951
G01 X74.9212 Y48.4878
G01 X74.9234 Y48.4820
G01 X74.9262 Y48.4765
G01 X74.9305 Y48.4704
G01 X74.9786 Y48.4149
G01 X74.9840 Y48.4098
G01 X74.9901 Y48.4055
G01 X74.9945 Y48.4032
G01 X75.0003 Y48.4009
G01 X75.0696 Y48.3806
G01 X75.0754 Y48.3792
G01 X75.0825 Y48.3786
G01 X76.7486 Y48.3786
G01 X76.7807 Y48.3817
G01 X76.7891 Y48.3834
G01 X76.7982 Y48.3870
G01 X76.8616 Y48.4216
G01 X76.8676 Y48.4254
G01 X76.8722 Y48.4293
G01 X77.3852 Y48.9423
G01 X77.3956 Y48.9537
G01 X77.4205 Y48.9838
G01 X77.4349 Y48.9944
G01 X77.4509 Y49.0081
G01 X77.4627 Y49.0198
G01 X77.4963 Y49.0397
G01 X77.5072 Y49.0468
G01 X77.5398 Y49.0704
G01 X77.5564 Y49.0772
G01 X77.5753 Y49.0864
G01 X77.5896 Y49.0948
G01 X77.6282 Y49.1061
G01 X77.6405 Y49.1103
G01 X77.6769 Y49.1247
G01 X77.6946 Y49.1271
G01 X77.7152 Y49.1314
G01 X77.7311 Y49.1359
G01 X77.7702 Y49.1372
G01 X77.7864 Y49.1386
G01 X77.8159 Y49.1386
G01 X77.8785 Y49.1406
G01 X77.8859 Y49.1393
G01 X77.9019 Y49.1386
G01 X80.7657 Y49.1386
G01 X80.7719 Y49.1389
G01 X80.8042 Y49.1430
G01 X80.8090 Y49.1440
G01 X80.8147 Y49.1458
G01 X80.8223 Y49.1495
G01 X80.8845 Y49.1863
G01 X80.8904 Y49.1908
G01 X80.8957 Y49.1960
G01 X80.8995 Y49.2009
G01 X80.9020 Y49.2052
G01 X80.9349 Y49.2709
G01 X80.9382 Y49.2803
G01 X80.9396 Y49.2901
G01 X80.9394 Y49.2975
G01 X80.9318 Y49.3681
G01 X80.9308 Y49.3740
G01 X80.9287 Y49.3808
G01 X80.9103 Y49.4254
G01 X80.9084 Y49.4310
G01 X80.8562 Y49.6484
G01 X80.8553 Y49.6542
G01 X80.8378 Y49.8771
G01 X80.8378 Y49.8830
G01 X80.8553 Y50.1059
G01 X80.8562 Y50.1117
G01 X80.9084 Y50.3291
G01 X80.9103 Y50.3347
G01 X80.9958 Y50.5413
G01 X80.9985 Y50.5466
G01 X81.0764 Y50.6737
G01 X81.3744 Y50.3757
G01 X81.3291 Y50.2796
G01 X81.2953 Y50.1848
G01 X81.2702 Y50.0849
G01 X81.2549 Y49.9805
G01 X81.2501 Y49.8800
G01 X81.2551 Y49.7771
G01 X81.2702 Y49.6752
G01 X81.2946 Y49.5776
G01 X81.3300 Y49.4782
G01 X81.3752 Y49.3829
G01 X81.4270 Y49.2967
G01 X81.4876 Y49.2149
G01 X81.5594 Y49.1359
G01 X81.6339 Y49.0684
G01 X81.7147 Y49.0084
G01 X81.8051 Y48.9540
G01 X81.9005 Y48.9091
G01 X81.9953 Y48.8753
G01 X82.0928 Y48.8508
G01 X82.1971 Y48.8351
G01 X82.3000 Y48.8301
G01 X82.4005 Y48.8349
G01 X82.5061 Y48.8505
G01 X82.6072 Y48.8760
G01 X82.7019 Y48.9100
G01 X82.7928 Y48.9529
G01 X82.8834 Y49.0070
G01 X82.9662 Y49.0684
G01 X83.0425 Y49.1376
G01 X83.1132 Y49.2159
G01 X83.1731 Y49.2967
G01 X83.2249 Y49.3829
G01 X83.2691 Y49.4760
G01 X83.3048 Y49.5753
G01 X83.3299 Y49.6752
G01 X83.3450 Y49.7771
G01 X83.3500 Y49.8825
G01 X83.3447 Y49.9854
G01 X83.3299 Y50.0849
G01 X83.3055 Y50.1825
G01 X83.2701 Y50.2819
G01 X83.2257 Y50.3757
G01 X83.5520 Y50.7020
G01 X83.5543 Y50.7031
G01 X83.5850 Y50.7053
G01 X83.5909 Y50.7066
G01 X83.5978 Y50.7092
G01 X83.6042 Y50.7128
G01 X83.6666 Y50.7536
G01 X83.6711 Y50.7575
G01 X83.6744 Y50.7610
G01 X83.8055 Y50.9146
G01 X83.9801 Y51.0637
G01 X84.1759 Y51.1836
G01 X84.3880 Y51.2715
G01 X84.6112 Y51.3250
G01 X84.8400 Y51.3431
G01 X85.0699 Y51.3248
G01 X85.2921 Y51.2715
G01 X85.5042 Y51.1836
G01 X85.7000 Y51.0637
G01 X85.8746 Y50.9146
G01 X86.0237 Y50.7400
G01 X86.1436 Y50.5442
G01 X86.2315 Y50.3321
G01 X86.2850 Y50.1089
G01 X86.3031 Y49.8800
G01 X86.2850 Y49.6512
G01 X86.2315 Y49.4280
G01 X86.1436 Y49.2159
G01 X86.0237 Y49.0201
G01 X85.8746 Y48.8455
G01 X85.7000 Y48.6964
G01 X85.5042 Y48.5765
G01 X85.2921 Y48.4886
G01 X85.0689 Y48.4351
G01 X84.8400 Y48.4170
G01 X84.6112 Y48.4351
G01 X84.3869 Y48.4887
G01 X84.3806 Y48.4891
G01 X84.3220 Y48.4897
G01 X84.3124 Y48.4884
G01 X84.3032 Y48.4852
G01 X84.2366 Y48.4490
G01 X84.2326 Y48.4464
G01 X84.2280 Y48.4427
G01 X83.9574 Y48.1722
G01 X83.9541 Y48.1683
G01 X83.9505 Y48.1630
G01 X83.9149 Y48.0983
G01 X83.9126 Y48.0926
G01 X83.9109 Y48.0866
G01 X83.9100 Y48.0805
G01 X83.9099 Y48.0744
G01 X83.9146 Y48.0010
G01 X83.9158 Y47.9937
G01 X83.9186 Y47.9855
G01 X83.9234 Y47.9768
G01 X83.9671 Y47.9177
G01 X83.9739 Y47.9105
G01 X83.9820 Y47.9048
G01 X83.9887 Y47.9016
G01 X84.0551 Y47.8764
G01 X84.0631 Y47.8740
G01 X84.0690 Y47.8732
G01 X84.2215 Y47.8612
G01 X84.4957 Y47.8014
G01 X84.7593 Y47.7050
G01 X85.0073 Y47.5736
G01 X85.2353 Y47.4099
G01 X85.4388 Y47.2167
G01 X85.6143 Y46.9976
G01 X85.7585 Y46.7568
G01 X85.8686 Y46.4986
G01 X85.9427 Y46.2279
G01 X85.9793 Y45.9496
G01 X85.9778 Y45.6689
G01 X85.9383 Y45.3911
G01 X85.8614 Y45.1211
G01 X85.7969 Y44.9741
G01 X85.7951 Y44.9691
G01 X85.7850 Y44.9335
G01 X85.7840 Y44.9249
G01 X85.7842 Y44.9176
G01 X85.7943 Y44.8448
G01 X85.7969 Y44.8352
G01 X85.8013 Y44.8263
G01 X85.8057 Y44.8203
G01 X85.8527 Y44.7655
G01 X85.8572 Y44.7612
G01 X85.8621 Y44.7574
G01 X85.8686 Y44.7537
G01 X85.8744 Y44.7514
G01 X85.9458 Y44.7301
G01 X85.9517 Y44.7290
G01 X85.9576 Y44.7286
G01 X86.1038 Y44.7279
G01 X86.3682 Y44.6902
G01 X86.6250 Y44.6171
G01 X86.8695 Y44.5097
G01 X87.0972 Y44.3702
G01 X87.3039 Y44.2011
G01 X87.4856 Y44.0055
G01 X87.6312 Y43.7984
G01 X87.6392 Y43.7870
G01 X87.7617 Y43.5497
G01 X87.8508 Y43.2980
G01 X87.9050 Y43.0365
G01 X87.9232 Y42.7686
G01 X87.9228 Y42.7304
G01 X87.8990 Y42.4630
G01 X87.8393 Y42.2027
G01 X87.7450 Y41.9529
G01 X87.6175 Y41.7182
G01 X87.4594 Y41.5030
G01 X87.2901 Y41.3282
G01 X87.2736 Y41.3112
G01 X87.0635 Y41.1464
G01 X86.8329 Y41.0117
G01 X86.5870 Y40.9098
G01 X86.3279 Y40.8417
G01 X86.0628 Y40.8097
G01 X85.7958 Y40.8139
G01 X85.5318 Y40.8542
G01 X85.2758 Y40.9301
G01 X85.0316 Y41.0405
G01 X84.8062 Y41.1819
G01 X84.6013 Y41.3532
G01 X84.4216 Y41.5507
G01 X84.2703 Y41.7708
G01 X84.1504 Y42.0093
G01 X84.0639 Y42.2620
G01 X84.0125 Y42.5240
G01 X83.9971 Y42.7906
G01 X84.0180 Y43.0568
G01 X84.0749 Y43.3177
G01 X84.1512 Y43.5263
G01 X84.1595 Y43.5590
G01 X84.1602 Y43.5662
G01 X84.1599 Y43.5735
G01 X84.1494 Y43.6462
G01 X84.1484 Y43.6511
G01 X84.1464 Y43.6570
G01 X84.1436 Y43.6625
G01 X84.1410 Y43.6667
G01 X84.0906 Y43.7252
G01 X84.0861 Y43.7295
G01 X84.0812 Y43.7333
G01 X84.0747 Y43.7369
G01 X84.0689 Y43.7392
G01 X83.9961 Y43.7604
G01 X83.9914 Y43.7612
G01 X83.9855 Y43.7615
G01 X83.8388 Y43.7615
G01 X83.6186 Y43.7789
G01 X83.3444 Y43.8387
G01 X83.0808 Y43.9351
G01 X82.8328 Y44.0665
G01 X82.6048 Y44.2302
G01 X82.4013 Y44.4234
G01 X82.2258 Y44.6425
G01 X82.0816 Y44.8833
G01 X81.9715 Y45.1415
G01 X81.8974 Y45.4122
G01 X81.8608 Y45.6914
G01 X81.8623 Y45.9712
G01 X81.9018 Y46.2490
G01 X81.9787 Y46.5190
G01 X82.0915 Y46.7760
G01 X82.2382 Y47.0153
G01 X82.4160 Y47.2325
G01 X82.6216 Y47.4235
G01 X82.8512 Y47.5849
G01 X82.9563 Y47.6392
G01 X82.9614 Y47.6422
G01 X83.0036 Y47.6753
G01 X83.0097 Y47.6816
G01 X83.0145 Y47.6889
G01 X83.0462 Y47.7580
G01 X83.0486 Y47.7650
G01 X83.0500 Y47.7724
G01 X83.0502 Y47.7785
G01 X83.0499 Y47.7835
G01 X83.0396 Y47.8550
G01 X83.0380 Y47.8623
G01 X83.0354 Y47.8692
G01 X83.0324 Y47.8747
G01 X83.0287 Y47.8797
G01 X82.9814 Y47.9343
G01 X82.9771 Y47.9387
G01 X82.9712 Y47.9433
G01 X82.9647 Y47.9469
G01 X82.9577 Y47.9495
G01 X82.8885 Y47.9698
G01 X82.8838 Y47.9709
G01 X82.8779 Y47.9715
G01 X78.1337 Y47.9714
G01 X78.1032 Y47.9681
G01 X78.0972 Y47.9667
G01 X78.0914 Y47.9647
G01 X78.0237 Y47.9279
G01 X78.0197 Y47.9254
G01 X78.0150 Y47.9216
G01 X77.5011 Y47.4078
G01 X77.4907 Y47.3964
G01 X77.4658 Y47.3663
G01 X77.4514 Y47.3557
G01 X77.4354 Y47.3420
G01 X77.4236 Y47.3303
G01 X77.3900 Y47.3104
G01 X77.3791 Y47.3033
G01 X77.3465 Y47.2797
G01 X77.3299 Y47.2729
G01 X77.3110 Y47.2637
G01 X77.2967 Y47.2553
G01 X77.2581 Y47.2440
G01 X77.2458 Y47.2398
G01 X77.2094 Y47.2254
G01 X77.1930 Y47.2232
G01 X77.1724 Y47.2190
G01 X77.1552 Y47.2142
G01 X77.1161 Y47.2129
G01 X77.0999 Y47.2116
G01 X77.0704 Y47.2115
G01 X77.0078 Y47.2095
G01 X77.0004 Y47.2108
G01 X76.9844 Y47.2116
G01 X74.3667 Y47.2116
G01 X74.3581 Y47.2108
G01 X74.3070 Y47.2005
G01 X74.3001 Y47.1984
G01 X74.2925 Y47.1947
G01 X74.2866 Y47.1906
G01 X74.2305 Y47.1450
G01 X74.2252 Y47.1398
G01 X74.2201 Y47.1328
G01 X74.2159 Y47.1238
G01 X74.1926 Y47.0528
G01 X74.1913 Y47.0467
G01 X74.1909 Y47.0418
G01 X74.1910 Y47.0356
G01 X74.1918 Y47.0294
G01 X74.2102 Y46.9583
G01 X74.2135 Y46.9494
G01 X74.3285 Y46.7568
G01 X74.4386 Y46.4986
G01 X74.5127 Y46.2279
G01 X74.5493 Y45.9496
G01 X74.5478 Y45.6689
G01 X74.5083 Y45.3911
G01 X74.4314 Y45.1211
G01 X74.3186 Y44.8641
G01 X74.1719 Y44.6248
G01 X73.9941 Y44.4076
G01 X73.7885 Y44.2166
G01 X73.5589 Y44.0552
G01 X73.3095 Y43.9264
G01 X73.0449 Y43.8327
G01 X72.7701 Y43.7758
G01 X72.5606 Y43.7615
G01 X72.4344 Y43.7615
G01 X72.4025 Y43.7584
G01 X72.3955 Y43.7566
G01 X72.3888 Y43.7539
G01 X72.3249 Y43.7204
G01 X72.3175 Y43.7157
G01 X72.3103 Y43.7089
G01 X72.3046 Y43.7008
G01 X72.2695 Y43.6391
G01 X72.2664 Y43.6323
G01 X72.2645 Y43.6264
G01 X72.2632 Y43.6191
G01 X72.2630 Y43.6129
G01 X72.2673 Y43.5372
G01 X72.2681 Y43.5325
G01 X72.2698 Y43.5268
G01 X72.3508 Y43.2980
G01 X72.4050 Y43.0365
G01 X72.4232 Y42.7686
G01 X72.4228 Y42.7304
G01 X72.3990 Y42.4630
G01 X72.3393 Y42.2027
G01 X72.2450 Y41.9529
G01 X72.1175 Y41.7182
G01 X71.9594 Y41.5030
G01 X71.7736 Y41.3112
G01 X71.5635 Y41.1464
G01 X71.3329 Y41.0117
G01 X71.0870 Y40.9098
G01 X70.8279 Y40.8417
G01 X70.5628 Y40.8097
G01 X70.2958 Y40.8139
G01 X70.0318 Y40.8542
G01 X69.7758 Y40.9301
G01 X69.5316 Y41.0405
G01 X69.3062 Y41.1819
G01 X69.1013 Y41.3532
G01 X68.9216 Y41.5507
G01 X68.7703 Y41.7708
G01 X68.6504 Y42.0093
G01 X68.5639 Y42.2620
G01 X68.5125 Y42.5240
G01 X68.4971 Y42.7906
G01 X68.5180 Y43.0568
G01 X68.5749 Y43.3177
G01 X68.6667 Y43.5685
G01 X68.7916 Y43.8045
G01 X68.9475 Y44.0214
G01 X69.1313 Y44.2151
G01 X69.3397 Y44.3820
G01 X69.5688 Y44.5192
G01 X69.8145 Y44.6239
G01 X70.0720 Y44.6944
G01 X70.3368 Y44.7293
G01 X70.4529 Y44.7287
G01 X70.4912 Y44.7335
G01 X70.4996 Y44.7355
G01 X70.5085 Y44.7395
G01 X70.5703 Y44.7770
G01 X70.5763 Y44.7814
G01 X70.5808 Y44.7856
G01 X70.5848 Y44.7904
G01 X70.5887 Y44.7967
G01 X70.6204 Y44.8617
G01 X70.6227 Y44.8674
G01 X70.6244 Y44.8734
G01 X70.6252 Y44.8795
G01 X70.6254 Y44.8857
G01 X70.6167 Y44.9600
G01 X70.6154 Y44.9670
G01 X70.6131 Y44.9737
G01 X70.5415 Y45.1415
G01 X70.4674 Y45.4122
G01 X70.4308 Y45.6905
G01 X70.4323 Y45.9712
G01 X70.4718 Y46.2490
G01 X70.5487 Y46.5190
G01 X70.6615 Y46.7760
G01 X70.7655 Y46.9458
G01 X70.7687 Y46.9527
G01 X70.7859 Y47.0006
G01 X70.7874 Y47.0053
G01 X70.7885 Y47.0113
G01 X70.7889 Y47.0174
G01 X70.7886 Y47.0235
G01 X70.7779 Y47.0975
G01 X70.7763 Y47.1035
G01 X70.7740 Y47.1092
G01 X70.7704 Y47.1157
G01 X70.7666 Y47.1206
G01 X70.7193 Y47.1752
G01 X70.7148 Y47.1795
G01 X70.7088 Y47.1839
G01 X70.7034 Y47.1869
G01 X70.6964 Y47.1895
G01 X70.6271 Y47.2098
G01 X70.6178 Y47.2114
G01 X49.9938 Y47.2116
G01 X49.9884 Y47.2113
G01 X49.9580 Y47.2079
G01 X49.9509 Y47.2060
G01 X49.9430 Y47.2026
G01 X49.8797 Y47.1679
G01 X49.8747 Y47.1647
G01 X49.8693 Y47.1600
G01 X45.2195 Y42.5102
G01 X45.1982 Y42.4842
G01 X45.1936 Y42.4770
G01 X45.1903 Y42.4691
G01 X45.1696 Y42.3986
G01 X45.1683 Y42.3916
G01 X45.1679 Y42.3857
G01 X45.1679 Y39.0194
G01 X45.1712 Y38.9860
G01 X45.1724 Y38.9800
G01 X45.1743 Y38.9742
G01 X45.1769 Y38.9686
G01 X45.2110 Y38.9063
G01 X45.2155 Y38.8994
G01 X45.2195 Y38.8949
G01 X57.7311 Y26.3835
G01 X57.7551 Y26.3643
G01 X57.7602 Y26.3610
G01 X57.7658 Y26.3583
G01 X57.8397 Y26.3364
G01 X57.8443 Y26.3354
G01 X57.8502 Y26.3347
G01 X59.0167 Y26.3347
G01 X59.0250 Y26.3356
G01 X59.0797 Y26.3475
G01 X59.0857 Y26.3494
G01 X59.0914 Y26.3519
G01 X59.0957 Y26.3545
G01 X59.1006 Y26.3583
G01 X59.1543 Y26.4048
G01 X59.1595 Y26.4101
G01 X59.1652 Y26.4182
G01 X59.1692 Y26.4273
G01 X59.1898 Y26.4978
G01 X59.1910 Y26.5036
G01 X59.1915 Y26.5095
G01 X59.1915 Y27.8362
G01 X59.2053 Y27.9405
G01 X59.2396 Y28.0234
G01 X59.2413 Y28.0282
G01 X59.2426 Y28.0331
G01 X59.2501 Y28.1143
G01 X59.2497 Y28.1241
G01 X59.2479 Y28.1325
G01 X59.2441 Y28.1415
G01 X59.2100 Y28.2038
G01 X59.2069 Y28.2089
G01 X59.2023 Y28.2144
G01 X58.7246 Y28.6921
G01 X58.6987 Y28.7131
G01 X58.6946 Y28.7158
G01 X58.6891 Y28.7186
G01 X58.6833 Y28.7207
G01 X58.6152 Y28.7407
G01 X58.6071 Y28.7423
G01 X58.6011 Y28.7427
G01 X58.5674 Y28.7427
G01 X58.5589 Y28.7420
G01 X58.5064 Y28.7315
G01 X58.4975 Y28.7281
G01 X58.4893 Y28.7231
G01 X58.4329 Y28.6780
G01 X58.4277 Y28.6732
G01 X58.4232 Y28.6676
G01 X58.3609 Y28.5787
G01 X58.2176 Y28.4353
G01 X58.0515 Y28.3191
G01 X57.8678 Y28.2334
G01 X57.6720 Y28.1809
G01 X57.4700 Y28.1633
G01 X57.2670 Y28.1812
G01 X57.0723 Y28.2334
G01 X56.8886 Y28.3191
G01 X56.7225 Y28.4353
G01 X56.5792 Y28.5787
G01 X56.4629 Y28.7447
G01 X56.3777 Y28.9275
G01 X56.3248 Y29.1243
G01 X56.3071 Y29.3262
G01 X56.3248 Y29.5281
G01 X56.3773 Y29.7239
G01 X56.4629 Y29.9077
G01 X56.5792 Y30.0737
G01 X56.7225 Y30.2170
G01 X56.8886 Y30.3333
G01 X57.0734 Y30.4193
G01 X57.2681 Y30.4714
G01 X57.4700 Y30.4891
G01 X57.6720 Y30.4714
G01 X57.8678 Y30.4190
G01 X58.0515 Y30.3333
G01 X58.2176 Y30.2170
G01 X58.3609 Y30.0737
G01 X58.4262 Y29.9809
G01 X58.4664 Y29.9420
G01 X58.4721 Y29.9377
G01 X58.4795 Y29.9338
G01 X58.4852 Y29.9317
G01 X58.5533 Y29.9117
G01 X58.5591 Y29.9104
G01 X58.5650 Y29.9097
G01 X58.8799 Y29.9097
G01 X58.8953 Y29.9104
G01 X58.9342 Y29.9140
G01 X58.9519 Y29.9114
G01 X58.9729 Y29.9098
G01 X58.9894 Y29.9097
G01 X59.0285 Y29.8997
G01 X59.0412 Y29.8971
G01 X59.0798 Y29.8910
G01 X59.0950 Y29.8845
G01 X59.1150 Y29.8776
G01 X59.1322 Y29.8730
G01 X59.1676 Y29.8537
G01 X59.1793 Y29.8480
G01 X59.2151 Y29.8324
G01 X59.2282 Y29.8223
G01 X59.2458 Y29.8107
G01 X59.2614 Y29.8020
G01 X59.2899 Y29.7753
G01 X59.3024 Y29.7647
G01 X59.3233 Y29.7439
G01 X59.3689 Y29.7011
G01 X59.3733 Y29.6949
G01 X59.3840 Y29.6831
G01 X60.6809 Y28.3862
G01 X60.7058 Y28.3658
G01 X60.7130 Y28.3610
G01 X60.7219 Y28.3571
G01 X60.7924 Y28.3364
G01 X60.8018 Y28.3348
G01 X60.9100 Y28.3347
G01 X61.0176 Y28.3205
G01 X61.0239 Y28.3201
G01 X61.0315 Y28.3207
G01 X61.1015 Y28.3312
G01 X61.1075 Y28.3326
G01 X61.1132 Y28.3347
G01 X61.1197 Y28.3382
G01 X61.1256 Y28.3426
G01 X61.1802 Y28.3899
G01 X61.1845 Y28.3944
G01 X61.1883 Y28.3994
G01 X61.1919 Y28.4059
G01 X61.1945 Y28.4128
G01 X61.2148 Y28.4821
G01 X61.2159 Y28.4867
G01 X61.2165 Y28.4926
G01 X61.2165 Y30.4467
G01 X61.2162 Y30.4526
G01 X61.2154 Y30.4573
G01 X61.2034 Y30.5121
G01 X61.2014 Y30.5180
G01 X61.1981 Y30.5247
G01 X61.1930 Y30.5318
G01 X61.1456 Y30.5864
G01 X61.1383 Y30.5930
G01 X61.1297 Y30.5980
G01 X61.1228 Y30.6007
G01 X61.0546 Y30.6207
G01 X61.0500 Y30.6218
G01 X61.0441 Y30.6226
G01 X60.6946 Y30.6227
G01 X60.6414 Y30.6285
G01 X60.5176 Y30.6749
G01 X60.4125 Y30.7536
G01 X60.3337 Y30.8587
G01 X60.2873 Y30.9825
G01 X60.2815 Y31.0358
G01 X60.2815 Y32.2866
G01 X60.2873 Y32.3399
G01 X60.3337 Y32.4636
G01 X60.4125 Y32.5687
G01 X60.5176 Y32.6475
G01 X60.6414 Y32.6939
G01 X60.6946 Y32.6997
G01 X62.6055 Y32.6997
G01 X62.6587 Y32.6939
G01 X62.7825 Y32.6475
G01 X62.8876 Y32.5687
G01 X62.9664 Y32.4636
G01 X63.0128 Y32.3399
G01 X63.0186 Y32.2866
G01 X63.0186 Y31.0358
G01 X63.0128 Y30.9825
G01 X62.9664 Y30.8587
G01 X62.8876 Y30.7536
G01 X62.7825 Y30.6749
G01 X62.6587 Y30.6285
G01 X62.6055 Y30.6227
G01 X62.5595 Y30.6227
G01 X62.5524 Y30.6222
G01 X62.4954 Y30.6099
G01 X62.4882 Y30.6076
G01 X62.4815 Y30.6042
G01 X62.4745 Y30.5991
G01 X62.4208 Y30.5526
G01 X62.4164 Y30.5483
G01 X62.4118 Y30.5424
G01 X62.4082 Y30.5359
G01 X62.4059 Y30.5301
G01 X62.3845 Y30.4562
G01 X62.3836 Y30.4467
G01 X62.3836 Y28.4938
G01 X62.3841 Y28.4874
G01 X62.3855 Y28.4812
G01 X62.4050 Y28.4132
G01 X62.4089 Y28.4042
G01 X62.4129 Y28.3980
G01 X62.4178 Y28.3925
G01 X62.4629 Y28.3523
G01 X62.1763 Y28.0657
G01 X62.1663 Y28.0548
G01 X62.1545 Y28.0391
G01 X62.1446 Y28.0222
G01 X62.1383 Y28.0089
G01 X62.1333 Y27.9950
G01 X62.1281 Y27.9748
G01 X62.1258 Y27.9590
G01 X62.1250 Y27.9431
G01 X62.1250 Y27.8760
G01 X62.1204 Y27.8696
G01 X62.1142 Y27.8590
G01 X62.1096 Y27.8490
G01 X62.1058 Y27.8386
G01 X62.1020 Y27.8232
G01 X62.1007 Y27.8134
G01 X62.1001 Y27.8012
G01 X62.1001 Y26.4762
G01 X62.1010 Y26.4615
G01 X62.1025 Y26.4518
G01 X62.1048 Y26.4423
G01 X62.1096 Y26.4284
G01 X62.1154 Y26.4162
G01 X62.1218 Y26.4057
G01 X62.1300 Y26.3950
G01 X62.1384 Y26.3861
G01 X62.1458 Y26.3796
G01 X62.1536 Y26.3737
G01 X62.1651 Y26.3665
G01 X62.1761 Y26.3612
G01 X62.1888 Y26.3566
G01 X62.1995 Y26.3538
G01 X62.2128 Y26.3518
G01 X62.2250 Y26.3512
G01 X62.3750 Y26.3512
G01 X62.3873 Y26.3518
G01 X62.3994 Y26.3536
G01 X62.4090 Y26.3559
G01 X62.4229 Y26.3607
G01 X62.4340 Y26.3660
G01 X62.4424 Y26.3709
G01 X62.4562 Y26.3812
G01 X62.4634 Y26.3878
G01 X62.4709 Y26.3960
G01 X62.4803 Y26.4088
G01 X62.4853 Y26.4173
G01 X62.4905 Y26.4284
G01 X62.4947 Y26.4399
G01 X62.4971 Y26.4494
G01 X62.4994 Y26.4639
G01 X62.5000 Y26.4762
G01 X62.5000 Y27.8024
G01 X62.4994 Y27.8134
G01 X62.4981 Y27.8232
G01 X62.4943 Y27.8386
G01 X62.4905 Y27.8490
G01 X62.4859 Y27.8590
G01 X62.4779 Y27.8722
G01 X62.7182 Y28.1124
G01 X63.6478 Y28.1124
G01 X63.6451 Y28.1076
G01 X63.6388 Y28.0943
G01 X63.6329 Y28.0782
G01 X63.6284 Y28.0603
G01 X63.6258 Y28.0434
G01 X63.6250 Y28.0262
G01 X63.6250 Y27.8760
G01 X63.6204 Y27.8696
G01 X63.6142 Y27.8590
G01 X63.6096 Y27.8490
G01 X63.6058 Y27.8386
G01 X63.6020 Y27.8232
G01 X63.6007 Y27.8134
G01 X63.6001 Y27.8024
G01 X63.6001 Y26.4762
G01 X63.6007 Y26.4639
G01 X63.6022 Y26.4530
G01 X63.6062 Y26.4376
G01 X63.6096 Y26.4284
G01 X63.6148 Y26.4173
G01 X63.6225 Y26.4047
G01 X63.6284 Y26.3969
G01 X63.6367 Y26.3878
G01 X63.6458 Y26.3796
G01 X63.6536 Y26.3737
G01 X63.6661 Y26.3660
G01 X63.6795 Y26.3598
G01 X63.6888 Y26.3566
G01 X63.7007 Y26.3536
G01 X63.7128 Y26.3518
G01 X63.7250 Y26.3512
G01 X63.8750 Y26.3512
G01 X63.8873 Y26.3518
G01 X63.8994 Y26.3536
G01 X63.9090 Y26.3559
G01 X63.9229 Y26.3607
G01 X63.9361 Y26.3672
G01 X63.9445 Y26.3723
G01 X63.9543 Y26.3796
G01 X63.9634 Y26.3878
G01 X63.9717 Y26.3969
G01 X63.9790 Y26.4067
G01 X63.9864 Y26.4195
G01 X63.9914 Y26.4306
G01 X63.9947 Y26.4399
G01 X63.9971 Y26.4494
G01 X63.9993 Y26.4627
G01 X64.0000 Y26.4750
G01 X64.0000 Y27.8024
G01 X63.9994 Y27.8134
G01 X63.9981 Y27.8232
G01 X63.9943 Y27.8386
G01 X63.9905 Y27.8490
G01 X63.9859 Y27.8590
G01 X63.9797 Y27.8696
G01 X63.9751 Y27.8760
G01 X63.9751 Y27.9537
G01 X64.3561 Y28.3347
G01 X64.4100 Y28.3347
G01 X64.5245 Y28.3198
G01 X64.5319 Y28.3199
G01 X64.5386 Y28.3210
G01 X64.5597 Y28.3210
G01 X64.5671 Y28.3195
G01 X64.5757 Y28.3193
G01 X64.6104 Y28.3237
G01 X64.6132 Y28.3191
G01 X64.6208 Y28.3087
G01 X64.6208 Y27.9460
G01 X64.6217 Y27.9289
G01 X64.6240 Y27.9131
G01 X64.6250 Y27.9084
G01 X64.6250 Y27.8760
G01 X64.6204 Y27.8696
G01 X64.6142 Y27.8590
G01 X64.6096 Y27.8490
G01 X64.6058 Y27.8386
G01 X64.6020 Y27.8232
G01 X64.6007 Y27.8134
G01 X64.6001 Y27.8012
G01 X64.6001 Y26.4762
G01 X64.6010 Y26.4615
G01 X64.6025 Y26.4518
G01 X64.6051 Y26.4411
G01 X64.6100 Y26.4272
G01 X64.6148 Y26.4173
G01 X64.6198 Y26.4088
G01 X64.6284 Y26.3969
G01 X64.6384 Y26.3861
G01 X64.6458 Y26.3796
G01 X64.6536 Y26.3737
G01 X64.6661 Y26.3660
G01 X64.6795 Y26.3598
G01 X64.6888 Y26.3566
G01 X64.6995 Y26.3538
G01 X64.7128 Y26.3518
G01 X64.7250 Y26.3512
G01 X64.8750 Y26.3512
G01 X64.8849 Y26.3516
G01 X64.8994 Y26.3536
G01 X64.9113 Y26.3566
G01 X64.9229 Y26.3607
G01 X64.9340 Y26.3660
G01 X64.9465 Y26.3737
G01 X64.9543 Y26.3796
G01 X64.9617 Y26.3861
G01 X64.9717 Y26.3969
G01 X64.9803 Y26.4088
G01 X64.9853 Y26.4173
G01 X64.9895 Y26.4261
G01 X64.9947 Y26.4399
G01 X64.9981 Y26.4542
G01 X64.9994 Y26.4639
G01 X65.0000 Y26.4750
G01 X65.0000 Y27.8024
G01 X64.9994 Y27.8134
G01 X64.9981 Y27.8232
G01 X64.9943 Y27.8386
G01 X64.9905 Y27.8490
G01 X64.9859 Y27.8590
G01 X64.9797 Y27.8696
G01 X64.9751 Y27.8760
G01 X64.9751 Y27.9443
G01 X64.9741 Y27.9603
G01 X64.9720 Y27.9748
G01 X64.9709 Y27.9795
G01 X64.9709 Y28.2978
G01 X64.9875 Y28.3240
G01 X65.0244 Y28.3193
G01 X65.0330 Y28.3195
G01 X65.0404 Y28.3210
G01 X65.0615 Y28.3210
G01 X65.0682 Y28.3199
G01 X65.0744 Y28.3197
G01 X65.1901 Y28.3347
G01 X65.4100 Y28.3347
G01 X65.5143 Y28.3210
G01 X65.6441 Y28.2672
G01 X65.7555 Y28.1817
G01 X65.8411 Y28.0702
G01 X65.8948 Y27.9405
G01 X65.9086 Y27.8362
G01 X65.9086 Y26.5083
G01 X65.9097 Y26.5001
G01 X65.9211 Y26.4477
G01 X65.9228 Y26.4417
G01 X65.9252 Y26.4360
G01 X65.9277 Y26.4316
G01 X65.9313 Y26.4266
G01 X65.9795 Y26.3710
G01 X65.9839 Y26.3667
G01 X65.9889 Y26.3630
G01 X65.9943 Y26.3599
G01 X66.0000 Y26.3575
G01 X66.0716 Y26.3364
G01 X66.0774 Y26.3352
G01 X66.0834 Y26.3347
G01 X67.4100 Y26.3347
G01 X67.5143 Y26.3210
G01 X67.6441 Y26.2672
G01 X67.7555 Y26.1817
G01 X67.8411 Y26.0702
G01 X67.8948 Y25.9405
G01 X67.9086 Y25.8362
G01 X67.9086 Y25.6162
G01 X67.8940 Y25.5054
G01 X67.8935 Y25.4993
G01 X67.8939 Y25.4932
G01 X67.8951 Y25.4865
G01 X67.8951 Y25.4658
G01 X67.8937 Y25.4580
G01 X67.8937 Y25.4494
G01 X67.9086 Y25.3362
G01 X67.9086 Y25.1162
G01 X67.8940 Y25.0054
G01 X67.8935 Y24.9993
G01 X67.8939 Y24.9932
G01 X67.8951 Y24.9865
G01 X67.8951 Y24.9658
G01 X67.8937 Y24.9580
G01 X67.8937 Y24.9494
G01 X67.9086 Y24.8362
G01 X67.9086 Y24.6162
G01 X67.8936 Y24.5005
G01 X67.8937 Y24.4944
G01 X67.8948 Y24.4876
G01 X67.8948 Y24.4666
G01 X67.8934 Y24.4591
G01 X67.8931 Y24.4505
G01 X67.8976 Y24.4159
G01 X67.8963 Y24.4151
G01 X67.4263 Y24.4151
G01 X67.4125 Y24.4204
G01 X67.4006 Y24.4235
G01 X67.3873 Y24.4256
G01 X67.3750 Y24.4262
G01 X66.0500 Y24.4262
G01 X66.0378 Y24.4256
G01 X66.0269 Y24.4240
G01 X66.0114 Y24.4200
G01 X66.0022 Y24.4167
G01 X65.9922 Y24.4120
G01 X65.9796 Y24.4044
G01 X65.9708 Y24.3978
G01 X65.9634 Y24.3913
G01 X65.9534 Y24.3805
G01 X65.9448 Y24.3686
G01 X65.9398 Y24.3601
G01 X65.9350 Y24.3502
G01 X65.9301 Y24.3363
G01 X65.9275 Y24.3256
G01 X65.9260 Y24.3159
G01 X65.9251 Y24.3024
G01 X65.9251 Y24.1487
G01 X65.9260 Y24.1365
G01 X65.9275 Y24.1268
G01 X65.9298 Y24.1173
G01 X65.9341 Y24.1045
G01 X65.9392 Y24.0934
G01 X65.9468 Y24.0807
G01 X65.9534 Y24.0719
G01 X65.9600 Y24.0646
G01 X65.9708 Y24.0546
G01 X65.9827 Y24.0459
G01 X65.9911 Y24.0410
G01 X66.0000 Y24.0367
G01 X66.0138 Y24.0316
G01 X66.0281 Y24.0282
G01 X66.0378 Y24.0268
G01 X66.0488 Y24.0262
G01 X67.3763 Y24.0262
G01 X67.3873 Y24.0268
G01 X67.3994 Y24.0286
G01 X67.4113 Y24.0316
G01 X67.4240 Y24.0362
G01 X67.4340 Y24.0410
G01 X67.4455 Y24.0480
G01 X67.4553 Y24.0554
G01 X67.4655 Y24.0650
G01 X67.8563 Y24.0650
G01 X67.8978 Y24.0387
G01 X67.8931 Y24.0019
G01 X67.8934 Y23.9933
G01 X67.8948 Y23.9858
G01 X67.8948 Y23.9648
G01 X67.8937 Y23.9580
G01 X67.8936 Y23.9519
G01 X67.9086 Y23.8362
G01 X67.9086 Y23.6162
G01 X67.8944 Y23.5087
G01 X67.8940 Y23.5011
G01 X67.8945 Y23.4947
G01 X67.9048 Y23.4259
G01 X67.9061 Y23.4199
G01 X67.9097 Y23.4108
G01 X67.9128 Y23.4055
G01 X67.9157 Y23.4015
G01 X67.9638 Y23.3460
G01 X67.9683 Y23.3417
G01 X67.9722 Y23.3387
G01 X67.9786 Y23.3349
G01 X67.9855 Y23.3321
G01 X68.0548 Y23.3117
G01 X68.0641 Y23.3099
G01 X73.2116 Y23.3097
G01 X73.2449 Y23.3130
G01 X73.2510 Y23.3142
G01 X73.2568 Y23.3161
G01 X73.2623 Y23.3187
G01 X73.3267 Y23.3539
G01 X73.3316 Y23.3573
G01 X73.3360 Y23.3612
G01 X78.8064 Y28.8316
G01 X78.8162 Y28.8423
G01 X78.8216 Y28.8505
G01 X78.8536 Y28.9208
G01 X78.8554 Y28.9267
G01 X78.8564 Y28.9329
G01 X78.8567 Y28.9391
G01 X78.8563 Y28.9440
G01 X78.8459 Y29.0167
G01 X78.8445 Y29.0228
G01 X78.8418 Y29.0297
G01 X78.8388 Y29.0352
G01 X78.8352 Y29.0402
G01 X78.7862 Y29.0966
G01 X78.7816 Y29.1008
G01 X78.7766 Y29.1044
G01 X78.7711 Y29.1074
G01 X78.7654 Y29.1097
G01 X78.6949 Y29.1303
G01 X78.6891 Y29.1315
G01 X78.6831 Y29.1320
G01 X77.8867 Y29.1320
G01 X77.8362 Y29.1373
G01 X77.8271 Y29.1395
G01 X77.7129 Y29.1823
G01 X77.7035 Y29.1874
G01 X77.6072 Y29.2596
G01 X77.5996 Y29.2672
G01 X77.5581 Y29.3224
G01 X77.5447 Y29.3379
G01 X77.5395 Y29.3428
G01 X77.5316 Y29.3482
G01 X77.4682 Y29.3827
G01 X77.4613 Y29.3856
G01 X77.4553 Y29.3872
G01 X77.4492 Y29.3880
G01 X77.4430 Y29.3881
G01 X77.3674 Y29.3825
G01 X77.3581 Y29.3802
G01 X77.3130 Y29.3633
G01 X77.3039 Y29.3611
G01 X77.2534 Y29.3559
G01 X76.6040 Y29.3559
G01 X76.6040 Y29.7639
G01 X77.2100 Y29.7639
G01 X77.2150 Y29.7641
G01 X77.2210 Y29.7651
G01 X77.2303 Y29.7682
G01 X77.2358 Y29.7710
G01 X77.2418 Y29.7752
G01 X77.2463 Y29.7794
G01 X77.2509 Y29.7851
G01 X77.2547 Y29.7914
G01 X77.2571 Y29.7970
G01 X77.2588 Y29.8029
G01 X77.2598 Y29.8090
G01 X77.2600 Y30.0899
G01 X77.3321 Y30.0899
G01 X77.3321 Y30.0420
G01 X77.3324 Y30.0361
G01 X77.3446 Y29.9791
G01 X77.3477 Y29.9696
G01 X77.3505 Y29.9640
G01 X77.3548 Y29.9579
G01 X77.4030 Y29.9024
G01 X77.4065 Y29.8989
G01 X77.4113 Y29.8950
G01 X77.4156 Y29.8924
G01 X77.4212 Y29.8897
G01 X77.4951 Y29.8678
G01 X77.4998 Y29.8667
G01 X77.5057 Y29.8661
G01 X77.8801 Y29.8660
G01 X77.8801 Y29.5901
G01 X77.8804 Y29.5839
G01 X77.8819 Y29.5767
G01 X77.8849 Y29.5687
G01 X77.8885 Y29.5623
G01 X77.8930 Y29.5565
G01 X77.8983 Y29.5514
G01 X77.9043 Y29.5472
G01 X77.9121 Y29.5434
G01 X77.9191 Y29.5413
G01 X77.9239 Y29.5404
G01 X77.9301 Y29.5401
G01 X79.7500 Y29.5401
G01 X79.7562 Y29.5404
G01 X79.7634 Y29.5419
G01 X79.7703 Y29.5443
G01 X79.7778 Y29.5485
G01 X79.7845 Y29.5538
G01 X79.7895 Y29.5593
G01 X79.7936 Y29.5654
G01 X79.7971 Y29.5732
G01 X79.7991 Y29.5803
G01 X79.8000 Y29.5888
G01 X79.8000 Y30.7500
G01 X79.7993 Y30.7586
G01 X79.7971 Y30.7669
G01 X79.7941 Y30.7736
G01 X79.7902 Y30.7798
G01 X79.7854 Y30.7854
G01 X79.7798 Y30.7902
G01 X79.7736 Y30.7941
G01 X79.7669 Y30.7971
G01 X79.7598 Y30.7991
G01 X79.7525 Y30.8000
G01 X79.1440 Y30.8000
G01 X79.1440 Y31.2081
G01 X79.7975 Y31.2078
G01 X79.8439 Y31.2028
G01 X79.8530 Y31.2006
G01 X79.9672 Y31.1578
G01 X79.9766 Y31.1527
G01 X80.0729 Y31.0805
G01 X80.0805 Y31.0729
G01 X80.1527 Y30.9766
G01 X80.1578 Y30.9672
G01 X80.2006 Y30.8530
G01 X80.2028 Y30.8439
G01 X80.2080 Y30.7934
G01 X80.2081 Y30.6564
G01 X80.2088 Y30.6424
G01 X80.2100 Y30.6364
G01 X80.2115 Y30.6317
G01 X80.2368 Y30.5640
G01 X80.2407 Y30.5563
G01 X80.2451 Y30.5502
G01 X80.2522 Y30.5434
G01 X80.3111 Y30.4993
G01 X80.3197 Y30.4944
G01 X80.3243 Y30.4926
G01 X80.3303 Y30.4910
G01 X80.3364 Y30.4902
G01 X80.4085 Y30.4851
G01 X80.4147 Y30.4852
G01 X80.4221 Y30.4863
G01 X80.4280 Y30.4881
G01 X80.4348 Y30.4911
G01 X80.4981 Y30.5257
G01 X80.5059 Y30.5313
G01 X80.7450 Y30.7702
G01 X80.7486 Y30.7742
G01 X80.7670 Y30.7971
G01 X80.7697 Y30.8012
G01 X80.7724 Y30.8067
G01 X80.7745 Y30.8124
G01 X80.7956 Y30.8852
G01 X80.7965 Y30.8946
G01 X80.7965 Y35.5977
G01 X80.7954 Y35.6070
G01 X80.7815 Y35.6653
G01 X80.7796 Y35.6712
G01 X80.7771 Y35.6769
G01 X80.7739 Y35.6822
G01 X80.7701 Y35.6870
G01 X80.7205 Y35.7396
G01 X80.7162 Y35.7437
G01 X80.7104 Y35.7478
G01 X80.5982 Y35.8134
G01 X80.5483 Y35.8548
G01 X80.5435 Y35.8584
G01 X80.5039 Y35.8813
G01 X80.4982 Y35.8840
G01 X80.4934 Y35.8856
G01 X80.4885 Y35.8867
G01 X80.4835 Y35.8873
G01 X80.4127 Y35.8924
G01 X80.4065 Y35.8924
G01 X80.3991 Y35.8915
G01 X80.3919 Y35.8895
G01 X80.3862 Y35.8870
G01 X80.3198 Y35.8505
G01 X80.3159 Y35.8478
G01 X80.3114 Y35.8438
G01 X79.4742 Y35.0065
G01 X79.4531 Y34.9806
G01 X79.4504 Y34.9765
G01 X79.4477 Y34.9710
G01 X79.4456 Y34.9653
G01 X79.4247 Y34.8937
G01 X79.4238 Y34.8878
G01 X79.4236 Y34.8830
G01 X79.4236 Y34.3334
G01 X79.4245 Y34.3251
G01 X79.4364 Y34.2704
G01 X79.4392 Y34.2621
G01 X79.4441 Y34.2534
G01 X79.4945 Y34.1949
G01 X79.4989 Y34.1906
G01 X79.5039 Y34.1868
G01 X79.5104 Y34.1832
G01 X79.5162 Y34.1809
G01 X79.5866 Y34.1603
G01 X79.5936 Y34.1589
G01 X79.5995 Y34.1586
G01 X79.7955 Y34.1586
G01 X79.8487 Y34.1528
G01 X79.9725 Y34.1064
G01 X80.0776 Y34.0276
G01 X80.1564 Y33.9225
G01 X80.2028 Y33.7987
G01 X80.2086 Y33.7455
G01 X80.2086 Y32.4946
G01 X80.2028 Y32.4414
G01 X80.1564 Y32.3176
G01 X80.0776 Y32.2125
G01 X79.9725 Y32.1337
G01 X79.8487 Y32.0873
G01 X79.7955 Y32.0815
G01 X77.8846 Y32.0815
G01 X77.8314 Y32.0873
G01 X77.7076 Y32.1337
G01 X77.6025 Y32.2125
G01 X77.5587 Y32.2709
G01 X77.5445 Y32.2873
G01 X77.5384 Y32.2930
G01 X77.5315 Y32.2976
G01 X77.4680 Y32.3321
G01 X77.4588 Y32.3357
G01 X77.4502 Y32.3373
G01 X77.4415 Y32.3374
G01 X77.3660 Y32.3317
G01 X77.3580 Y32.3296
G01 X77.3087 Y32.3112
G01 X77.2555 Y32.3054
G01 X75.3446 Y32.3054
G01 X75.2914 Y32.3112
G01 X75.1676 Y32.3576
G01 X75.0625 Y32.4363
G01 X74.9837 Y32.5414
G01 X74.9373 Y32.6652
G01 X74.9315 Y32.7184
G01 X74.9315 Y33.9693
G01 X74.9373 Y34.0225
G01 X74.9837 Y34.1463
G01 X75.0625 Y34.2514
G01 X75.1676 Y34.3302
G01 X75.2914 Y34.3766
G01 X75.3446 Y34.3824
G01 X75.5600 Y34.3824
G01 X75.6019 Y34.3881
G01 X75.6091 Y34.3902
G01 X75.6169 Y34.3939
G01 X75.6782 Y34.4321
G01 X75.6861 Y34.4381
G01 X75.6918 Y34.4446
G01 X75.6964 Y34.4520
G01 X75.7288 Y34.5205
G01 X75.7314 Y34.5297
G01 X75.7353 Y34.5541
G01 X75.7418 Y34.5694
G01 X75.7486 Y34.5893
G01 X75.7532 Y34.6066
G01 X75.7726 Y34.6419
G01 X75.7783 Y34.6536
G01 X75.7938 Y34.6894
G01 X75.8039 Y34.7026
G01 X75.8155 Y34.7202
G01 X75.8242 Y34.7357
G01 X75.8510 Y34.7642
G01 X75.8615 Y34.7767
G01 X75.8823 Y34.7976
G01 X75.9252 Y34.8432
G01 X75.9313 Y34.8476
G01 X75.9432 Y34.8583
G01 X76.3573 Y35.2725
G01 X76.3629 Y35.2792
G01 X76.3662 Y35.2846
G01 X76.4016 Y35.3523
G01 X76.4044 Y35.3591
G01 X76.4061 Y35.3663
G01 X76.4067 Y35.3724
G01 X76.4066 Y35.3785
G01 X76.3990 Y35.4503
G01 X76.3977 Y35.4576
G01 X76.3952 Y35.4647
G01 X76.3925 Y35.4702
G01 X76.3890 Y35.4754
G01 X76.3421 Y35.5336
G01 X76.3377 Y35.5379
G01 X76.3328 Y35.5417
G01 X76.3275 Y35.5449
G01 X76.3206 Y35.5478
G01 X76.2533 Y35.5703
G01 X76.2464 Y35.5720
G01 X76.2393 Y35.5728
G01 X76.1386 Y35.5765
G01 X75.9197 Y35.6210
G01 X75.7110 Y35.7007
G01 X75.5182 Y35.8134
G01 X75.3463 Y35.9561
G01 X75.2000 Y36.1250
G01 X75.1773 Y36.1618
G01 X75.1556 Y36.1888
G01 X75.1507 Y36.1942
G01 X75.1460 Y36.1980
G01 X75.1408 Y36.2013
G01 X75.0768 Y36.2346
G01 X75.0688 Y36.2380
G01 X75.0603 Y36.2399
G01 X75.0504 Y36.2402
G01 X74.9785 Y36.2336
G01 X74.9723 Y36.2327
G01 X74.9652 Y36.2306
G01 X74.9585 Y36.2274
G01 X74.9533 Y36.2240
G01 X74.8963 Y36.1796
G01 X74.8918 Y36.1757
G01 X74.8871 Y36.1703
G01 X74.7981 Y36.0466
G01 X74.6399 Y35.8889
G01 X74.4580 Y35.7592
G01 X74.2564 Y35.6606
G01 X74.0435 Y35.5967
G01 X73.8219 Y35.5683
G01 X73.5986 Y35.5765
G01 X73.3797 Y35.6210
G01 X73.2466 Y35.6719
G01 X73.1710 Y35.7007
G01 X72.9782 Y35.8134
G01 X72.8063 Y35.9561
G01 X72.6600 Y36.1250
G01 X72.5433 Y36.3154
G01 X72.5151 Y36.3849
G01 X72.4593 Y36.5224
G01 X72.4102 Y36.7403
G01 X72.3973 Y36.9634
G01 X72.4210 Y37.1855
G01 X72.4807 Y37.4007
G01 X72.5748 Y37.6034
G01 X72.7007 Y37.7879
G01 X72.7291 Y37.8178
G01 X72.7452 Y37.8380
G01 X72.7479 Y37.8422
G01 X72.7507 Y37.8477
G01 X72.7738 Y37.9214
G01 X72.7751 Y37.9275
G01 X72.7757 Y37.9349
G01 X72.7751 Y37.9423
G01 X72.7739 Y37.9484
G01 X72.7549 Y38.0168
G01 X72.7513 Y38.0261
G01 X72.7475 Y38.0324
G01 X72.7419 Y38.0390
G01 X72.6862 Y38.0889
G01 X72.6812 Y38.0926
G01 X72.6758 Y38.0957
G01 X72.6701 Y38.0980
G01 X72.6641 Y38.0997
G01 X72.5916 Y38.1113
G01 X72.5856 Y38.1119
G01 X72.5785 Y38.1117
G01 X72.5519 Y38.1083
G01 X72.3286 Y38.1165
G01 X72.1097 Y38.1610
G01 X71.9010 Y38.2407
G01 X71.7082 Y38.3534
G01 X71.5363 Y38.4961
G01 X71.3900 Y38.6650
G01 X71.2733 Y38.8554
G01 X71.1893 Y39.0624
G01 X71.1402 Y39.2803
G01 X71.1273 Y39.5034
G01 X71.1510 Y39.7255
G01 X71.2107 Y39.9407
G01 X71.3048 Y40.1434
G01 X71.4307 Y40.3279
G01 X71.5850 Y40.4894
G01 X71.7637 Y40.6235
G01 X71.9618 Y40.7267
G01 X72.1741 Y40.7961
G01 X72.3950 Y40.8299
G01 X72.5495 Y40.8280
G01 X72.6183 Y40.8272
G01 X72.8383 Y40.7880
G01 X73.0488 Y40.7134
G01 X73.2444 Y40.6055
G01 X73.4197 Y40.4670
G01 X73.5701 Y40.3018
G01 X73.6914 Y40.1142
G01 X73.7805 Y39.9093
G01 X73.8349 Y39.6927
G01 X73.8533 Y39.4686
G01 X73.8518 Y39.4049
G01 X73.8224 Y39.1820
G01 X73.7575 Y38.9682
G01 X73.6585 Y38.7680
G01 X73.5282 Y38.5866
G01 X73.5218 Y38.5795
G01 X73.5146 Y38.5704
G01 X73.5113 Y38.5652
G01 X73.5092 Y38.5609
G01 X73.4829 Y38.4910
G01 X73.4810 Y38.4838
G01 X73.4802 Y38.4764
G01 X73.4803 Y38.4714
G01 X73.4810 Y38.4653
G01 X73.4963 Y38.3947
G01 X73.4984 Y38.3875
G01 X73.5015 Y38.3808
G01 X73.5049 Y38.3756
G01 X73.5089 Y38.3708
G01 X73.5616 Y38.3179
G01 X73.5664 Y38.3141
G01 X73.5716 Y38.3109
G01 X73.5772 Y38.3083
G01 X73.5830 Y38.3064
G01 X73.6504 Y38.2912
G01 X73.6585 Y38.2900
G01 X73.8883 Y38.2872
G01 X74.1083 Y38.2480
G01 X74.3188 Y38.1734
G01 X74.5144 Y38.0655
G01 X74.6897 Y37.9270
G01 X74.8401 Y37.7618
G01 X74.8839 Y37.6941
G01 X74.9103 Y37.6630
G01 X74.9159 Y37.6583
G01 X74.9221 Y37.6545
G01 X74.9869 Y37.6227
G01 X74.9950 Y37.6196
G01 X75.0035 Y37.6179
G01 X75.0134 Y37.6178
G01 X75.0877 Y37.6265
G01 X75.0937 Y37.6279
G01 X75.0995 Y37.6300
G01 X75.1050 Y37.6328
G01 X75.1092 Y37.6356
G01 X75.1660 Y37.6821
G01 X75.1712 Y37.6870
G01 X75.1757 Y37.6926
G01 X75.2407 Y37.7879
G01 X75.3950 Y37.9494
G01 X75.5737 Y38.0835
G01 X75.7718 Y38.1867
G01 X75.9841 Y38.2561
G01 X76.2050 Y38.2899
G01 X76.4097 Y38.2874
G01 X76.4157 Y38.2877
G01 X76.4229 Y38.2890
G01 X76.4948 Y38.3096
G01 X76.5016 Y38.3123
G01 X76.5078 Y38.3159
G01 X76.5135 Y38.3203
G01 X76.5177 Y38.3246
G01 X76.5642 Y38.3783
G01 X76.5699 Y38.3864
G01 X76.5735 Y38.3943
G01 X76.5757 Y38.4027
G01 X76.5863 Y38.4766
G01 X76.5865 Y38.4828
G01 X76.5859 Y38.4890
G01 X76.5846 Y38.4951
G01 X76.5820 Y38.5020
G01 X76.5525 Y38.5666
G01 X76.5491 Y38.5729
G01 X76.5448 Y38.5786
G01 X76.4700 Y38.6650
G01 X76.3533 Y38.8554
G01 X76.2693 Y39.0624
G01 X76.2202 Y39.2803
G01 X76.2073 Y39.5034
G01 X76.2310 Y39.7255
G01 X76.2907 Y39.9407
G01 X76.3848 Y40.1434
G01 X76.5107 Y40.3279
G01 X76.6650 Y40.4894
G01 X76.8437 Y40.6235
G01 X77.0409 Y40.7262
G01 X77.2541 Y40.7961
G01 X77.4750 Y40.8299
G01 X77.6983 Y40.8272
G01 X77.9183 Y40.7880
G01 X77.9251 Y40.7858
G01 X77.9342 Y40.7839
G01 X77.9403 Y40.7834
G01 X77.9461 Y40.7837
G01 X78.0051 Y40.7800
G01 X78.0149 Y40.7809
G01 X78.0243 Y40.7836
G01 X78.0298 Y40.7862
G01 X78.0921 Y40.8202
G01 X78.0972 Y40.8233
G01 X78.1018 Y40.8271
G01 X78.3571 Y41.0823
G01 X78.3675 Y41.0937
G01 X78.3924 Y41.1238
G01 X78.4068 Y41.1344
G01 X78.4228 Y41.1481
G01 X78.4346 Y41.1598
G01 X78.4682 Y41.1797
G01 X78.4791 Y41.1868
G01 X78.5117 Y41.2104
G01 X78.5271 Y41.2166
G01 X78.5460 Y41.2259
G01 X78.5615 Y41.2348
G01 X78.6001 Y41.2461
G01 X78.6125 Y41.2503
G01 X78.6488 Y41.2647
G01 X78.6652 Y41.2669
G01 X78.6858 Y41.2711
G01 X78.7030 Y41.2759
G01 X78.7421 Y41.2772
G01 X78.7583 Y41.2786
G01 X78.7878 Y41.2786
G01 X78.8504 Y41.2806
G01 X78.8578 Y41.2793
G01 X78.8738 Y41.2786
G01 X80.5816 Y41.2786
G01 X80.5970 Y41.2792
G01 X80.6359 Y41.2829
G01 X80.6536 Y41.2803
G01 X80.6746 Y41.2786
G01 X80.6912 Y41.2786
G01 X80.7302 Y41.2686
G01 X80.7430 Y41.2660
G01 X80.7815 Y41.2598
G01 X80.7968 Y41.2533
G01 X80.8167 Y41.2465
G01 X80.8340 Y41.2419
G01 X80.8693 Y41.2225
G01 X80.8810 Y41.2168
G01 X80.9169 Y41.2013
G01 X80.9300 Y41.1912
G01 X80.9476 Y41.1796
G01 X80.9632 Y41.1709
G01 X80.9917 Y41.1441
G01 X81.0041 Y41.1336
G01 X81.0250 Y41.1128
G01 X81.0706 Y41.0699
G01 X81.0750 Y41.0638
G01 X81.0858 Y41.0519
G01 X81.5835 Y40.5543
G01 X81.6171 Y40.5289
G01 X81.6224 Y40.5256
G01 X81.6282 Y40.5230
G01 X81.6354 Y40.5208
G01 X81.7097 Y40.5050
G01 X81.7197 Y40.5049
G01 X81.7246 Y40.5056
G01 X81.7306 Y40.5071
G01 X81.7994 Y40.5328
G01 X81.8059 Y40.5358
G01 X81.8119 Y40.5396
G01 X81.9237 Y40.6235
G01 X82.1218 Y40.7267
G01 X82.3341 Y40.7961
G01 X82.5550 Y40.8299
G01 X82.7095 Y40.8280
G01 X82.7783 Y40.8272
G01 X82.9983 Y40.7880
G01 X83.2088 Y40.7134
G01 X83.4044 Y40.6055
G01 X83.5797 Y40.4670
G01 X83.7301 Y40.3018
G01 X83.8407 Y40.1310
G01 X83.8453 Y40.1257
G01 X83.8848 Y40.0864
G01 X83.8917 Y40.0812
G01 X83.8995 Y40.0772
G01 X83.9735 Y40.0553
G01 X83.9793 Y40.0541
G01 X83.9852 Y40.0536
G01 X84.6822 Y40.0536
G01 X84.6976 Y40.0542
G01 X84.7365 Y40.0579
G01 X84.7542 Y40.0553
G01 X84.7752 Y40.0536
G01 X84.7917 Y40.0536
G01 X84.8307 Y40.0436
G01 X84.8435 Y40.0410
G01 X84.8821 Y40.0348
G01 X84.8973 Y40.0283
G01 X84.9173 Y40.0215
G01 X84.9345 Y40.0169
G01 X84.9698 Y39.9975
G01 X84.9815 Y39.9918
G01 X85.0174 Y39.9763
G01 X85.0305 Y39.9662
G01 X85.0481 Y39.9546
G01 X85.0637 Y39.9459
G01 X85.0922 Y39.9191
G01 X85.1047 Y39.9086
G01 X85.1256 Y39.8878
G01 X85.1712 Y39.8449
G01 X85.1755 Y39.8388
G01 X85.1863 Y39.8269
G01 X85.9882 Y39.0251
G01 X85.9996 Y39.0147
G01 X86.0297 Y38.9897
G01 X86.0403 Y38.9754
G01 X86.0540 Y38.9594
G01 X86.0657 Y38.9476
G01 X86.0856 Y38.9140
G01 X86.0927 Y38.9031
G01 X86.1163 Y38.8705
G01 X86.1225 Y38.8551
G01 X86.1317 Y38.8362
G01 X86.1407 Y38.8207
G01 X86.1520 Y38.7821
G01 X86.1562 Y38.7697
G01 X86.1706 Y38.7334
G01 X86.1727 Y38.7170
G01 X86.1770 Y38.6963
G01 X86.1818 Y38.6791
G01 X86.1831 Y38.6401
G01 X86.1844 Y38.6238
G01 X86.1845 Y38.5943
G01 X86.1865 Y38.5318
G01 X86.1852 Y38.5244
G01 X86.1844 Y38.5084
G01 X86.1844 Y30.7823
G01 X86.1851 Y30.7670
G01 X86.1888 Y30.7281
G01 X86.1861 Y30.7104
G01 X86.1845 Y30.6894
G01 X86.1844 Y30.6728
G01 X86.1747 Y30.6350
G01 X86.1721 Y30.6222
G01 X86.1657 Y30.5825
G01 X86.1588 Y30.5660
G01 X86.1520 Y30.5460
G01 X86.1478 Y30.5300
G01 X86.1284 Y30.4947
G01 X86.1222 Y30.4819
G01 X86.1072 Y30.4472
G01 X86.0963 Y30.4329
G01 X86.0848 Y30.4153
G01 X86.0768 Y30.4008
G01 X86.0500 Y30.3723
G01 X86.0395 Y30.3599
G01 X86.0187 Y30.3390
G01 X85.9758 Y30.2934
G01 X85.9697 Y30.2890
G01 X85.9578 Y30.2782
G01 X75.5185 Y19.8389
G01 X75.5081 Y19.8276
G01 X75.4832 Y19.7975
G01 X75.4688 Y19.7868
G01 X75.4528 Y19.7731
G01 X75.4411 Y19.7615
G01 X75.4074 Y19.7416
G01 X75.3965 Y19.7344
G01 X75.3639 Y19.7108
G01 X75.3474 Y19.7041
G01 X75.3285 Y19.6948
G01 X75.3142 Y19.6864
G01 X75.2755 Y19.6751
G01 X75.2632 Y19.6709
G01 X75.2269 Y19.6565
G01 X75.2104 Y19.6544
G01 X75.1898 Y19.6501
G01 X75.1726 Y19.6453
G01 X75.1335 Y19.6441
G01 X75.1173 Y19.6427
G01 X75.0878 Y19.6426
G01 X75.0252 Y19.6407
G01 X75.0178 Y19.6419
G01 X75.0018 Y19.6427
G01 X67.5765 Y19.6427
G01 X67.5680 Y19.6420
G01 X67.5472 Y19.6378
G01 X67.5409 Y19.6380
G01 X67.5336 Y19.6371
G01 X67.5208 Y19.6338
G01 X67.5143 Y19.6314
G01 X67.4100 Y19.6177
G01 X66.0805 Y19.6176
G01 X66.0734 Y19.6165
G01 X66.0199 Y19.6049
G01 X66.0139 Y19.6030
G01 X66.0082 Y19.6004
G01 X65.9999 Y19.5949
G01 X65.9435 Y19.5459
G01 X65.9401 Y19.5423
G01 X65.9363 Y19.5374
G01 X65.9338 Y19.5331
G01 X65.9313 Y19.5274
G01 X65.9101 Y19.4558
G01 X65.9086 Y19.4488
G01 X65.9081 Y19.4417
G01 X65.9081 Y19.0137
G01 X65.5822 Y19.0136
G01 X65.5739 Y19.0125
G01 X65.5192 Y19.0006
G01 X65.5132 Y18.9986
G01 X65.5087 Y18.9964
G01 X65.5044 Y18.9939
G01 X65.5000 Y18.9906
G01 X65.5000 Y19.4774
G01 X65.4994 Y19.4884
G01 X65.4981 Y19.4982
G01 X65.4943 Y19.5136
G01 X65.4905 Y19.5240
G01 X65.4859 Y19.5340
G01 X65.4797 Y19.5446
G01 X65.4751 Y19.5510
G01 X65.4751 Y19.9362
G01 X65.4780 Y19.9438
G01 X65.4986 Y20.0142
G01 X65.4998 Y20.0212
G01 X65.5000 Y20.0296
G01 X65.5109 Y20.0682
G01 X65.5142 Y20.0979
G01 X65.5158 Y20.1044
G01 X65.5165 Y20.1105
G01 X65.5165 Y20.3362
G01 X65.5311 Y20.4470
G01 X65.5316 Y20.4531
G01 X65.5312 Y20.4592
G01 X65.5300 Y20.4658
G01 X65.5300 Y20.4866
G01 X65.5314 Y20.4944
G01 X65.5314 Y20.5030
G01 X65.5165 Y20.6162
G01 X65.5165 Y20.8362
G01 X65.5315 Y20.9519
G01 X65.5314 Y20.9580
G01 X65.5303 Y20.9648
G01 X65.5303 Y20.9858
G01 X65.5317 Y20.9933
G01 X65.5320 Y21.0019
G01 X65.5256 Y21.0511
G01 X65.9753 Y21.0511
G01 X65.9816 Y21.0466
G01 X65.9922 Y21.0404
G01 X66.0022 Y21.0357
G01 X66.0126 Y21.0319
G01 X66.0281 Y21.0282
G01 X66.0378 Y21.0268
G01 X66.0500 Y21.0262
G01 X67.3750 Y21.0262
G01 X67.3873 Y21.0268
G01 X67.3982 Y21.0284
G01 X67.4137 Y21.0323
G01 X67.4229 Y21.0357
G01 X67.4340 Y21.0410
G01 X67.4465 Y21.0487
G01 X67.4543 Y21.0546
G01 X67.4634 Y21.0628
G01 X67.4732 Y21.0738
G01 X67.4790 Y21.0817
G01 X67.4853 Y21.0923
G01 X67.4905 Y21.1034
G01 X67.4939 Y21.1126
G01 X67.4981 Y21.1292
G01 X67.4994 Y21.1389
G01 X67.5000 Y21.1512
G01 X67.5000 Y21.3012
G01 X67.4994 Y21.3134
G01 X67.4979 Y21.3244
G01 X67.4950 Y21.3363
G01 X67.4914 Y21.3467
G01 X67.4841 Y21.3623
G01 X67.4790 Y21.3706
G01 X67.4717 Y21.3805
G01 X67.4634 Y21.3896
G01 X67.4543 Y21.3978
G01 X67.4445 Y21.4051
G01 X67.4340 Y21.4114
G01 X67.4229 Y21.4167
G01 X67.4137 Y21.4200
G01 X67.3970 Y21.4242
G01 X67.3873 Y21.4256
G01 X67.3750 Y21.4262
G01 X66.0488 Y21.4262
G01 X66.0378 Y21.4256
G01 X66.0281 Y21.4242
G01 X66.0126 Y21.4204
G01 X66.0022 Y21.4167
G01 X65.9922 Y21.4120
G01 X65.9816 Y21.4058
G01 X65.9753 Y21.4013
G01 X65.4091 Y21.4013
G01 X63.5610 Y23.2494
G01 X63.5496 Y23.2598
G01 X63.5195 Y23.2847
G01 X63.5089 Y23.2990
G01 X63.4952 Y23.3151
G01 X63.4835 Y23.3268
G01 X63.4636 Y23.3604
G01 X63.4565 Y23.3714
G01 X63.4329 Y23.4040
G01 X63.4262 Y23.4205
G01 X63.4169 Y23.4394
G01 X63.4085 Y23.4537
G01 X63.3972 Y23.4923
G01 X63.3930 Y23.5047
G01 X63.3786 Y23.5410
G01 X63.3765 Y23.5574
G01 X63.3722 Y23.5781
G01 X63.3674 Y23.5953
G01 X63.3669 Y23.6019
G01 X63.3648 Y23.6146
G01 X63.3626 Y23.6216
G01 X63.3588 Y23.6292
G01 X63.3510 Y23.6585
G01 X63.3474 Y23.6675
G01 X63.3436 Y23.6738
G01 X63.3397 Y23.6785
G01 X63.2876 Y23.7320
G01 X63.2828 Y23.7360
G01 X63.2776 Y23.7393
G01 X63.2720 Y23.7419
G01 X63.2661 Y23.7438
G01 X63.1933 Y23.7607
G01 X63.1846 Y23.7615
G01 X63.1760 Y23.7608
G01 X63.1676 Y23.7586
G01 X63.0974 Y23.7334
G01 X63.0891 Y23.7288
G01 X63.0643 Y23.7108
G01 X63.0478 Y23.7041
G01 X63.0288 Y23.6948
G01 X63.0146 Y23.6864
G01 X62.9749 Y23.6748
G01 X62.7997 Y23.8500
G01 X62.7879 Y23.8607
G01 X62.7732 Y23.8718
G01 X62.7585 Y23.8806
G01 X62.7429 Y23.8879
G01 X62.7244 Y23.8944
G01 X62.7101 Y23.8979
G01 X62.6955 Y23.9001
G01 X62.6759 Y23.9013
G01 X59.1248 Y23.9013
G01 X59.1185 Y23.9058
G01 X59.1079 Y23.9120
G01 X59.0979 Y23.9167
G01 X59.0875 Y23.9204
G01 X59.0720 Y23.9242
G01 X59.0623 Y23.9256
G01 X59.0513 Y23.9262
G01 X57.7250 Y23.9262
G01 X57.7128 Y23.9256
G01 X57.7007 Y23.9238
G01 X57.6888 Y23.9208
G01 X57.6772 Y23.9167
G01 X57.6661 Y23.9114
G01 X57.6556 Y23.9051
G01 X57.6458 Y23.8978
G01 X57.6384 Y23.8913
G01 X57.6269 Y23.8786
G01 X57.6204 Y23.8696
G01 X57.6142 Y23.8590
G01 X57.6096 Y23.8490
G01 X57.6054 Y23.8375
G01 X57.6025 Y23.8256
G01 X57.6010 Y23.8159
G01 X57.6001 Y23.8012
G01 X57.6001 Y23.6512
G01 X57.6007 Y23.6389
G01 X57.6022 Y23.6280
G01 X57.6062 Y23.6126
G01 X57.6096 Y23.6034
G01 X57.6148 Y23.5923
G01 X57.6225 Y23.5797
G01 X57.6284 Y23.5719
G01 X57.6367 Y23.5628
G01 X57.6458 Y23.5546
G01 X57.6536 Y23.5487
G01 X57.6661 Y23.5410
G01 X57.6772 Y23.5357
G01 X57.6864 Y23.5323
G01 X57.7019 Y23.5284
G01 X57.7128 Y23.5268
G01 X57.7250 Y23.5262
G01 X59.0500 Y23.5262
G01 X59.0623 Y23.5268
G01 X59.0720 Y23.5282
G01 X59.0875 Y23.5319
G01 X59.0979 Y23.5357
G01 X59.1079 Y23.5404
G01 X59.1185 Y23.5466
G01 X59.1248 Y23.5511
G01 X59.5905 Y23.5511
G01 X59.5873 Y23.5466
G01 X59.5844 Y23.5411
G01 X59.5822 Y23.5353
G01 X59.5809 Y23.5305
G01 X59.5696 Y23.4580
G01 X59.5690 Y23.4520
G01 X59.5694 Y23.4437
G01 X59.5836 Y23.3362
G01 X59.5836 Y23.1162
G01 X59.5687 Y23.0030
G01 X59.5687 Y22.9944
G01 X59.5701 Y22.9865
G01 X59.5701 Y22.9658
G01 X59.5689 Y22.9592
G01 X59.5685 Y22.9531
G01 X59.5690 Y22.9470
G01 X59.5836 Y22.8362
G01 X59.5836 Y22.7801
G01 X59.5867 Y22.7493
G01 X59.5887 Y22.7397
G01 X59.5925 Y22.7307
G01 X59.6272 Y22.6674
G01 X59.6304 Y22.6624
G01 X59.6343 Y22.6579
G01 X59.6489 Y22.6434
G01 X59.6939 Y22.6011
G01 X59.6983 Y22.5949
G01 X59.7090 Y22.5831
G01 X60.4905 Y21.8016
G01 X60.5019 Y21.7912
G01 X60.5320 Y21.7663
G01 X60.5426 Y21.7520
G01 X60.5563 Y21.7359
G01 X60.5679 Y21.7242
G01 X60.5885 Y21.6895
G01 X60.5957 Y21.6786
G01 X60.6186 Y21.6470
G01 X60.6253 Y21.6305
G01 X60.6346 Y21.6116
G01 X60.6430 Y21.5973
G01 X60.6543 Y21.5586
G01 X60.6585 Y21.5463
G01 X60.6729 Y21.5100
G01 X60.6753 Y21.4923
G01 X60.6796 Y21.4716
G01 X60.6841 Y21.4557
G01 X60.6854 Y21.4167
G01 X60.6867 Y21.4004
G01 X60.6868 Y21.3709
G01 X60.6888 Y21.3084
G01 X60.6875 Y21.3009
G01 X60.6867 Y21.2849
G01 X60.6867 Y20.4559
G01 X60.6874 Y20.4405
G01 X60.6911 Y20.4016
G01 X60.6884 Y20.3839
G01 X60.6868 Y20.3629
G01 X60.6867 Y20.3463
G01 X60.6768 Y20.3073
G01 X60.6741 Y20.2946
G01 X60.6680 Y20.2560
G01 X60.6652 Y20.2486
G01 X60.6559 Y20.2148
G01 X60.6549 Y20.2088
G01 X60.6547 Y20.2014
G01 X60.6655 Y20.1250
G01 X60.6672 Y20.1178
G01 X60.6701 Y20.1109
G01 X60.6732 Y20.1055
G01 X60.6762 Y20.1016
G01 X60.7243 Y20.0460
G01 X60.7307 Y20.0401
G01 X60.7380 Y20.0354
G01 X60.7472 Y20.0317
G01 X60.8153 Y20.0117
G01 X60.8223 Y20.0102
G01 X60.8294 Y20.0097
G01 X60.9100 Y20.0097
G01 X61.0208 Y19.9951
G01 X61.0270 Y19.9947
G01 X61.0331 Y19.9950
G01 X61.0397 Y19.9962
G01 X61.0604 Y19.9962
G01 X61.0682 Y19.9949
G01 X61.0768 Y19.9948
G01 X61.1901 Y20.0097
G01 X61.4100 Y20.0097
G01 X61.5208 Y19.9951
G01 X61.5270 Y19.9947
G01 X61.5331 Y19.9950
G01 X61.5397 Y19.9962
G01 X61.5604 Y19.9962
G01 X61.5682 Y19.9949
G01 X61.5768 Y19.9948
G01 X61.6901 Y20.0097
G01 X61.9100 Y20.0097
G01 X62.0208 Y19.9951
G01 X62.0270 Y19.9947
G01 X62.0331 Y19.9950
G01 X62.0397 Y19.9962
G01 X62.0604 Y19.9962
G01 X62.0682 Y19.9949
G01 X62.0768 Y19.9948
G01 X62.1901 Y20.0097
G01 X62.4100 Y20.0097
G01 X62.5208 Y19.9951
G01 X62.5270 Y19.9947
G01 X62.5331 Y19.9950
G01 X62.5397 Y19.9962
G01 X62.5604 Y19.9962
G01 X62.5682 Y19.9949
G01 X62.5768 Y19.9948
G01 X62.6901 Y20.0097
G01 X62.9100 Y20.0097
G01 X63.0208 Y19.9951
G01 X63.0270 Y19.9947
G01 X63.0331 Y19.9950
G01 X63.0397 Y19.9962
G01 X63.0604 Y19.9962
G01 X63.0682 Y19.9949
G01 X63.0768 Y19.9948
G01 X63.1901 Y20.0097
G01 X63.4100 Y20.0097
G01 X63.5208 Y19.9951
G01 X63.5270 Y19.9947
G01 X63.5331 Y19.9950
G01 X63.5397 Y19.9962
G01 X63.5604 Y19.9962
G01 X63.5682 Y19.9949
G01 X63.5768 Y19.9948
G01 X63.6901 Y20.0097
G01 X63.9100 Y20.0097
G01 X64.0208 Y19.9951
G01 X64.0270 Y19.9947
G01 X64.0331 Y19.9950
G01 X64.0397 Y19.9962
G01 X64.0604 Y19.9962
G01 X64.0682 Y19.9949
G01 X64.0768 Y19.9948
G01 X64.1901 Y20.0097
G01 X64.4100 Y20.0097
G01 X64.5208 Y19.9951
G01 X64.5270 Y19.9947
G01 X64.5331 Y19.9950
G01 X64.5397 Y19.9962
G01 X64.5604 Y19.9962
G01 X64.5682 Y19.9949
G01 X64.5768 Y19.9948
G01 X64.6901 Y20.0097
G01 X64.9100 Y20.0097
G01 X65.0257 Y19.9947
G01 X65.0319 Y19.9949
G01 X65.0386 Y19.9960
G01 X65.0597 Y19.9960
G01 X65.0671 Y19.9945
G01 X65.0757 Y19.9943
G01 X65.1104 Y19.9987
G01 X65.1132 Y19.9941
G01 X65.1250 Y19.9780
G01 X65.1250 Y19.5510
G01 X65.1204 Y19.5446
G01 X65.1142 Y19.5340
G01 X65.1096 Y19.5240
G01 X65.1058 Y19.5136
G01 X65.1020 Y19.4982
G01 X65.1007 Y19.4884
G01 X65.1001 Y19.4774
G01 X65.1001 Y18.1512
G01 X65.1007 Y18.1389
G01 X65.1020 Y18.1292
G01 X65.1058 Y18.1137
G01 X65.1096 Y18.1034
G01 X65.1142 Y18.0934
G01 X65.1204 Y18.0828
G01 X65.1250 Y18.0764
G01 X65.1250 Y17.6480
G01 X65.1126 Y17.6284
G01 X65.0757 Y17.6331
G01 X65.0671 Y17.6329
G01 X65.0597 Y17.6314
G01 X65.0386 Y17.6314
G01 X65.0319 Y17.6325
G01 X65.0245 Y17.6326
G01 X64.9100 Y17.6177
G01 X64.6901 Y17.6177
G01 X64.5768 Y17.6325
G01 X64.5682 Y17.6325
G01 X64.5604 Y17.6312
G01 X64.5397 Y17.6312
G01 X64.5331 Y17.6324
G01 X64.5270 Y17.6327
G01 X64.5208 Y17.6323
G01 X64.4100 Y17.6177
G01 X64.1901 Y17.6177
G01 X64.0768 Y17.6325
G01 X64.0682 Y17.6325
G01 X64.0604 Y17.6312
G01 X64.0397 Y17.6312
G01 X64.0331 Y17.6324
G01 X64.0270 Y17.6327
G01 X64.0208 Y17.6323
G01 X63.9100 Y17.6177
G01 X63.6901 Y17.6177
G01 X63.5768 Y17.6325
G01 X63.5682 Y17.6325
G01 X63.5604 Y17.6312
G01 X63.5397 Y17.6312
G01 X63.5331 Y17.6324
G01 X63.5270 Y17.6327
G01 X63.5208 Y17.6323
G01 X63.4100 Y17.6177
G01 X63.1901 Y17.6177
G01 X63.0825 Y17.6319
G01 X63.0736 Y17.6322
G01 X62.9986 Y17.6212
G01 X62.9926 Y17.6198
G01 X62.9869 Y17.6176
G01 X62.9814 Y17.6148
G01 X62.9754 Y17.6106
G01 X62.9208 Y17.5633
G01 X62.9156 Y17.5580
G01 X62.9118 Y17.5530
G01 X62.9087 Y17.5477
G01 X62.9063 Y17.5419
G01 X62.8853 Y17.4703
G01 X62.8841 Y17.4645
G01 X62.8836 Y17.4585
G01 X62.8836 Y15.7008
G01 X62.8867 Y15.6687
G01 X62.8880 Y15.6614
G01 X62.8899 Y15.6556
G01 X62.8920 Y15.6511
G01 X62.9266 Y15.5877
G01 X62.9304 Y15.5817
G01 X62.9351 Y15.5763
G01 X65.7768 Y12.7350
G01 X65.8241 Y12.7031
G01 X65.8329 Y12.6992
G01 X65.8422 Y12.6970
G01 X65.9139 Y12.6890
G01 X65.9211 Y12.6887
G01 X65.9270 Y12.6892
G01 X65.9381 Y12.6914
G01 X66.1400 Y12.7091
G01 X66.3420 Y12.6914
G01 X66.5378 Y12.6390
G01 X66.7215 Y12.5533
G01 X66.8876 Y12.4370
G01 X67.0309 Y12.2937
G01 X67.1472 Y12.1277
G01 X67.2328 Y11.9439
G01 X67.2853 Y11.7481
G01 X67.3030 Y11.5462
G01 X67.2853 Y11.3443
G01 X67.2328 Y11.1484
G01 X67.1479 Y10.9663
G01 X67.1472 Y10.9647
G01 X67.0309 Y10.7987
G01 X66.8876 Y10.6553
G01 X66.7215 Y10.5391
G01 X66.5378 Y10.4534
G01 X66.3420 Y10.4009
G01 X66.1400 Y10.3833
G01 X65.9381 Y10.4009
G01 X65.7423 Y10.4534
G01 X65.5586 Y10.5391
G01 X65.3925 Y10.6553
G01 X65.2492 Y10.7987
G01 X65.1329 Y10.9647
G01 X65.0473 Y11.1484
G01 X65.0397 Y11.1765
G01 X65.0372 Y11.1832
G01 X65.0188 Y11.2234
G01 X65.0155 Y11.2288
G01 X65.0108 Y11.2347
G01 X65.0062 Y11.2390
G01 X64.9505 Y11.2849
G01 X64.9454 Y11.2885
G01 X64.9399 Y11.2913
G01 X64.9329 Y11.2938
G01 X64.9268 Y11.2951
G01 X64.8551 Y11.3037
G01 X64.8489 Y11.3040
G01 X64.8390 Y11.3030
G01 X64.8296 Y11.3000
G01 X64.7634 Y11.2680
G01 X64.7580 Y11.2649
G01 X64.7531 Y11.2612
G01 X64.7486 Y11.2570
G01 X64.7447 Y11.2521
G01 X64.7034 Y11.1842
G01 X64.7004 Y11.1765
G01 X64.6928 Y11.1484
G01 X64.6072 Y10.9647
G01 X64.4909 Y10.7987
G01 X64.3476 Y10.6553
G01 X64.1815 Y10.5391
G01 X63.9978 Y10.4534
G01 X63.8020 Y10.4009
G01 X63.6000 Y10.3833
G01 X63.3981 Y10.4009
G01 X63.2013 Y10.4539
G01 X63.0186 Y10.5391
G01 X62.8525 Y10.6553
G01 X62.7092 Y10.7987
G01 X62.5929 Y10.9647
G01 X62.5073 Y11.1484
G01 X62.4987 Y11.1803
G01 X62.4968 Y11.1860
G01 X62.4780 Y11.2273
G01 X62.4749 Y11.2328
G01 X62.4711 Y11.2378
G01 X62.4649 Y11.2440
G01 X62.4101 Y11.2892
G01 X62.4041 Y11.2935
G01 X62.3986 Y11.2963
G01 X62.3927 Y11.2985
G01 X62.3855 Y11.3001
G01 X62.3137 Y11.3087
G01 X62.3076 Y11.3090
G01 X62.3014 Y11.3086
G01 X62.2965 Y11.3077
G01 X62.2917 Y11.3064
G01 X62.2860 Y11.3040
G01 X62.2199 Y11.2719
G01 X62.2117 Y11.2662
G01 X62.2048 Y11.2591
G01 X62.2013 Y11.2540
G01 X62.1620 Y11.1892
G01 X62.1590 Y11.1815
G01 X62.1528 Y11.1584
G01 X62.0672 Y10.9747
G01 X61.9509 Y10.8087
G01 X61.8076 Y10.6653
G01 X61.6415 Y10.5491
G01 X61.4578 Y10.4634
G01 X61.2620 Y10.4109
G01 X61.0600 Y10.3933
G01 X60.8581 Y10.4109
G01 X60.6623 Y10.4634
G01 X60.4786 Y10.5491
G01 X60.3125 Y10.6653
G01 X60.1692 Y10.8087
G01 X60.0529 Y10.9747
G01 X59.9673 Y11.1584
G01 X59.9632 Y11.1734
G01 X59.9617 Y11.1779
G01 X59.9434 Y11.2181
G01 X59.9390 Y11.2257
G01 X59.9343 Y11.2316
G01 X59.9297 Y11.2359
G01 X59.8740 Y11.2819
G01 X59.8689 Y11.2854
G01 X59.8634 Y11.2883
G01 X59.8564 Y11.2908
G01 X59.8503 Y11.2920
G01 X59.7786 Y11.3006
G01 X59.7724 Y11.3010
G01 X59.7625 Y11.2999
G01 X59.7531 Y11.2970
G01 X59.6858 Y11.2644
G01 X59.6805 Y11.2612
G01 X59.6756 Y11.2574
G01 X59.6712 Y11.2530
G01 X59.6674 Y11.2481
G01 X59.6292 Y11.1853
G01 X59.6264 Y11.1801
G01 X59.6239 Y11.1734
G01 X59.6128 Y11.1323
G01 X59.5272 Y10.9486
G01 X59.4109 Y10.7825
G01 X59.2676 Y10.6392
G01 X59.1015 Y10.5229
G01 X58.9178 Y10.4373
G01 X58.7220 Y10.3848
G01 X58.5200 Y10.3671
G01 X58.3181 Y10.3848
G01 X58.1223 Y10.4373
G01 X58.1195 Y10.4386
G01 X57.9386 Y10.5229
G01 X57.7725 Y10.6392
G01 X57.6292 Y10.7825
G01 X57.5129 Y10.9486
G01 X57.4273 Y11.1323
G01 X57.3748 Y11.3281
G01 X57.3571 Y11.5300
G01 X57.3748 Y11.7320
G01 X57.4273 Y11.9278
G01 X57.5129 Y12.1115
G01 X57.5683 Y12.1906
G01 X57.5779 Y12.2059
G01 X57.5801 Y12.2102
G01 X57.5833 Y12.2194
G01 X57.5987 Y12.2899
G01 X57.5996 Y12.2961
G01 X57.5998 Y12.3023
G01 X57.5990 Y12.3097
G01 X57.5971 Y12.3169
G01 X57.5709 Y12.3869
G01 X57.5681 Y12.3924
G01 X57.5647 Y12.3975
G01 X57.5606 Y12.4022
G01 X57.5560 Y12.4064
G01 X57.4971 Y12.4504
G01 X57.4908 Y12.4542
G01 X57.4851 Y12.4567
G01 X57.4791 Y12.4584
G01 X57.4730 Y12.4594
G01 X57.4009 Y12.4646
G01 X57.3935 Y12.4646
G01 X57.3837 Y12.4628
G01 X57.3745 Y12.4592
G01 X57.3101 Y12.4240
G01 X57.3051 Y12.4207
G01 X57.3006 Y12.4169
G01 X56.7798 Y11.8961
G01 X56.7745 Y11.8894
G01 X56.7449 Y11.8449
G01 X56.7411 Y11.8361
G01 X56.7393 Y11.8279
G01 X56.7313 Y11.7562
G01 X56.7310 Y11.7490
G01 X56.7316 Y11.7431
G01 X56.7338 Y11.7320
G01 X56.7515 Y11.5300
G01 X56.7338 Y11.3281
G01 X56.6813 Y11.1323
G01 X56.5969 Y10.9512
G01 X56.5957 Y10.9486
G01 X56.4794 Y10.7825
G01 X56.3360 Y10.6392
G01 X56.1689 Y10.5224
G01 X55.9863 Y10.4373
G01 X55.7905 Y10.3848
G01 X55.5885 Y10.3671
G01 X55.3866 Y10.3848
G01 X55.1908 Y10.4373
G01 X55.1880 Y10.4386
G01 X55.0071 Y10.5229
G01 X54.8410 Y10.6392
G01 X54.6977 Y10.7825
G01 X54.5814 Y10.9486
G01 X54.4962 Y11.1313
G01 X54.4433 Y11.3281
G01 X54.4256 Y11.5300
G01 X54.4433 Y11.7320
G01 X54.4957 Y11.9278
G01 X54.5814 Y12.1115
G01 X54.6977 Y12.2776
G01 X54.8410 Y12.4209
G01 X55.0071 Y12.5372
G01 X55.1908 Y12.6228
G01 X55.3866 Y12.6753
G01 X55.5885 Y12.6930
G01 X55.7905 Y12.6753
G01 X55.7958 Y12.6741
G01 X55.8052 Y12.6727
G01 X55.8611 Y12.6736
G01 X55.8671 Y12.6743
G01 X55.8718 Y12.6755
G01 X55.8807 Y12.6790
G01 X55.9451 Y12.7142
G01 X55.9528 Y12.7197
G01 X59.6650 Y16.4317
G01 X59.6686 Y16.4357
G01 X59.6877 Y16.4596
G01 X59.6919 Y16.4671
G01 X59.6945 Y16.4740
G01 X59.7148 Y16.5432
G01 X59.7160 Y16.5490
G01 X59.7165 Y16.5550
G01 X59.7165 Y17.4620
G01 X59.7145 Y17.4883
G01 X59.7125 Y17.4979
G01 X59.7098 Y17.5048
G01 X59.6776 Y17.5708
G01 X59.6720 Y17.5790
G01 X59.6659 Y17.5851
G01 X59.6598 Y17.5895
G01 X59.5971 Y17.6274
G01 X59.5914 Y17.6297
G01 X59.5866 Y17.6311
G01 X59.4560 Y17.6852
G01 X59.3446 Y17.7707
G01 X59.2590 Y17.8821
G01 X59.2053 Y18.0119
G01 X59.1915 Y18.1162
G01 X59.1915 Y18.2601
G01 X59.1908 Y18.2740
G01 X59.1885 Y18.2836
G01 X59.1628 Y18.3524
G01 X59.1595 Y18.3591
G01 X59.1561 Y18.3643
G01 X59.1520 Y18.3689
G01 X59.1464 Y18.3738
G01 X59.0885 Y18.4171
G01 X59.0799 Y18.4220
G01 X59.0717 Y18.4248
G01 X59.0631 Y18.4262
G01 X58.9911 Y18.4313
G01 X58.9849 Y18.4313
G01 X58.9787 Y18.4304
G01 X58.9716 Y18.4284
G01 X58.9648 Y18.4253
G01 X58.9015 Y18.3907
G01 X58.8965 Y18.3874
G01 X58.8920 Y18.3836
G01 X51.6512 Y11.1428
G01 X51.6408 Y11.1314
G01 X51.6158 Y11.1013
G01 X51.6015 Y11.0907
G01 X51.5854 Y11.0770
G01 X51.5737 Y11.0653
G01 X51.5401 Y11.0454
G01 X51.5292 Y11.0383
G01 X51.4966 Y11.0147
G01 X51.4800 Y11.0079
G01 X51.4611 Y10.9987
G01 X51.4468 Y10.9903
G01 X51.4082 Y10.9790
G01 X51.3958 Y10.9748
G01 X51.3595 Y10.9604
G01 X51.3431 Y10.9582
G01 X51.3224 Y10.9540
G01 X51.3052 Y10.9492
G01 X51.2662 Y10.9479
G01 X51.2499 Y10.9465
G01 X51.2204 Y10.9465
G01 X51.1579 Y10.9445
G01 X51.1505 Y10.9458
G01 X51.1345 Y10.9465
G01 X27.9024 Y10.9465
G01 X27.8960 Y10.9460
G01 X27.8569 Y10.9399
G01 X27.8510 Y10.9385
G01 X27.8453 Y10.9363
G01 X27.8378 Y10.9322
G01 X27.7770 Y10.8913
G01 X27.7724 Y10.8874
G01 X27.7683 Y10.8831
G01 X27.6665 Y10.7606
G01 X27.5134 Y10.6333
G01 X27.3396 Y10.5360
G01 X27.1511 Y10.4720
G01 X26.9540 Y10.4434
G01 X26.7550 Y10.4512
G01 X26.5608 Y10.4952
G01 X26.3778 Y10.5738
G01 X26.2123 Y10.6844
G01 X26.0696 Y10.8234
G01 X25.9547 Y10.9860
G01 X25.8713 Y11.1668
G01 X25.8223 Y11.3598
G01 X25.8093 Y11.5585
G01 X25.8327 Y11.7563
G01 X25.8917 Y11.9465
G01 X25.9845 Y12.1227
G01 X25.9923 Y12.1326
G01 X26.1077 Y12.2791
G01 X26.2575 Y12.4104
G01 X26.4286 Y12.5122
G01 X26.6154 Y12.5811
G01 X26.8117 Y12.6148
G01 X27.0108 Y12.6122
G01 X27.2061 Y12.5734
G01 X27.3911 Y12.4996
G01 X27.5595 Y12.3933
G01 X27.7057 Y12.2582
G01 X27.7633 Y12.1813
G01 X27.7669 Y12.1776
G01 X27.8034 Y12.1438
G01 X27.8107 Y12.1392
G01 X27.8185 Y12.1359
G01 X27.8890 Y12.1153
G01 X27.8948 Y12.1141
G01 X27.9007 Y12.1136
G01 X50.8986 Y12.1136
G01 X50.9040 Y12.1138
G01 X50.9332 Y12.1170
G01 X50.9415 Y12.1191
G01 X50.9494 Y12.1225
G01 X51.0127 Y12.1572
G01 X51.0177 Y12.1604
G01 X51.0231 Y12.1651
G01 X53.3153 Y14.4574
G01 X53.3239 Y14.4668
G01 X53.3293 Y14.4750
G01 X53.3603 Y14.5430
G01 X53.3633 Y14.5524
G01 X53.3643 Y14.5611
G01 X53.3640 Y14.5685
G01 X53.3537 Y14.6400
G01 X53.3525 Y14.6461
G01 X53.3505 Y14.6520
G01 X53.3477 Y14.6575
G01 X53.3436 Y14.6637
G01 X53.2947 Y14.7202
G01 X53.2912 Y14.7237
G01 X53.2863 Y14.7276
G01 X53.2799 Y14.7314
G01 X53.2718 Y14.7345
G01 X53.2026 Y14.7548
G01 X53.1967 Y14.7560
G01 X53.1896 Y14.7565
G01 X28.4790 Y14.7565
G01 X28.4471 Y14.7531
G01 X28.4411 Y14.7517
G01 X28.4353 Y14.7497
G01 X28.3686 Y14.7135
G01 X28.3645 Y14.7111
G01 X28.3598 Y14.7074
G01 X28.0205 Y14.3683
G01 X28.0165 Y14.3634
G01 X27.9917 Y14.3295
G01 X27.9878 Y14.3219
G01 X27.9853 Y14.3138
G01 X27.9713 Y14.2429
G01 X27.9704 Y14.2346
G01 X27.9706 Y14.2287
G01 X27.9853 Y14.0684
G01 X27.9839 Y14.0147
G01 X27.9551 Y13.8160
G01 X27.8911 Y13.6275
G01 X27.7938 Y13.4537
G01 X27.6665 Y13.3006
G01 X27.5134 Y13.1733
G01 X27.3396 Y13.0760
G01 X27.1511 Y13.0120
G01 X26.9540 Y12.9834
G01 X26.7550 Y12.9912
G01 X26.5608 Y13.0352
G01 X26.3778 Y13.1138
G01 X26.2123 Y13.2244
G01 X26.0696 Y13.3634
G01 X25.9547 Y13.5260
G01 X25.8713 Y13.7068
G01 X25.8223 Y13.8998
G01 X25.8093 Y14.0985
G01 X25.8242 Y14.2254
G01 X25.8243 Y14.2314
G01 X25.8218 Y14.2780
G01 X25.8201 Y14.2853
G01 X25.8168 Y14.2934
G01 X25.7822 Y14.3568
G01 X25.7784 Y14.3628
G01 X25.7737 Y14.3682
G01 X23.9347 Y16.2072
G01 X23.9234 Y16.2176
G01 X23.8932 Y16.2425
G01 X23.8826 Y16.2569
G01 X23.8689 Y16.2729
G01 X23.8573 Y16.2846
G01 X23.8374 Y16.3183
G01 X23.8302 Y16.3292
G01 X23.8066 Y16.3618
G01 X23.7999 Y16.3783
G01 X23.7906 Y16.3973
G01 X23.7822 Y16.4115
G01 X23.7709 Y16.4502
G01 X23.7667 Y16.4625
G01 X23.7523 Y16.4989
G01 X23.7502 Y16.5153
G01 X23.7459 Y16.5359
G01 X23.7411 Y16.5531
G01 X23.7398 Y16.5922
G01 X23.7385 Y16.6084
G01 X23.7384 Y16.6379
G01 X23.7365 Y16.7005
G01 X23.7377 Y16.7079
G01 X23.7385 Y16.7239
G01 X23.7385 Y30.1121
G01 X23.7374 Y30.1312
G01 X23.7366 Y30.1359
G01 X23.7349 Y30.1417
G01 X23.7067 Y30.2108
G01 X23.7032 Y30.2174
G01 X23.6996 Y30.2224
G01 X23.6954 Y30.2270
G01 X23.6906 Y30.2309
G01 X23.6315 Y30.2724
G01 X23.6251 Y30.2762
G01 X23.6182 Y30.2790
G01 X23.6122 Y30.2806
G01 X23.6060 Y30.2814
G01 X23.5326 Y30.2843
G01 X23.5239 Y30.2837
G01 X23.5143 Y30.2811
G01 X23.5065 Y30.2774
G01 X23.4453 Y30.2414
G01 X23.4394 Y30.2374
G01 X23.4342 Y30.2326
G01 X23.4007 Y30.1968
G01 X23.3627 Y30.1513
G01 X23.3583 Y30.1480
G01 X23.3396 Y30.1316
G01 X23.3349 Y30.1269
G01 X23.2915 Y30.0993
G01 X23.2434 Y30.0647
G01 X23.2383 Y30.0625
G01 X23.2162 Y30.0512
G01 X23.2105 Y30.0479
G01 X23.1541 Y30.0293
G01 X23.1073 Y30.0106
G01 X23.1018 Y30.0075
G01 X23.0591 Y29.9794
G01 X23.0530 Y29.9748
G01 X20.1457 Y27.0674
G01 X20.1191 Y27.0315
G01 X20.1159 Y27.0263
G01 X20.1134 Y27.0207
G01 X20.1110 Y27.0126
G01 X20.0968 Y26.9394
G01 X20.0964 Y26.9346
G01 X20.0966 Y26.9287
G01 X20.1113 Y26.7684
G01 X20.1099 Y26.7147
G01 X20.0811 Y26.5160
G01 X20.0171 Y26.3275
G01 X19.9198 Y26.1537
G01 X19.7925 Y26.0006
G01 X19.6394 Y25.8733
G01 X19.4656 Y25.7760
G01 X19.2759 Y25.7118
G01 X19.0800 Y25.6834
G01 X18.8810 Y25.6912
G01 X18.6868 Y25.7352
G01 X18.5038 Y25.8138
G01 X18.3383 Y25.9244
G01 X18.1956 Y26.0634
G01 X18.0807 Y26.2260
G01 X17.9973 Y26.4068
G01 X17.9483 Y26.5998
G01 X17.9353 Y26.7985
G01 X17.9502 Y26.9254
G01 X17.9503 Y26.9314
G01 X17.9478 Y26.9780
G01 X17.9458 Y26.9865
G01 X17.9428 Y26.9934
G01 X17.9082 Y27.0568
G01 X17.9029 Y27.0647
G01 X14.4085 Y30.5594
G01 X14.3978 Y30.5692
G01 X14.3938 Y30.5721
G01 X14.3884 Y30.5751
G01 X14.3228 Y30.6052
G01 X14.3158 Y30.6077
G01 X14.3097 Y30.6091
G01 X14.3035 Y30.6096
G01 X14.2961 Y30.6093
G01 X14.2221 Y30.5986
G01 X14.2173 Y30.5975
G01 X14.2115 Y30.5953
G01 X14.2071 Y30.5931
G01 X14.2019 Y30.5897
G01 X14.1453 Y30.5409
G01 X14.1409 Y30.5365
G01 X14.1370 Y30.5317
G01 X14.1338 Y30.5264
G01 X14.1308 Y30.5195
G01 X14.1098 Y30.4479
G01 X14.1086 Y30.4421
G01 X14.1081 Y30.4361
G01 X14.1078 Y29.6826
G01 X14.1028 Y29.6362
G01 X14.1006 Y29.6271
G01 X14.0578 Y29.5129
G01 X14.0527 Y29.5035
G01 X14.0289 Y29.4718
G01 X13.7000 Y29.8006
G01 X13.7000 Y31.4313
G01 X13.6997 Y31.4362
G01 X13.6986 Y31.4422
G01 X13.6967 Y31.4480
G01 X13.6941 Y31.4536
G01 X13.6909 Y31.4588
G01 X13.6871 Y31.4636
G01 X13.6827 Y31.4679
G01 X13.6788 Y31.4709
G01 X13.6725 Y31.4747
G01 X13.6646 Y31.4779
G01 X13.6574 Y31.4795
G01 X13.6500 Y31.4800
G01 X11.9501 Y31.4800
G01 X11.9427 Y31.4795
G01 X11.9367 Y31.4782
G01 X11.9287 Y31.4752
G01 X11.9223 Y31.4716
G01 X11.9165 Y31.4671
G01 X11.9114 Y31.4618
G01 X11.9065 Y31.4547
G01 X11.9034 Y31.4480
G01 X11.9013 Y31.4410
G01 X11.9002 Y31.4337
G01 X11.9000 Y30.8840
G01 X11.4920 Y30.8840
G01 X11.4923 Y31.4775
G01 X11.4973 Y31.5239
G01 X11.4995 Y31.5330
G01 X11.5423 Y31.6472
G01 X11.5474 Y31.6566
G01 X11.6196 Y31.7529
G01 X11.6272 Y31.7605
G01 X11.7235 Y31.8327
G01 X11.7329 Y31.8378
G01 X11.8400 Y31.8781
G01 X11.8452 Y31.8809
G01 X11.8855 Y31.9054
G01 X11.8925 Y31.9105
G01 X11.8977 Y31.9159
G01 X11.9014 Y31.9209
G01 X11.9405 Y31.9846
G01 X11.9431 Y31.9902
G01 X11.9450 Y31.9961
G01 X11.9460 Y32.0010
G01 X11.9466 Y32.0072
G01 X11.9450 Y32.0831
G01 X11.9444 Y32.0881
G01 X11.9430 Y32.0941
G01 X11.9413 Y32.0988
G01 X11.9386 Y32.1043
G01 X11.8941 Y32.1702
G01 X11.8892 Y32.1754
G01 X11.8814 Y32.1820
G01 X11.7405 Y32.3446
G01 X11.6281 Y32.5281
G01 X11.5471 Y32.7274
G01 X11.4998 Y32.9373
G01 X11.4875 Y33.1521
G01 X11.5103 Y33.3661
G01 X11.5678 Y33.5734
G01 X11.6584 Y33.7686
G01 X11.7797 Y33.9463
G01 X11.9283 Y34.1019
G01 X11.9328 Y34.1053
G01 X12.1004 Y34.2311
G01 X12.2912 Y34.3304
G01 X12.4958 Y34.3973
G01 X12.7085 Y34.4298
G01 X12.9247 Y34.4270
G01 X13.1354 Y34.3895
G01 X13.3383 Y34.3177
G01 X13.5275 Y34.2130
G01 X13.6955 Y34.0803
G01 X13.8403 Y33.9212
G01 X13.9572 Y33.7405
G01 X14.0430 Y33.5432
G01 X14.0954 Y33.3345
G01 X14.1132 Y33.1186
G01 X14.1117 Y33.0573
G01 X14.0834 Y32.8426
G01 X14.0424 Y32.7076
G01 X14.0409 Y32.7014
G01 X14.0403 Y32.6951
G01 X14.0377 Y32.6304
G01 X14.0379 Y32.6243
G01 X14.0390 Y32.6183
G01 X14.0403 Y32.6135
G01 X14.0426 Y32.6079
G01 X14.0778 Y32.5434
G01 X14.0824 Y32.5364
G01 X14.0863 Y32.5320
G01 X17.6557 Y28.9626
G01 X17.6608 Y28.9581
G01 X17.6953 Y28.9332
G01 X17.7006 Y28.9301
G01 X17.7063 Y28.9276
G01 X17.7146 Y28.9253
G01 X17.7845 Y28.9126
G01 X17.7919 Y28.9118
G01 X17.7981 Y28.9120
G01 X17.8042 Y28.9130
G01 X17.8114 Y28.9151
G01 X17.8781 Y28.9427
G01 X17.8837 Y28.9454
G01 X17.8889 Y28.9488
G01 X17.8936 Y28.9528
G01 X17.8978 Y28.9573
G01 X17.9407 Y29.0186
G01 X17.9450 Y29.0261
G01 X17.9479 Y29.0343
G01 X17.9494 Y29.0428
G01 X17.9522 Y29.1198
G01 X17.9512 Y29.1281
G01 X17.9483 Y29.1398
G01 X17.9353 Y29.3385
G01 X17.9587 Y29.5363
G01 X18.0177 Y29.7265
G01 X18.1105 Y29.9027
G01 X18.2337 Y30.0591
G01 X18.3835 Y30.1904
G01 X18.5546 Y30.2922
G01 X18.7414 Y30.3611
G01 X18.9377 Y30.3948
G01 X19.1368 Y30.3922
G01 X19.3321 Y30.3534
G01 X19.5171 Y30.2796
G01 X19.6855 Y30.1733
G01 X19.8317 Y30.0382
G01 X19.9508 Y29.8786
G01 X20.0389 Y29.7000
G01 X20.0930 Y29.5083
G01 X20.1113 Y29.3084
G01 X20.1099 Y29.2547
G01 X20.0887 Y29.1081
G01 X20.0874 Y29.0733
G01 X20.0882 Y29.0660
G01 X20.0901 Y29.0588
G01 X20.1163 Y28.9889
G01 X20.1184 Y28.9844
G01 X20.1218 Y28.9792
G01 X20.1257 Y28.9744
G01 X20.1303 Y28.9701
G01 X20.1901 Y28.9253
G01 X20.1953 Y28.9221
G01 X20.2010 Y28.9195
G01 X20.2069 Y28.9176
G01 X20.2142 Y28.9163
G01 X20.2875 Y28.9111
G01 X20.2925 Y28.9111
G01 X20.2986 Y28.9118
G01 X20.3035 Y28.9129
G01 X20.3093 Y28.9150
G01 X20.3771 Y28.9517
G01 X20.3830 Y28.9557
G01 X20.3875 Y28.9597
G01 X22.3250 Y30.8972
G01 X22.3462 Y30.9231
G01 X22.3514 Y30.9314
G01 X22.3545 Y30.9394
G01 X22.3748 Y31.0087
G01 X22.3762 Y31.0157
G01 X22.3765 Y31.0216
G01 X22.3765 Y49.6268
G01 X22.3752 Y49.6361
G01 X22.3608 Y49.6956
G01 X22.3592 Y49.7003
G01 X22.3565 Y49.7059
G01 X22.3509 Y49.7140
G01 X22.3005 Y49.7675
G01 X22.2952 Y49.7723
G01 X22.2893 Y49.7764
G01 X22.2070 Y49.8245
G01 X22.0414 Y49.9620
G01 X21.9005 Y50.1246
G01 X21.7881 Y50.3081
G01 X21.7071 Y50.5074
G01 X21.6598 Y50.7173
G01 X21.6475 Y50.9321
G01 X21.6703 Y51.1461
G01 X21.6903 Y51.2182
G01 X21.6918 Y51.2254
G01 X21.6939 Y51.2918
G01 X21.6932 Y51.3002
G01 X21.6911 Y51.3083
G01 X21.6877 Y51.3160
G01 X21.6537 Y51.3783
G01 X21.6506 Y51.3834
G01 X21.6468 Y51.3880
G01 X21.3978 Y51.6371
G01 X21.3864 Y51.6475
G01 X21.3563 Y51.6724
G01 X21.3457 Y51.6868
G01 X21.3320 Y51.7028
G01 X21.3203 Y51.7146
G01 X21.3004 Y51.7482
G01 X21.2933 Y51.7591
G01 X21.2697 Y51.7917
G01 X21.2629 Y51.8083
G01 X21.2537 Y51.8272
G01 X21.2453 Y51.8415
G01 X21.2340 Y51.8801
G01 X21.2298 Y51.8924
G01 X21.2154 Y51.9288
G01 X21.2132 Y51.9452
G01 X21.2090 Y51.9658
G01 X21.2042 Y51.9830
G01 X21.2029 Y52.0221
G01 X21.2015 Y52.0383
G01 X21.2015 Y52.0678
G01 X21.1995 Y52.1304
G01 X21.2008 Y52.1378
G01 X21.2015 Y52.1538
G01 X21.2015 Y54.0809
G01 X21.2009 Y54.0963
G01 X21.1972 Y54.1352
G01 X21.1998 Y54.1529
G01 X21.2015 Y54.1739
G01 X21.2015 Y54.1905
G01 X21.2115 Y54.2295
G01 X21.2141 Y54.2422
G01 X21.2203 Y54.2808
G01 X21.2268 Y54.2961
G01 X21.2336 Y54.3160
G01 X21.2382 Y54.3333
G01 X21.2576 Y54.3686
G01 X21.2633 Y54.3803
G01 X21.2788 Y54.4161
G01 X21.2889 Y54.4293
G01 X21.3005 Y54.4469
G01 X21.3092 Y54.4624
G01 X21.3360 Y54.4909
G01 X21.3465 Y54.5034
G01 X21.3673 Y54.5243
G01 X21.4102 Y54.5699
G01 X21.4163 Y54.5743
G01 X21.4281 Y54.5850
G01 X21.8595 Y55.0165
G01 X21.8795 Y55.0407
G01 X21.8832 Y55.0468
G01 X21.8864 Y55.0546
G01 X21.9082 Y55.1234
G01 X21.9096 Y55.1295
G01 X21.9102 Y55.1369
G01 X21.9099 Y55.1431
G01 X21.9088 Y55.1492
G01 X21.8893 Y55.2212
G01 X21.8871 Y55.2268
G01 X21.8843 Y55.2320
G01 X21.7902 Y55.3856
G01 X21.7874 Y55.3912
G01 X21.7088 Y55.5847
G01 X21.7069 Y55.5906
G01 X21.6877 Y55.6761
G01 X22.1140 Y55.6760
G01 X22.1290 Y55.6345
G01 X22.1658 Y55.5569
G01 X22.2111 Y55.4811
G01 X22.2643 Y55.4091
G01 X22.3228 Y55.3445
G01 X22.3891 Y55.2843
G01 X22.4600 Y55.2317
G01 X22.5358 Y55.1863
G01 X22.6179 Y55.1477
G01 X22.6988 Y55.1188
G01 X22.7845 Y55.0973
G01 X22.8718 Y55.0844
G01 X22.9576 Y55.0801
G01 X23.0507 Y55.0847
G01 X23.1356 Y55.0973
G01 X23.2236 Y55.1196
G01 X23.3045 Y55.1486
G01 X23.3864 Y55.1875
G01 X23.4601 Y55.2317
G01 X23.5291 Y55.2828
G01 X23.5947 Y55.3420
G01 X23.6558 Y55.4091
G01 X23.7084 Y55.4800
G01 X23.7538 Y55.5558
G01 X23.7915 Y55.6356
G01 X23.8213 Y55.7188
G01 X23.8432 Y55.8069
G01 X23.8559 Y55.8943
G01 X23.8600 Y55.9800
G01 X23.8559 Y56.0658
G01 X23.8428 Y56.1556
G01 X23.8213 Y56.2413
G01 X23.7915 Y56.3245
G01 X23.7532 Y56.4054
G01 X23.7084 Y56.4801
G01 X23.6558 Y56.5510
G01 X23.5964 Y56.6164
G01 X23.5310 Y56.6758
G01 X23.4601 Y56.7284
G01 X23.3843 Y56.7738
G01 X23.3045 Y56.8115
G01 X23.2213 Y56.8413
G01 X23.1356 Y56.8628
G01 X23.0483 Y56.8757
G01 X22.9600 Y56.8800
G01 X22.8718 Y56.8757
G01 X22.7845 Y56.8628
G01 X22.6988 Y56.8413
G01 X22.6156 Y56.8115
G01 X22.5369 Y56.7743
G01 X22.4600 Y56.7284
G01 X22.3891 Y56.6758
G01 X22.3237 Y56.6164
G01 X22.2651 Y56.5519
G01 X22.2117 Y56.4801
G01 X22.1669 Y56.4054
G01 X22.1290 Y56.3256
G01 X22.1140 Y56.2840
G01 X21.6181 Y56.2839
G01 X21.5876 Y56.2806
G01 X21.5816 Y56.2792
G01 X21.5758 Y56.2772
G01 X21.5091 Y56.2410
G01 X21.5012 Y56.2357
G01 X19.6581 Y54.3929
G01 X19.6545 Y54.3889
G01 X19.6361 Y54.3660
G01 X19.6322 Y54.3598
G01 X19.6293 Y54.3530
G01 X19.6083 Y54.2814
G01 X19.6069 Y54.2744
G01 X19.6066 Y54.2685
G01 X19.6066 Y43.2571
G01 X19.6095 Y43.2279
G01 X19.6110 Y43.2209
G01 X19.6131 Y43.2153
G01 X19.6486 Y43.1469
G01 X19.6545 Y43.1389
G01 X19.6608 Y43.1329
G01 X19.6670 Y43.1288
G01 X19.7321 Y43.0918
G01 X19.7389 Y43.0893
G01 X19.7467 Y43.0878
G01 X19.8705 Y43.0414
G01 X19.9756 Y42.9626
G01 X20.0544 Y42.8575
G01 X20.1008 Y42.7337
G01 X20.1066 Y42.6805
G01 X20.1066 Y41.3396
G01 X20.1008 Y41.2864
G01 X20.0544 Y41.1626
G01 X19.9756 Y41.0575
G01 X19.8705 Y40.9787
G01 X19.7467 Y40.9323
G01 X19.6935 Y40.9265
G01 X18.3526 Y40.9265
G01 X18.2994 Y40.9323
G01 X18.1756 Y40.9787
G01 X18.0705 Y41.0575
G01 X17.9917 Y41.1626
G01 X17.9453 Y41.2864
G01 X17.9395 Y41.3396
G01 X17.9395 Y42.6805
G01 X17.9453 Y42.7337
G01 X17.9917 Y42.8575
G01 X18.0705 Y42.9626
G01 X18.1756 Y43.0414
G01 X18.2994 Y43.0878
G01 X18.3046 Y43.0886
G01 X18.3094 Y43.0898
G01 X18.3333 Y43.0980
G01 X18.3398 Y43.1010
G01 X18.3468 Y43.1056
G01 X18.4032 Y43.1545
G01 X18.4075 Y43.1589
G01 X18.4119 Y43.1649
G01 X18.4154 Y43.1715
G01 X18.4175 Y43.1773
G01 X18.4378 Y43.2466
G01 X18.4389 Y43.2513
G01 X18.4395 Y43.2572
G01 X18.4395 Y54.5472
G01 X18.4389 Y54.5626
G01 X18.4352 Y54.6015
G01 X18.4378 Y54.6192
G01 X18.4395 Y54.6402
G01 X18.4395 Y54.6568
G01 X18.4495 Y54.6958
G01 X18.4521 Y54.7085
G01 X18.4583 Y54.7471
G01 X18.4648 Y54.7624
G01 X18.4716 Y54.7823
G01 X18.4762 Y54.7996
G01 X18.4956 Y54.8349
G01 X18.5013 Y54.8466
G01 X18.5168 Y54.8824
G01 X18.5269 Y54.8956
G01 X18.5385 Y54.9132
G01 X18.5472 Y54.9287
G01 X18.5740 Y54.9572
G01 X18.5845 Y54.9697
G01 X18.6053 Y54.9906
G01 X18.6482 Y55.0362
G01 X18.6543 Y55.0406
G01 X18.6662 Y55.0513
G01 X21.1571 Y57.5423
G01 X21.1675 Y57.5537
G01 X21.1924 Y57.5838
G01 X21.2068 Y57.5944
G01 X21.2228 Y57.6081
G01 X21.2346 Y57.6198
G01 X21.2587 Y57.6341
G01 X21.2635 Y57.6373
G01 X21.2973 Y57.6655
G01 X21.3026 Y57.6708
G01 X21.3063 Y57.6757
G01 X21.3093 Y57.6811
G01 X21.3403 Y57.7491
G01 X21.3423 Y57.7550
G01 X21.3434 Y57.7611
G01 X21.3439 Y57.7673
G01 X21.3435 Y57.7735
G01 X21.3331 Y57.8462
G01 X21.3316 Y57.8523
G01 X21.3290 Y57.8592
G01 X21.3260 Y57.8647
G01 X21.3223 Y57.8697
G01 X21.2716 Y57.9279
G01 X21.2678 Y57.9311
G01 X21.2627 Y57.9346
G01 X21.2572 Y57.9374
G01 X21.2525 Y57.9392
G01 X21.1821 Y57.9598
G01 X21.1751 Y57.9612
G01 X21.1691 Y57.9615
G01 X0.8345 Y57.9615
G01 X0.8251 Y57.9606
G01 X0.7704 Y57.9487
G01 X0.7632 Y57.9464
G01 X0.7555 Y57.9424
G01 X0.7495 Y57.9380
G01 X0.6949 Y57.8906
G01 X0.6906 Y57.8862
G01 X0.6862 Y57.8802
G01 X0.6832 Y57.8747
G01 X0.6809 Y57.8689
G01 X0.6606 Y57.7996
G01 X0.6591 Y57.7927
G01 X0.6586 Y57.7855
G01 X0.6586 Y0.8345
G01 X0.6589 Y0.8286
G01 X0.6597 Y0.8239
G00 Z2.0000
G00 X3.7190 Y18.0536
G01 F60.00
G01 Z-0.0000
G01 F120.00
G01 X3.7190 Y17.6456
G01 X4.0384 Y17.6456
G01 X4.0889 Y17.6508
G01 X4.0980 Y17.6530
G01 X4.2122 Y17.6958
G01 X4.2216 Y17.7009
G01 X4.3179 Y17.7732
G01 X4.3255 Y17.7807
G01 X4.3977 Y17.8770
G01 X4.4028 Y17.8864
G01 X4.4456 Y18.0006
G01 X4.4478 Y18.0097
G01 X4.4531 Y18.0602
G01 X4.4531 Y18.7096
G01 X4.0450 Y18.7096
G01 X4.0450 Y18.1036
G01 X4.0447 Y18.0974
G01 X4.0438 Y18.0926
G01 X4.0421 Y18.0867
G01 X4.0397 Y18.0811
G01 X4.0366 Y18.0758
G01 X4.0329 Y18.0709
G01 X4.0277 Y18.0657
G01 X4.0228 Y18.0620
G01 X4.0175 Y18.0589
G01 X4.0119 Y18.0565
G01 X4.0048 Y18.0545
G01 X3.9987 Y18.0537
G01 X3.7190 Y18.0536
G00 Z2.0000
G00 X2.3771 Y18.7096
G01 F60.00
G01 Z-0.0000
G01 F120.00
G01 X2.3773 Y18.0561
G01 X2.3823 Y18.0097
G01 X2.3845 Y18.0006
G01 X2.4273 Y17.8864
G01 X2.4324 Y17.8770
G01 X2.5046 Y17.7807
G01 X2.5122 Y17.7732
G01 X2.6085 Y17.7009
G01 X2.6179 Y17.6958
G01 X2.7321 Y17.6530
G01 X2.7412 Y17.6508
G01 X2.7917 Y17.6456
G01 X3.1111 Y17.6456
G01 X3.1111 Y18.0536
G01 X2.8301 Y18.0538
G01 X2.8229 Y18.0551
G01 X2.8159 Y18.0574
G01 X2.8093 Y18.0607
G01 X2.8033 Y18.0649
G01 X2.7980 Y18.0700
G01 X2.7935 Y18.0758
G01 X2.7899 Y18.0822
G01 X2.7872 Y18.0890
G01 X2.7856 Y18.0962
G01 X2.7851 Y18.1036
G01 X2.7851 Y18.7096
G01 X2.3771 Y18.7096
G00 Z2.0000
G00 X2.3770 Y19.3176
G01 F60.00
G01 Z-0.0000
G01 F120.00
G01 X2.7850 Y19.3176
G01 X2.7851 Y19.9236
G01 X2.7856 Y19.9309
G01 X2.7872 Y19.9381
G01 X2.7899 Y19.9449
G01 X2.7935 Y19.9513
G01 X2.7980 Y19.9571
G01 X2.8033 Y19.9622
G01 X2.8093 Y19.9664
G01 X2.8159 Y19.9698
G01 X2.8229 Y19.9721
G01 X2.8301 Y19.9733
G01 X3.1110 Y19.9736
G01 X3.1111 Y20.3816
G01 X2.7917 Y20.3816
G01 X2.7412 Y20.3763
G01 X2.7321 Y20.3741
G01 X2.6179 Y20.3313
G01 X2.6085 Y20.3262
G01 X2.5122 Y20.2540
G01 X2.5046 Y20.2465
G01 X2.4324 Y20.1501
G01 X2.4273 Y20.1407
G01 X2.3845 Y20.0266
G01 X2.3823 Y20.0174
G01 X2.3773 Y19.9710
G01 X2.3770 Y19.3176
G00 Z2.0000
G00 X3.7190 Y20.3816
G01 F60.00
G01 Z-0.0000
G01 F120.00
G01 X3.7190 Y19.9736
G01 X4.0000 Y19.9733
G01 X4.0072 Y19.9721
G01 X4.0142 Y19.9698
G01 X4.0208 Y19.9664
G01 X4.0268 Y19.9622
G01 X4.0321 Y19.9571
G01 X4.0366 Y19.9513
G01 X4.0402 Y19.9449
G01 X4.0429 Y19.9381
G01 X4.0445 Y19.9309
G01 X4.0450 Y19.9236
G01 X4.0450 Y19.3176
G01 X4.4530 Y19.3176
G01 X4.4528 Y19.9710
G01 X4.4478 Y20.0174
G01 X4.4456 Y20.0266
G01 X4.4028 Y20.1407
G01 X4.3977 Y20.1501
G01 X4.3255 Y20.2465
G01 X4.3179 Y20.2540
G01 X4.2216 Y20.3262
G01 X4.2122 Y20.3313
G01 X4.0980 Y20.3741
G01 X4.0889 Y20.3763
G01 X4.0384 Y20.3816
G01 X3.7190 Y20.3816
G00 Z2.0000
G00 X3.6990 Y21.3677
G01 F60.00
G01 Z-0.0000
G01 F120.00
G01 X3.6990 Y20.9597
G01 X4.0184 Y20.9597
G01 X4.0689 Y20.9650
G01 X4.0780 Y20.9672
G01 X4.1922 Y21.0100
G01 X4.2016 Y21.0151
G01 X4.2979 Y21.0873
G01 X4.3055 Y21.0948
G01 X4.3777 Y21.1912
G01 X4.3828 Y21.2006
G01 X4.4256 Y21.3147
G01 X4.4278 Y21.3239
G01 X4.4331 Y21.3744
G01 X4.4331 Y22.0237
G01 X4.0250 Y22.0237
G01 X4.0250 Y21.4177
G01 X4.0247 Y21.4116
G01 X4.0236 Y21.4056
G01 X4.0221 Y21.4009
G01 X4.0197 Y21.3952
G01 X4.0166 Y21.3900
G01 X4.0121 Y21.3842
G01 X4.0077 Y21.3799
G01 X4.0028 Y21.3762
G01 X3.9975 Y21.3731
G01 X3.9919 Y21.3707
G01 X3.9848 Y21.3687
G01 X3.9787 Y21.3679
G01 X3.6990 Y21.3677
G00 Z2.0000
G00 X2.3571 Y22.0237
G01 F60.00
G01 Z-0.0000
G01 F120.00
G01 X2.3573 Y21.3703
G01 X2.3623 Y21.3239
G01 X2.3645 Y21.3147
G01 X2.4073 Y21.2006
G01 X2.4124 Y21.1912
G01 X2.4846 Y21.0948
G01 X2.4922 Y21.0873
G01 X2.5885 Y21.0151
G01 X2.5979 Y21.0100
G01 X2.7121 Y20.9672
G01 X2.7212 Y20.9650
G01 X2.7717 Y20.9597
G01 X3.0911 Y20.9597
G01 X3.0911 Y21.3677
G01 X2.8101 Y21.3680
G01 X2.8029 Y21.3692
G01 X2.7959 Y21.3715
G01 X2.7893 Y21.3748
G01 X2.7833 Y21.3791
G01 X2.7780 Y21.3842
G01 X2.7735 Y21.3900
G01 X2.7699 Y21.3964
G01 X2.7672 Y21.4032
G01 X2.7656 Y21.4104
G01 X2.7651 Y21.4177
G01 X2.7651 Y22.0237
G01 X2.3571 Y22.0237
G00 Z2.0000
G00 X2.3570 Y22.6317
G01 F60.00
G01 Z-0.0000
G01 F120.00
G01 X2.7650 Y22.6317
G01 X2.7651 Y23.2377
G01 X2.7656 Y23.2451
G01 X2.7672 Y23.2522
G01 X2.7699 Y23.2591
G01 X2.7735 Y23.2655
G01 X2.7780 Y23.2713
G01 X2.7833 Y23.2764
G01 X2.7893 Y23.2806
G01 X2.7959 Y23.2839
G01 X2.8029 Y23.2862
G01 X2.8101 Y23.2875
G01 X3.0910 Y23.2877
G01 X3.0911 Y23.6957
G01 X2.7717 Y23.6957
G01 X2.7212 Y23.6905
G01 X2.7121 Y23.6883
G01 X2.5979 Y23.6455
G01 X2.5885 Y23.6404
G01 X2.4922 Y23.5681
G01 X2.4846 Y23.5606
G01 X2.4124 Y23.4642
G01 X2.4073 Y23.4549
G01 X2.3645 Y23.3407
G01 X2.3623 Y23.3316
G01 X2.3573 Y23.2852
G01 X2.3570 Y22.6317
G00 Z2.0000
G00 X3.6990 Y23.6957
G01 F60.00
G01 Z-0.0000
G01 F120.00
G01 X3.6990 Y23.2877
G01 X3.9800 Y23.2875
G01 X3.9872 Y23.2862
G01 X3.9942 Y23.2839
G01 X4.0008 Y23.2806
G01 X4.0068 Y23.2764
G01 X4.0121 Y23.2713
G01 X4.0166 Y23.2655
G01 X4.0202 Y23.2591
G01 X4.0229 Y23.2522
G01 X4.0245 Y23.2451
G01 X4.0250 Y23.2377
G01 X4.0250 Y22.6317
G01 X4.4330 Y22.6317
G01 X4.4328 Y23.2852
G01 X4.4278 Y23.3316
G01 X4.4256 Y23.3407
G01 X4.3828 Y23.4549
G01 X4.3777 Y23.4642
G01 X4.3055 Y23.5606
G01 X4.2979 Y23.5681
G01 X4.2016 Y23.6404
G01 X4.1922 Y23.6455
G01 X4.0780 Y23.6883
G01 X4.0689 Y23.6905
G01 X4.0184 Y23.6957
G01 X3.6990 Y23.6957
G00 Z2.0000
G00 X5.7651 Y21.3677
G01 F60.00
G01 Z-0.0000
G01 F120.00
G01 X6.9250 Y21.3677
G01 X6.9348 Y21.3687
G01 X6.9442 Y21.3715
G01 X6.9528 Y21.3762
G01 X6.9604 Y21.3824
G01 X6.9666 Y21.3900
G01 X6.9712 Y21.3986
G01 X6.9741 Y21.4080
G01 X6.9750 Y21.4177
G01 X6.9750 Y22.6050
G01 X12.0201 Y22.6050
G01 X12.0345 Y22.5478
G01 X12.0609 Y22.4739
G01 X12.0945 Y22.4029
G01 X12.1336 Y22.3377
G01 X12.1832 Y22.2707
G01 X12.2344 Y22.2144
G01 X12.2925 Y22.1616
G01 X12.3556 Y22.1149
G01 X12.4229 Y22.0745
G01 X12.4939 Y22.0409
G01 X12.5655 Y22.0153
G01 X12.6464 Y21.9950
G01 X12.7216 Y21.9839
G01 X12.8000 Y21.9801
G01 X12.8785 Y21.9839
G01 X12.9537 Y21.9950
G01 X13.0346 Y22.0153
G01 X13.1062 Y22.0409
G01 X13.1772 Y22.0745
G01 X13.2445 Y22.1149
G01 X13.3076 Y22.1616
G01 X13.3657 Y22.2144
G01 X13.4169 Y22.2707
G01 X13.4665 Y22.3377
G01 X13.5056 Y22.4029
G01 X13.5392 Y22.4739
G01 X13.5656 Y22.5478
G01 X13.5800 Y22.6050
G01 X17.8605 Y22.6050
G01 X18.4388 Y22.0267
G01 X18.4272 Y22.0072
G01 X18.3999 Y21.9495
G01 X18.3775 Y21.8872
G01 X18.3610 Y21.8217
G01 X18.3514 Y21.7574
G01 X18.3481 Y21.6900
G01 X18.3513 Y21.6239
G01 X18.3610 Y21.5584
G01 X18.3768 Y21.4953
G01 X18.3994 Y21.4317
G01 X18.4278 Y21.3719
G01 X18.4618 Y21.3150
G01 X18.5013 Y21.2618
G01 X18.5458 Y21.2128
G01 X18.5948 Y21.1683
G01 X18.6480 Y21.1288
G01 X18.7059 Y21.0942
G01 X18.7670 Y21.0655
G01 X18.8271 Y21.0441
G01 X18.8890 Y21.0286
G01 X18.9569 Y21.0183
G01 X19.0255 Y21.0151
G01 X19.0892 Y21.0183
G01 X19.1523 Y21.0276
G01 X19.2190 Y21.0441
G01 X19.2836 Y21.0674
G01 X19.3412 Y21.0948
G01 X19.3960 Y21.1275
G01 X19.4513 Y21.1683
G01 X19.5020 Y21.2145
G01 X19.5448 Y21.2618
G01 X19.5829 Y21.3130
G01 X19.6183 Y21.3719
G01 X19.6476 Y21.4340
G01 X19.6690 Y21.4941
G01 X19.6845 Y21.5560
G01 X19.6948 Y21.6239
G01 X19.6980 Y21.6913
G01 X19.6945 Y21.7586
G01 X19.6851 Y21.8217
G01 X19.6696 Y21.8836
G01 X19.6467 Y21.9484
G01 X19.6183 Y22.0082
G01 X19.5843 Y22.0651
G01 X19.5432 Y22.1201
G01 X19.5003 Y22.1673
G01 X19.4531 Y22.2102
G01 X19.4001 Y22.2499
G01 X19.3391 Y22.2865
G01 X19.2814 Y22.3137
G01 X19.2190 Y22.3360
G01 X19.1523 Y22.3525
G01 X19.0892 Y22.3618
G01 X19.0243 Y22.3650
G01 X18.9545 Y22.3615
G01 X18.8914 Y22.3521
G01 X18.8283 Y22.3363
G01 X18.7636 Y22.3132
G01 X18.7059 Y22.2859
G01 X18.6864 Y22.2743
G01 X18.0560 Y22.9047
G01 X18.0422 Y22.9169
G01 X18.0303 Y22.9256
G01 X18.0177 Y22.9332
G01 X18.0000 Y22.9418
G01 X17.9827 Y22.9479
G01 X17.9672 Y22.9517
G01 X17.9526 Y22.9540
G01 X17.9330 Y22.9551
G01 X13.5800 Y22.9551
G01 X13.5656 Y23.0123
G01 X13.5392 Y23.0862
G01 X13.5056 Y23.1572
G01 X13.4665 Y23.2224
G01 X13.4169 Y23.2894
G01 X13.3657 Y23.3457
G01 X13.3066 Y23.3992
G01 X13.2445 Y23.4452
G01 X13.1772 Y23.4856
G01 X13.1062 Y23.5192
G01 X13.0346 Y23.5448
G01 X12.9537 Y23.5651
G01 X12.8785 Y23.5762
G01 X12.7988 Y23.5800
G01 X12.7216 Y23.5762
G01 X12.6440 Y23.5647
G01 X12.5678 Y23.5456
G01 X12.4962 Y23.5200
G01 X12.4208 Y23.4844
G01 X12.3556 Y23.4452
G01 X12.2925 Y23.3985
G01 X12.2344 Y23.3457
G01 X12.1832 Y23.2894
G01 X12.1336 Y23.2224
G01 X12.0945 Y23.1572
G01 X12.0609 Y23.0862
G01 X12.0345 Y23.0123
G01 X12.0201 Y22.9551
G01 X6.9750 Y22.9551
G01 X6.9748 Y23.2426
G01 X6.9732 Y23.2511
G01 X6.9708 Y23.2580
G01 X6.9673 Y23.2645
G01 X6.9629 Y23.2704
G01 X6.9577 Y23.2756
G01 X6.9518 Y23.2800
G01 X6.9453 Y23.2834
G01 X6.9384 Y23.2859
G01 X6.9312 Y23.2874
G01 X6.9250 Y23.2877
G01 X5.7651 Y23.2877
G01 X5.7577 Y23.2872
G01 X5.7505 Y23.2856
G01 X5.7426 Y23.2824
G01 X5.7363 Y23.2786
G01 X5.7306 Y23.2739
G01 X5.7249 Y23.2675
G01 X5.7210 Y23.2613
G01 X5.7176 Y23.2534
G01 X5.7158 Y23.2463
G01 X5.7151 Y23.2390
G01 X5.7151 Y21.4177
G01 X5.7160 Y21.4080
G01 X5.7189 Y21.3986
G01 X5.7235 Y21.3900
G01 X5.7297 Y21.3824
G01 X5.7373 Y21.3762
G01 X5.7459 Y21.3715
G01 X5.7553 Y21.3687
G01 X5.7651 Y21.3677
G00 Z2.0000
G00 X7.3314 Y23.4602
G01 F60.00
G01 Z-0.0000
G01 F120.00
G01 X7.2526 Y23.5653
G01 X7.1475 Y23.6440
G01 X7.0237 Y23.6904
G01 X6.9705 Y23.6962
G01 X5.7196 Y23.6962
G01 X5.6664 Y23.6904
G01 X5.5426 Y23.6440
G01 X5.4375 Y23.5653
G01 X5.3587 Y23.4602
G01 X5.3123 Y23.3364
G01 X5.3065 Y23.2832
G01 X5.3065 Y21.3723
G01 X5.3123 Y21.3191
G01 X5.3587 Y21.1953
G01 X5.4375 Y21.0902
G01 X5.5426 Y21.0114
G01 X5.6664 Y20.9650
G01 X5.7196 Y20.9592
G01 X6.9705 Y20.9592
G01 X7.0237 Y20.9650
G01 X7.1475 Y21.0114
G01 X7.2526 Y21.0902
G01 X7.3314 Y21.1953
G01 X7.3778 Y21.3191
G01 X7.3836 Y21.3723
G01 X7.3836 Y22.0205
G01 X7.3838 Y22.0253
G01 X7.3847 Y22.0312
G01 X7.4068 Y22.1063
G01 X7.4093 Y22.1119
G01 X7.4118 Y22.1162
G01 X7.4156 Y22.1212
G01 X7.4190 Y22.1248
G01 X7.4754 Y22.1738
G01 X7.4805 Y22.1774
G01 X7.4848 Y22.1799
G01 X7.4906 Y22.1823
G01 X7.4966 Y22.1840
G01 X7.5501 Y22.1956
G01 X7.5584 Y22.1965
G01 X11.6417 Y22.1965
G01 X11.6476 Y22.1962
G01 X11.6558 Y22.1945
G01 X11.7262 Y22.1738
G01 X11.7349 Y22.1698
G01 X11.7427 Y22.1642
G01 X11.7796 Y22.1289
G01 X11.7844 Y22.1235
G01 X11.8707 Y22.0003
G01 X12.0203 Y21.8508
G01 X12.1935 Y21.7295
G01 X12.3851 Y21.6401
G01 X12.5894 Y21.5854
G01 X12.8000 Y21.5669
G01 X13.0107 Y21.5854
G01 X13.2150 Y21.6401
G01 X13.4066 Y21.7295
G01 X13.5798 Y21.8507
G01 X13.7294 Y22.0003
G01 X13.8142 Y22.1215
G01 X13.8179 Y22.1262
G01 X13.8231 Y22.1311
G01 X13.8804 Y22.1769
G01 X13.8885 Y22.1820
G01 X13.8941 Y22.1843
G01 X13.8998 Y22.1860
G01 X13.9523 Y22.1962
G01 X13.9584 Y22.1965
G01 X17.6185 Y22.1965
G01 X17.6256 Y22.1960
G01 X17.6325 Y22.1945
G01 X17.7007 Y22.1745
G01 X17.7064 Y22.1724
G01 X17.7108 Y22.1703
G01 X17.7160 Y22.1670
G01 X17.7410 Y22.1468
G01 X17.9021 Y21.9856
G01 X17.9076 Y21.9779
G01 X17.9434 Y21.9123
G01 X17.9465 Y21.9041
G01 X17.9481 Y21.8955
G01 X17.9503 Y21.8466
G01 X17.9353 Y21.7185
G01 X17.9483 Y21.5198
G01 X17.9973 Y21.3268
G01 X18.0807 Y21.1460
G01 X18.1956 Y20.9834
G01 X18.3383 Y20.8444
G01 X18.5038 Y20.7338
G01 X18.6868 Y20.6552
G01 X18.8810 Y20.6112
G01 X19.0800 Y20.6034
G01 X19.2771 Y20.6320
G01 X19.4656 Y20.6960
G01 X19.6394 Y20.7933
G01 X19.7925 Y20.9206
G01 X19.9198 Y21.0737
G01 X20.0171 Y21.2475
G01 X20.0811 Y21.4360
G01 X20.1099 Y21.6347
G01 X20.1113 Y21.6884
G01 X20.0930 Y21.8883
G01 X20.0389 Y22.0800
G01 X19.9508 Y22.2586
G01 X19.8317 Y22.4182
G01 X19.6855 Y22.5533
G01 X19.5171 Y22.6596
G01 X19.3321 Y22.7334
G01 X19.1368 Y22.7722
G01 X18.9377 Y22.7748
G01 X18.8776 Y22.7645
G01 X18.8693 Y22.7640
G01 X18.7928 Y22.7727
G01 X18.7855 Y22.7743
G01 X18.7796 Y22.7765
G01 X18.7719 Y22.7807
G01 X18.7281 Y22.8105
G01 X18.6700 Y22.8685
G01 X18.6645 Y22.8762
G01 X18.6299 Y22.9396
G01 X18.6277 Y22.9440
G01 X18.6257 Y22.9499
G01 X18.6240 Y22.9584
G01 X18.6238 Y22.9659
G01 X18.6291 Y23.0392
G01 X18.6300 Y23.0453
G01 X18.6318 Y23.0512
G01 X18.6342 Y23.0569
G01 X18.6374 Y23.0623
G01 X18.6821 Y23.1221
G01 X18.6862 Y23.1268
G01 X18.6909 Y23.1308
G01 X18.6971 Y23.1349
G01 X18.7027 Y23.1376
G01 X18.7704 Y23.1628
G01 X18.7797 Y23.1653
G01 X18.7857 Y23.1659
G01 X18.7905 Y23.1659
G01 X18.8321 Y23.1627
G01 X18.8777 Y23.1525
G01 X18.8846 Y23.1516
G01 X19.0765 Y23.1440
G01 X19.0834 Y23.1444
G01 X19.2735 Y23.1720
G01 X19.2802 Y23.1736
G01 X19.4621 Y23.2353
G01 X19.4685 Y23.2381
G01 X19.5432 Y23.2800
G01 X19.2338 Y23.5894
G01 X19.2178 Y23.5838
G01 X19.1559 Y23.5683
G01 X19.0868 Y23.5581
G01 X19.0230 Y23.5551
G01 X18.9593 Y23.5581
G01 X18.8902 Y23.5683
G01 X18.8271 Y23.5841
G01 X18.7670 Y23.6055
G01 X18.7049 Y23.6348
G01 X18.6460 Y23.6702
G01 X18.5948 Y23.7083
G01 X18.5458 Y23.7528
G01 X18.5013 Y23.8018
G01 X18.4632 Y23.8530
G01 X18.4278 Y23.9119
G01 X18.3985 Y23.9740
G01 X18.3771 Y24.0341
G01 X18.3613 Y24.0972
G01 X18.3511 Y24.1663
G01 X18.3481 Y24.2300
G01 X18.3511 Y24.2938
G01 X18.3613 Y24.3629
G01 X18.3768 Y24.4248
G01 X18.3824 Y24.4408
G01 X18.0729 Y24.7503
G01 X18.0198 Y24.6494
G01 X18.0172 Y24.6430
G01 X17.9602 Y24.4595
G01 X17.9588 Y24.4527
G01 X17.9362 Y24.2620
G01 X17.9360 Y24.2551
G01 X17.9486 Y24.0634
G01 X17.9497 Y24.0565
G01 X17.9969 Y23.8704
G01 X17.9992 Y23.8638
G01 X18.0797 Y23.6894
G01 X18.0831 Y23.6834
G01 X18.1113 Y23.6435
G01 X18.1154 Y23.6362
G01 X18.1408 Y23.5623
G01 X18.1425 Y23.5537
G01 X18.1427 Y23.5451
G01 X18.1413 Y23.5365
G01 X18.1237 Y23.4652
G01 X18.1215 Y23.4593
G01 X18.1193 Y23.4549
G01 X18.1159 Y23.4497
G01 X18.1119 Y23.4450
G01 X18.0577 Y23.3936
G01 X18.0529 Y23.3898
G01 X18.0477 Y23.3866
G01 X18.0422 Y23.3840
G01 X18.0364 Y23.3822
G01 X17.9689 Y23.3673
G01 X17.9594 Y23.3671
G01 X17.9515 Y23.3679
G01 X17.9126 Y23.3642
G01 X17.8972 Y23.3636
G01 X13.9584 Y23.3636
G01 X13.9525 Y23.3639
G01 X13.9443 Y23.3656
G01 X13.8739 Y23.3863
G01 X13.8652 Y23.3903
G01 X13.8574 Y23.3959
G01 X13.8205 Y23.4312
G01 X13.8157 Y23.4366
G01 X13.7294 Y23.5598
G01 X13.5798 Y23.7094
G01 X13.4066 Y23.8306
G01 X13.2150 Y23.9200
G01 X13.0107 Y23.9747
G01 X12.8000 Y23.9932
G01 X12.5894 Y23.9747
G01 X12.3851 Y23.9200
G01 X12.1935 Y23.8306
G01 X12.0203 Y23.7094
G01 X11.8707 Y23.5598
G01 X11.7859 Y23.4386
G01 X11.7822 Y23.4339
G01 X11.7770 Y23.4290
G01 X11.7197 Y23.3832
G01 X11.7116 Y23.3781
G01 X11.7060 Y23.3758
G01 X11.7003 Y23.3741
G01 X11.6465 Y23.3638
G01 X7.4865 Y23.3636
G01 X7.4806 Y23.3641
G01 X7.4747 Y23.3653
G01 X7.4055 Y23.3856
G01 X7.3987 Y23.3881
G01 X7.3933 Y23.3910
G01 X7.3883 Y23.3945
G01 X7.3838 Y23.3986
G01 X7.3406 Y23.4449
G01 X7.3355 Y23.4518
G01 X7.3314 Y23.4602
G00 Z2.0000
G00 X5.7851 Y18.0536
G01 F60.00
G01 Z-0.0000
G01 F120.00
G01 X6.9487 Y18.0537
G01 X6.9548 Y18.0545
G01 X6.9607 Y18.0561
G01 X6.9664 Y18.0584
G01 X6.9718 Y18.0613
G01 X6.9768 Y18.0649
G01 X6.9813 Y18.0691
G01 X6.9852 Y18.0738
G01 X6.9886 Y18.0789
G01 X6.9925 Y18.0879
G01 X6.9947 Y18.0974
G01 X6.9950 Y18.1036
G01 X6.9950 Y18.1360
G01 X7.3748 Y17.7563
G01 X7.3866 Y17.7455
G01 X7.4034 Y17.7332
G01 X7.4160 Y17.7257
G01 X7.4316 Y17.7183
G01 X7.4477 Y17.7125
G01 X7.4620 Y17.7089
G01 X7.4839 Y17.7056
G01 X7.4986 Y17.7050
G01 X12.0201 Y17.7050
G01 X12.0345 Y17.6478
G01 X12.0609 Y17.5739
G01 X12.0945 Y17.5029
G01 X12.1349 Y17.4356
G01 X12.1816 Y17.3725
G01 X12.2344 Y17.3144
G01 X12.2925 Y17.2616
G01 X12.3536 Y17.2163
G01 X12.4251 Y17.1734
G01 X12.4939 Y17.1409
G01 X12.5702 Y17.1138
G01 X12.6440 Y17.0954
G01 X12.7216 Y17.0839
G01 X12.8000 Y17.0801
G01 X12.8772 Y17.0838
G01 X12.9585 Y17.0960
G01 X13.0323 Y17.1145
G01 X13.1062 Y17.1409
G01 X13.1772 Y17.1745
G01 X13.2424 Y17.2136
G01 X13.3085 Y17.2624
G01 X13.3657 Y17.3144
G01 X13.4169 Y17.3707
G01 X13.4665 Y17.4377
G01 X13.5056 Y17.5029
G01 X13.5392 Y17.5739
G01 X13.5656 Y17.6478
G01 X13.5800 Y17.7050
G01 X17.7530 Y17.7050
G01 X17.7726 Y17.7061
G01 X17.7872 Y17.7084
G01 X17.8039 Y17.7125
G01 X17.8200 Y17.7183
G01 X17.8377 Y17.7269
G01 X17.8503 Y17.7345
G01 X17.8622 Y17.7432
G01 X17.8760 Y17.7554
G01 X18.6864 Y18.5658
G01 X18.7059 Y18.5542
G01 X18.7659 Y18.5260
G01 X18.8271 Y18.5041
G01 X18.8902 Y18.4883
G01 X18.9593 Y18.4781
G01 X19.0230 Y18.4751
G01 X19.0880 Y18.4782
G01 X19.1571 Y18.4886
G01 X19.2190 Y18.5041
G01 X19.2814 Y18.5264
G01 X19.3434 Y18.5560
G01 X19.3981 Y18.5888
G01 X19.4503 Y18.6275
G01 X19.5003 Y18.6728
G01 X19.5463 Y18.7238
G01 X19.5843 Y18.7750
G01 X19.6171 Y18.8297
G01 X19.6467 Y18.8917
G01 X19.6690 Y18.9541
G01 X19.6855 Y19.0208
G01 X19.6948 Y19.0839
G01 X19.6980 Y19.1476
G01 X19.6949 Y19.2150
G01 X19.6851 Y19.2817
G01 X19.6682 Y19.3483
G01 X19.6467 Y19.4084
G01 X19.6195 Y19.4661
G01 X19.5843 Y19.5251
G01 X19.5432 Y19.5801
G01 X19.5003 Y19.6273
G01 X19.4531 Y19.6702
G01 X19.3981 Y19.7113
G01 X19.3412 Y19.7453
G01 X19.2814 Y19.7737
G01 X19.2166 Y19.7966
G01 X19.1547 Y19.8121
G01 X19.0916 Y19.8215
G01 X19.0230 Y19.8250
G01 X18.9545 Y19.8215
G01 X18.8914 Y19.8121
G01 X18.8295 Y19.7966
G01 X18.7647 Y19.7737
G01 X18.7038 Y19.7448
G01 X18.6480 Y19.7113
